; generated by SuperSlicer 2.5.59.13 on 2025-11-17 at 08:42:44 UTC

; 

; external perimeters extrusion width = 0.45mm
; perimeters extrusion width = 0.45mm
; infill extrusion width = 0.45mm
; solid infill extrusion width = 0.45mm
; top infill extrusion width = 0.40mm


M106 S255
M140 S50 ; set bed temperature
G10 P0 R220 ; sets the standby temperature
G10 P0 S220 ; set temperature
;TYPE:Custom
G1 E0.7 F1800
G21 ; set units to millimeters
G90 ; use absolute coordinates
M83 ; use relative distances for extrusion
; FILAMENT_START_GCODE
G10 P0 S220 ; set temperature
M116 ; wait for temperature to be reached
M190 S50 ; set bed temperature and wait for it to be reached
;LAYER_CHANGE
;Z:20.2
;HEIGHT:20.200001
; BEFORE_LAYER_CHANGE
;20.2
G92 E0

G1 E-0.7 F2100
G1 Z0.2 F9000
G1 Z20.2
; AFTER_LAYER_CHANGE
;20.2
G1 Z20.4
M204 P1000 T1000
G1 X-6.517 Y9.373
G1 Z20.2
G1 E0.7 F2100
;TYPE:Internal infill
;WIDTH:0.45
;HEIGHT:0.2
M106 S255
G1 F1200
G1 X-5.809 Y9.845 E0.0288
G1 X-4.712 Y10.414 E0.04184
G1 X-4.38 Y10.542 E0.01203
G1 X-2.901 Y12.021 E0.07082
G1 X-2.106 Y11.226 E0.03805
G1 X-1.065 Y11.38 E0.03563
G1 X0.171 Y11.428 E0.04185
G1 X1.325 Y11.352 E0.03914
G1 X2.541 Y11.143 E0.04177
G1 X3.728 Y10.804 E0.04179
G1 X4.871 Y10.339 E0.04178
G1 X5.974 Y9.744 E0.04241
G1 X6.188 Y9.596 E0.00882
G1 X6.48 Y9.888 E0.01395
G1 X1.614 Y12.697 E0.19021
G1 X0.937 Y12.021 E0.03237
G1 X-0.982 Y13.94 E0.09186
G1 X-0.966 Y13.956 E0.00076
G1 X-1.334 Y14.028 E0.01269
G1 X-1.87 Y14.063 E0.01818
G1 X-4.697 Y14.063 E0.0957
G1 X-6.739 Y12.021 E0.09773
G1 X-8.658 Y13.94 E0.09186
G1 X-8.535 Y14.063 E0.00588
G1 X-12.618 Y14.063 E0.13821
G1 X-12.496 Y13.94 E0.00588
G1 X-14.063 Y12.373 E0.07501
G1 X-14.063 Y11.669 E0.02383
G1 X-12.496 Y10.102 E0.07501
G1 X-10.577 Y12.021 E0.09186
G1 X-8.658 Y10.102 E0.09186
G1 X-12.496 Y6.264 E0.18372
G1 X-14.063 Y7.831 E0.07501
G1 X-14.063 Y3.993 E0.12991
G1 X-12.496 Y2.426 E0.07501
G1 X-10.577 Y4.345 E0.09186
G1 X-10.572 Y4.34 E0.00024
G1 X-10.548 Y4.407 E0.00243
G1 X-10.048 Y5.452 E0.03918
G1 X-9.412 Y6.485 E0.04107
M106 S255
G1 E-0.63 F2100
;WIPE_START
G1 F7200
G1 X-9.538 Y6.281 E-0.0665
;WIPE_END
G1 E-0.0035 F2100
G1 Z20.4 F9000
; acceleration to travel
M204 P1000 T1500
G1 X-13.174 Y3.321
; decel to extrusion
M204 P1000 T1000
G1 X-14.063 Y2.597
; end travel
M204 P1000 T1500
G1 Z20.2
G1 E0.7 F2100
M106 S255
G1 F1200
G1 X-14.063 Y0.155 E0.08267
G1 X-12.496 Y-1.412 E0.07501
G1 X-14.063 Y-2.979 E0.07501
G1 X-14.063 Y-10.655 E0.25982
G1 X-10.577 Y-7.169 E0.16687
G1 X-12.496 Y-5.25 E0.09186
G1 X-10.838 Y-3.593 E0.07934
G1 X-10.695 Y-4.04 E0.01589
G1 X-10.161 Y-5.239 E0.04444
G1 X-9.537 Y-6.305 E0.04182
G1 X-8.851 Y-7.237 E0.03915
G1 X-8.159 Y-8.014 E0.03522
G1 X-7.555 Y-8.587 E0.0282
G1 X-6.252 Y-9.575 E0.05533
G1 X-5.664 Y-9.933 E0.02329
G1 X-6.739 Y-11.007 E0.05143
G1 X-8.658 Y-9.088 E0.09186
G1 X-12.496 Y-12.926 E0.18373
G1 X-11.359 Y-14.063 E0.05441
G1 X-9.794 Y-14.063 E0.05296
G1 X-8.658 Y-12.926 E0.05441
G1 X-7.521 Y-14.063 E0.05441
G1 X-3.683 Y-14.063 E0.12991
G1 X-4.82 Y-12.926 E0.05441
G1 X-2.939 Y-11.045 E0.09004
G1 X-2.835 Y-11.072 E0.00363
G1 X-0.199 Y-13.709 E0.12621
G1 X0.217 Y-13.503 E0.01571
G1 X2.256 Y-12.326 E0.0797
G1 X1.288 Y-11.358 E0.04634
G1 X1.553 Y-11.331 E0.00902
G1 X2.298 Y-11.201 E0.02558
G1 X3.295 Y-10.951 E0.0348
G1 X3.663 Y-10.815 E0.01327
M106 S255
; acceleration to travel
G1 X3.253 Y-11.471 F9000
; decel to extrusion
M204 P1000 T1000
G1 X2.98 Y-11.909
; end travel
M106 S255
G1 F1200
M204 P1000 T1500
G1 X5.095 Y-10.687 E0.08268
G1 X6.128 Y-9.655 E0.04944
G1 X6.186 Y-9.62 E0.00228
G1 X6.487 Y-9.412 E0.0124
G1 X6.487 Y-9.883 E0.01596
G1 X5.961 Y-10.187 E0.02056
M106 S255
; acceleration to travel
G1 X6.46 Y-9.359 F9000
; decel to extrusion
M204 P1000 T1000
G1 X6.793 Y-8.806
; end travel
;TYPE:Internal perimeter
;WIDTH:0.449999
M106 S255
G1 F1200
M204 P1000 T1500
G1 X6.793 Y-10.06 E0.04244
G1 X0.362 Y-13.773 E0.25135
G1 X-0.159 Y-14.03 E0.01965
G1 X-0.71 Y-14.218 E0.0197
G1 X-1.281 Y-14.33 E0.01971
G1 X-1.86 Y-14.368 E0.01965
G1 X-14.368 Y-14.368 E0.42337
G1 X-14.368 Y14.368 E0.97267
G1 X-1.86 Y14.368 E0.42338
G1 X-1.294 Y14.332 E0.01919
G1 X-0.694 Y14.213 E0.02072
G1 X-0.114 Y14.01 E0.0208
G1 X0.36 Y13.773 E0.01794
G1 X6.793 Y10.06 E0.2514
G1 X6.793 Y8.808 E0.04236
G1 X5.859 Y9.455 E0.03842
G1 X5.803 Y9.49 E0.00224
G1 X4.806 Y10.032 E0.03844
G1 X4.746 Y10.06 E0.00223
G1 X3.696 Y10.492 E0.03844
G1 X3.633 Y10.514 E0.00223
G1 X2.543 Y10.829 E0.03843
G1 X2.478 Y10.844 E0.00224
G1 X1.36 Y11.041 E0.03844
G1 X1.294 Y11.049 E0.00223
G1 X0.161 Y11.123 E0.03844
G1 X-0.642 Y11.093 E0.02719
G1 X-1.26 Y11.046 E0.02101
G1 X-2.228 Y10.899 E0.03312
G1 X-2.293 Y10.886 E0.00223
G1 X-3.39 Y10.595 E0.03845
G1 X-3.453 Y10.575 E0.00223
G1 X-4.521 Y10.165 E0.03872
G1 X-4.582 Y10.138 E0.00224
G1 X-5.592 Y9.618 E0.03847
G1 X-5.649 Y9.584 E0.00223
G1 X-6.597 Y8.958 E0.03847
G1 X-6.65 Y8.919 E0.00224
G1 X-7.526 Y8.194 E0.03846
G1 X-8.366 Y7.334 E0.0407
G1 X-8.409 Y7.284 E0.00224
G1 X-9.109 Y6.388 E0.03847
G1 X-9.147 Y6.334 E0.00223
G1 X-9.745 Y5.368 E0.03847
G1 X-9.777 Y5.31 E0.00224
G1 X-10.268 Y4.285 E0.03847
G1 X-10.293 Y4.224 E0.00223
G1 X-10.67 Y3.152 E0.03847
G1 X-10.689 Y3.089 E0.00224
G1 X-10.948 Y1.982 E0.03847
G1 X-10.96 Y1.917 E0.00224
G1 X-11.098 Y0.789 E0.03847
G1 X-11.103 Y0.723 E0.00223
G1 X-11.119 Y-0.413 E0.03848
G1 X-11.116 Y-0.479 E0.00223
G1 X-11.01 Y-1.611 E0.03847
G1 X-11 Y-1.676 E0.00224
G1 X-10.772 Y-2.79 E0.03847
G1 X-10.755 Y-2.854 E0.00224
G1 X-10.408 Y-3.936 E0.03847
G1 X-10.384 Y-3.998 E0.00224
G1 X-9.922 Y-5.036 E0.03847
G1 X-9.892 Y-5.095 E0.00224
G1 X-9.321 Y-6.078 E0.03847
G1 X-9.285 Y-6.133 E0.00223
G1 X-8.611 Y-7.048 E0.03848
G1 X-7.937 Y-7.803 E0.03426
G1 X-7.391 Y-8.324 E0.02554
G1 X-6.884 Y-8.744 E0.02226
G1 X-6.077 Y-9.325 E0.03367
G1 X-5.438 Y-9.713 E0.02529
G1 X-4.848 Y-10.017 E0.02249
G1 X-3.934 Y-10.412 E0.03369
G1 X-3.234 Y-10.651 E0.02505
G1 X-2.586 Y-10.824 E0.0227
G1 X-1.608 Y-11.013 E0.03371
G1 X-0.946 Y-11.089 E0.02257
G1 X-0.242 Y-11.126 E0.02384
G1 X0.793 Y-11.102 E0.03505
G1 X1.515 Y-11.028 E0.02458
G1 X2.189 Y-10.912 E0.02313
G1 X3.157 Y-10.673 E0.03375
G1 X3.84 Y-10.448 E0.02435
G1 X4.479 Y-10.189 E0.02334
G1 X5.373 Y-9.747 E0.03377
G1 X5.987 Y-9.385 E0.02412
G1 X6.561 Y-8.991 E0.02355
G1 X6.746 Y-8.843 E0.00801
M106 S255
M204 P1000 T1000
G1 X7.2 Y-7.943 F9000
;TYPE:External perimeter
M106 S255
G1 F1200
G1 X7.2 Y-10.295 E0.07961
G1 X0.554 Y-14.132 E0.25976
G1 X-0.002 Y-14.407 E0.021
G1 X-0.604 Y-14.612 E0.02152
G1 X-1.228 Y-14.735 E0.02153
G1 X-1.847 Y-14.775 E0.02099
G1 X-14.775 Y-14.775 E0.4376
G1 X-14.775 Y14.775 E1.00023
G1 X-1.847 Y14.775 E0.43759
G1 X-1.242 Y14.736 E0.02054
G1 X-0.587 Y14.607 E0.0226
G1 X0.045 Y14.386 E0.02265
G1 X0.553 Y14.132 E0.01923
G1 X7.2 Y10.295 E0.25977
G1 X7.2 Y7.926 E0.08018
G1 X6.578 Y8.461 E0.02776
G1 X5.771 Y9.021 E0.03325
G1 X5.609 Y9.132 E0.00664
G1 X4.611 Y9.674 E0.03844
G1 X4.591 Y9.684 E0.00075
G1 X3.541 Y10.115 E0.03844
G1 X3.52 Y10.123 E0.00074
G1 X2.429 Y10.438 E0.03844
G1 X2.408 Y10.443 E0.00074
G1 X1.289 Y10.64 E0.03844
G1 X1.267 Y10.642 E0.00075
G1 X0.134 Y10.717 E0.03843
G1 X-0.624 Y10.686 E0.02571
G1 X-1.199 Y10.643 E0.01952
G1 X-2.167 Y10.497 E0.03312
G1 X-2.188 Y10.492 E0.00075
G1 X-3.286 Y10.202 E0.03844
G1 X-3.307 Y10.195 E0.00074
G1 X-4.375 Y9.785 E0.03872
G1 X-4.395 Y9.776 E0.00075
G1 X-5.406 Y9.256 E0.03846
G1 X-5.425 Y9.245 E0.00075
G1 X-6.373 Y8.618 E0.03847
G1 X-6.391 Y8.605 E0.00074
G1 X-7.266 Y7.88 E0.03847
G1 X-8.074 Y7.05 E0.03921
G1 X-8.089 Y7.034 E0.00075
G1 X-8.788 Y6.138 E0.03847
G1 X-8.801 Y6.12 E0.00074
G1 X-9.399 Y5.154 E0.03847
G1 X-9.41 Y5.134 E0.00075
G1 X-9.901 Y4.109 E0.03847
G1 X-9.909 Y4.089 E0.00075
G1 X-10.286 Y3.017 E0.03847
G1 X-10.293 Y2.996 E0.00074
G1 X-10.552 Y1.889 E0.03847
G1 X-10.556 Y1.867 E0.00075
G1 X-10.694 Y0.739 E0.03847
G1 X-10.696 Y0.717 E0.00075
G1 X-10.712 Y-0.422 E0.03857
G1 X-10.711 Y-0.441 E0.00064
G1 X-10.604 Y-1.573 E0.03848
G1 X-10.601 Y-1.594 E0.00074
G1 X-10.373 Y-2.708 E0.03848
G1 X-10.367 Y-2.729 E0.00074
G1 X-10.02 Y-3.812 E0.03848
G1 X-10.012 Y-3.832 E0.00074
G1 X-9.55 Y-4.871 E0.03848
G1 X-9.54 Y-4.89 E0.00074
G1 X-8.969 Y-5.873 E0.03848
G1 X-8.957 Y-5.891 E0.00074
G1 X-8.283 Y-6.807 E0.03848
G1 X-7.634 Y-7.532 E0.03293
G1 X-7.111 Y-8.028 E0.02442
G1 X-6.625 Y-8.43 E0.02132
G1 X-5.84 Y-8.994 E0.03275
G1 X-5.228 Y-9.364 E0.02419
G1 X-4.662 Y-9.655 E0.02154
G1 X-3.773 Y-10.038 E0.03275
G1 X-3.103 Y-10.266 E0.02397
G1 X-2.482 Y-10.431 E0.02175
G1 X-1.532 Y-10.614 E0.03276
G1 X-0.9 Y-10.685 E0.0215
G1 X-0.225 Y-10.719 E0.02289
G1 X0.782 Y-10.695 E0.03409
G1 X1.473 Y-10.623 E0.02352
G1 X2.119 Y-10.511 E0.02218
G1 X3.058 Y-10.278 E0.03278
G1 X3.712 Y-10.062 E0.0233
G1 X4.325 Y-9.812 E0.02239
G1 X5.192 Y-9.382 E0.03279
G1 X5.779 Y-9.035 E0.02308
G1 X6.329 Y-8.655 E0.02261
G1 X7.085 Y-8.049 E0.03279
G1 X7.156 Y-7.983 E0.00327
M106 S255
;WIPE_START
G1 X7 Y-8.652 F9000
;WIPE_END
;LAYER_CHANGE
;Z:20.4
;HEIGHT:0.199999
; BEFORE_LAYER_CHANGE
;20.4
G92 E0

G1 E-0.63 F2100
;WIPE_START
G1 F7200
G1 X7.053 Y-8.886 E-0.0665
;WIPE_END
G1 E-0.0035 F2100
G1 Z20.4 F9000
; AFTER_LAYER_CHANGE
;20.4
; acceleration to travel
M204 P1000 T1500
G1 X6.204 Y-9.898
; decel to extrusion
M204 P1000 T1000
G1 X5.961 Y-10.187
; end travel
G1 E0.7 F2100
;TYPE:Internal infill
;WIDTH:0.45
M106 S255
G1 F3600
M204 P1000 T1500
G1 X6.487 Y-9.883 E0.02057
G1 X6.487 Y-9.412 E0.01595
G1 X6.186 Y-9.62 E0.01239
G1 X6.128 Y-9.655 E0.00229
G1 X5.095 Y-10.687 E0.04944
G1 X2.98 Y-11.909 E0.08267
M106 S255
; acceleration to travel
G1 X3.389 Y-11.253 F9000
; decel to extrusion
M204 P1000 T1000
G1 X3.662 Y-10.816
; end travel
M106 S255
G1 F3600
M204 P1000 T1500
G1 X3.299 Y-10.95 E0.0131
G1 X2.293 Y-11.202 E0.03511
G1 X1.602 Y-11.324 E0.02376
G1 X1.287 Y-11.357 E0.01071
G1 X2.256 Y-12.326 E0.04638
G1 X0.218 Y-13.503 E0.07969
G1 X-0.199 Y-13.709 E0.01572
G1 X-2.841 Y-11.066 E0.12649
G1 X-2.933 Y-11.039 E0.00323
G1 X-4.82 Y-12.926 E0.09034
G1 X-3.683 Y-14.063 E0.05441
G1 X-7.521 Y-14.063 E0.12991
G1 X-8.658 Y-12.926 E0.05442
G1 X-9.794 Y-14.063 E0.05441
G1 X-11.359 Y-14.063 E0.05296
G1 X-12.496 Y-12.926 E0.05441
G1 X-8.658 Y-9.088 E0.18372
G1 X-6.739 Y-11.007 E0.09186
G1 X-5.664 Y-9.933 E0.05143
G1 X-6.246 Y-9.579 E0.02304
G1 X-7.04 Y-9.009 E0.03311
G1 X-7.597 Y-8.549 E0.02442
G1 X-8.157 Y-8.016 E0.02618
G1 X-8.856 Y-7.231 E0.03557
G1 X-9.584 Y-6.234 E0.04179
G1 X-10.2 Y-5.164 E0.04181
G1 X-10.67 Y-4.105 E0.03921
G1 X-10.835 Y-3.59 E0.01831
G1 X-12.496 Y-5.25 E0.07949
G1 X-10.577 Y-7.169 E0.09186
G1 X-14.063 Y-10.655 E0.16687
G1 X-14.063 Y-2.979 E0.25982
G1 X-12.496 Y-1.412 E0.07501
G1 X-14.063 Y0.155 E0.07501
G1 X-14.063 Y3.993 E0.12991
G1 X-12.496 Y2.426 E0.075
G1 X-10.577 Y4.345 E0.09187
G1 X-10.571 Y4.34 E0.00025
G1 X-10.545 Y4.415 E0.00271
G1 X-10.006 Y5.528 E0.04184
G1 X-9.351 Y6.575 E0.04182
G1 X-8.587 Y7.546 E0.04183
G1 X-7.722 Y8.429 E0.04182
G1 X-6.767 Y9.213 E0.04182
G1 X-5.733 Y9.889 E0.04182
G1 X-4.632 Y10.45 E0.04182
G1 X-4.372 Y10.55 E0.00944
G1 X-2.901 Y12.021 E0.07042
G1 X-2.103 Y11.223 E0.03818
G1 X-1.059 Y11.381 E0.03575
G1 X0.181 Y11.429 E0.04199
G1 X1.412 Y11.342 E0.04179
G1 X2.627 Y11.124 E0.04179
G1 X3.812 Y10.775 E0.04179
G1 X4.951 Y10.301 E0.04177
G1 X5.983 Y9.739 E0.03976
G1 X6.189 Y9.597 E0.00849
G1 X6.48 Y9.888 E0.01393
G1 X1.614 Y12.697 E0.1902
G1 X0.937 Y12.021 E0.03238
G1 X-0.982 Y13.94 E0.09186
G1 X-0.966 Y13.956 E0.00076
G1 X-1.328 Y14.028 E0.01249
G1 X-1.866 Y14.063 E0.01827
G1 X-4.697 Y14.063 E0.09581
G1 X-6.739 Y12.021 E0.09774
G1 X-8.658 Y13.94 E0.09186
G1 X-8.535 Y14.063 E0.00587
G1 X-12.618 Y14.063 E0.13822
G1 X-12.496 Y13.94 E0.00588
G1 X-14.063 Y12.373 E0.075
G1 X-14.063 Y11.669 E0.02384
G1 X-12.496 Y10.102 E0.07501
G1 X-10.577 Y12.021 E0.09186
G1 X-8.658 Y10.102 E0.09186
G1 X-12.496 Y6.264 E0.18372
G1 X-14.063 Y7.831 E0.07501
G1 X-14.063 Y10.273 E0.08267
M106 S255
G1 E-0.63 F2100
;WIPE_START
G1 F7200
G1 X-14.063 Y10.033 E-0.0665
;WIPE_END
G1 E-0.0035 F2100
G1 Z20.6 F9000
; acceleration to travel
G1 X-14.304 Y13.463
; decel to extrusion
M204 P1000 T1000
G1 X-14.368 Y14.368
; end travel
M204 P1000 T1500
G1 Z20.4
G1 E0.7 F2100
;TYPE:Internal perimeter
;WIDTH:0.449999
M106 S255
G1 F2700
G1 X-1.856 Y14.368 E0.4235
G1 X-1.288 Y14.331 E0.01928
G1 X-0.693 Y14.213 E0.02055
G1 X-0.118 Y14.012 E0.02061
G1 X0.361 Y13.773 E0.01809
G1 X6.793 Y10.06 E0.2514
G1 X6.793 Y8.808 E0.04236
G1 X5.868 Y9.45 E0.03811
G1 X5.812 Y9.485 E0.00223
G1 X4.814 Y10.028 E0.03844
G1 X4.755 Y10.056 E0.00224
G1 X3.705 Y10.489 E0.03844
G1 X3.642 Y10.511 E0.00223
G1 X2.552 Y10.828 E0.03845
G1 X2.487 Y10.843 E0.00223
G1 X1.369 Y11.04 E0.03844
G1 X1.303 Y11.048 E0.00224
G1 X0.17 Y11.123 E0.03844
G1 X-0.647 Y11.093 E0.02766
G1 X-1.259 Y11.046 E0.02079
G1 X-2.219 Y10.901 E0.03288
G1 X-2.284 Y10.888 E0.00223
G1 X-3.382 Y10.598 E0.03844
G1 X-3.445 Y10.578 E0.00224
G1 X-4.513 Y10.169 E0.03872
G1 X-4.574 Y10.142 E0.00225
G1 X-5.585 Y9.622 E0.03847
G1 X-5.642 Y9.589 E0.00223
G1 X-6.591 Y8.963 E0.03848
G1 X-6.644 Y8.924 E0.00223
G1 X-7.52 Y8.2 E0.03848
G1 X-8.361 Y7.34 E0.0407
G1 X-8.404 Y7.291 E0.00223
G1 X-9.104 Y6.395 E0.03848
G1 X-9.142 Y6.341 E0.00223
G1 X-9.742 Y5.375 E0.03848
G1 X-9.773 Y5.317 E0.00223
G1 X-10.265 Y4.292 E0.03848
G1 X-10.29 Y4.231 E0.00223
G1 X-10.668 Y3.16 E0.03848
G1 X-10.687 Y3.096 E0.00223
G1 X-10.947 Y1.99 E0.03848
G1 X-10.959 Y1.925 E0.00224
G1 X-11.098 Y0.796 E0.03847
G1 X-11.103 Y0.731 E0.00224
G1 X-11.119 Y-0.406 E0.03847
G1 X-11.117 Y-0.472 E0.00224
G1 X-11.011 Y-1.604 E0.03848
G1 X-11.001 Y-1.669 E0.00223
G1 X-10.774 Y-2.783 E0.03848
G1 X-10.757 Y-2.847 E0.00223
G1 X-10.41 Y-3.929 E0.03848
G1 X-10.387 Y-3.991 E0.00224
G1 X-9.926 Y-5.03 E0.03848
G1 X-9.896 Y-5.089 E0.00223
G1 X-9.325 Y-6.072 E0.03848
G1 X-9.289 Y-6.127 E0.00223
G1 X-8.615 Y-7.043 E0.03849
G1 X-7.935 Y-7.806 E0.03459
G1 X-7.391 Y-8.323 E0.02539
G1 X-6.889 Y-8.74 E0.02209
G1 X-6.074 Y-9.327 E0.034
G1 X-5.439 Y-9.712 E0.02515
G1 X-4.854 Y-10.015 E0.0223
G1 X-3.931 Y-10.413 E0.03402
G1 X-3.235 Y-10.651 E0.02491
G1 X-2.592 Y-10.823 E0.02252
G1 X-1.604 Y-11.014 E0.03404
G1 X-0.946 Y-11.089 E0.02243
G1 X-0.242 Y-11.126 E0.02388
G1 X0.797 Y-11.101 E0.03516
G1 X1.515 Y-11.028 E0.02443
G1 X2.183 Y-10.913 E0.02296
G1 X3.161 Y-10.672 E0.03408
G1 X3.84 Y-10.448 E0.0242
G1 X4.474 Y-10.191 E0.02317
G1 X5.377 Y-9.745 E0.0341
G1 X5.987 Y-9.385 E0.02396
G1 X6.556 Y-8.994 E0.02339
G1 X6.793 Y-8.806 E0.01021
G1 X6.793 Y-10.06 E0.04243
G1 X0.362 Y-13.773 E0.25136
G1 X-0.161 Y-14.031 E0.01973
G1 X-0.71 Y-14.218 E0.01962
G1 X-1.278 Y-14.33 E0.01962
G1 X-1.86 Y-14.368 E0.01974
G1 X-14.368 Y-14.368 E0.42337
G1 X-14.368 Y14.308 E0.97064
M106 S255
M204 P1000 T1000
G1 X-14.775 Y14.775 F9000
;TYPE:External perimeter
M106 S255
G1 F1800
G1 X-1.846 Y14.775 E0.43764
G1 X-1.235 Y14.735 E0.02073
G1 X-0.585 Y14.606 E0.02241
G1 X0.041 Y14.388 E0.02245
G1 X0.553 Y14.132 E0.01939
G1 X7.2 Y10.295 E0.25977
G1 X7.2 Y7.926 E0.08017
G1 X6.585 Y8.455 E0.02744
G1 X5.771 Y9.022 E0.0336
G1 X5.617 Y9.127 E0.00631
G1 X4.62 Y9.671 E0.03844
G1 X4.6 Y9.68 E0.00075
G1 X3.55 Y10.113 E0.03844
G1 X3.529 Y10.12 E0.00074
G1 X2.438 Y10.437 E0.03845
G1 X2.417 Y10.442 E0.00074
G1 X1.298 Y10.639 E0.03845
G1 X1.276 Y10.642 E0.00074
G1 X0.143 Y10.717 E0.03844
G1 X-0.63 Y10.686 E0.02618
G1 X-1.198 Y10.643 E0.0193
G1 X-2.159 Y10.499 E0.03288
G1 X-2.18 Y10.494 E0.00074
G1 X-3.278 Y10.205 E0.03845
G1 X-3.299 Y10.198 E0.00074
G1 X-4.368 Y9.789 E0.03872
G1 X-4.388 Y9.78 E0.00075
G1 X-5.399 Y9.26 E0.03847
G1 X-5.418 Y9.249 E0.00075
G1 X-6.367 Y8.623 E0.03847
G1 X-6.384 Y8.61 E0.00075
G1 X-7.26 Y7.886 E0.03847
G1 X-8.069 Y7.056 E0.03922
G1 X-8.084 Y7.04 E0.00074
G1 X-8.784 Y6.144 E0.03848
G1 X-8.796 Y6.126 E0.00074
G1 X-9.396 Y5.161 E0.03848
G1 X-9.406 Y5.141 E0.00074
G1 X-9.898 Y4.116 E0.03848
G1 X-9.906 Y4.096 E0.00074
G1 X-10.285 Y3.024 E0.03848
G1 X-10.291 Y3.003 E0.00074
G1 X-10.551 Y1.896 E0.03848
G1 X-10.555 Y1.875 E0.00075
G1 X-10.694 Y0.747 E0.03847
G1 X-10.696 Y0.725 E0.00075
G1 X-10.712 Y-0.415 E0.03858
G1 X-10.712 Y-0.434 E0.00064
G1 X-10.605 Y-1.566 E0.03848
