; generated by SuperSlicer 2.5.59.13 on 2025-11-27 at 11:28:46 UTC

; 

; external perimeters extrusion width = 0.30mm
; perimeters extrusion width = 0.30mm
; infill extrusion width = 0.30mm
; solid infill extrusion width = 0.30mm
; top infill extrusion width = 0.30mm


M106 S255
M140 S50 ; set bed temperature
G10 P0 R220 ; sets the standby temperature
G10 P0 S220 ; set temperature
;TYPE:Custom
G1 E0.7 F1800
G21 ; set units to millimeters
G90 ; use absolute coordinates
M83 ; use relative distances for extrusion
; FILAMENT_START_GCODE
G10 P0 S220 ; set temperature
M116 ; wait for temperature to be reached
M190 S50 ; set bed temperature and wait for it to be reached
;LAYER_CHANGE
;Z:20.6
;HEIGHT:20.6
; BEFORE_LAYER_CHANGE
;20.6
G92 E0

G1 E-0.7 F2100
G1  Z6.2 F9000
G1  Z17.023
; AFTER_LAYER_CHANGE
;20.6
G1  Z17.223
M204 P1000 T1000
G1 X0.74 Y-1.788 Z17.87
G1 X1.48 Y-3.577 Z18.531
G1 X2.22 Y-5.365 Z19.193
G1 X2.961 Y-7.153 Z19.854
G1 X3.701 Y-8.942 Z20.514
G1 X4.441 Y-10.73 Z20.8
G1  Z20.6
G1 E0.7 F2100
;TYPE:Solid infill
;WIDTH:0.287314
;HEIGHT:0.2
M106 S255
G1 F1200
G1 X4.116 Y-11.054 Z20.6 E0.00845
G1 X3.256 Y-11.551 Z20.6 E0.0183
G1 X3.869 Y-10.938 Z20.6 E0.01597
G1 X3.325 Y-11.119 Z20.6 E0.01056
G1 X2.396 Y-12.047 Z20.6 E0.02421
G1 X1.536 Y-12.544 Z20.6 E0.0183
G1 X2.838 Y-11.242 Z20.6 E0.03393
G1 X2.356 Y-11.361 Z20.6 E0.00915
G1 X1.516 Y-12.201 Z20.6 E0.021885
G1 X0.676 Y-13.041 Z20.6 E0.021885
G1 X0.137 Y-13.352 Z20.6 E0.01147
G1 X-0.132 Y-13.484 Z20.6 E0.00551
G1 X0.895 Y-12.458 Z20.6 E0.026755
G1 X1.922 Y-11.431 Z20.6 E0.026755
G1 X1.5 Y-11.489 Z20.6 E0.00784
G1 X0.383 Y-12.606 Z20.6 E0.02909
G1 X-0.733 Y-13.722 Z20.6 E0.02909
G1 X-0.834 Y-13.756 Z20.6 E0.00197
G1 X-1.204 Y-13.83 Z20.6 E0.00696
G1 X-0.063 Y-12.689 Z20.6 E0.029735
G1 X1.078 Y-11.548 Z20.6 E0.029735
G1 X0.896 Y-11.573 Z20.6 E0.00339
G1 X0.683 Y-11.579 Z20.6 E0.00393
G1 X-0.464 Y-12.726 Z20.6 E0.02987
G1 X-1.61 Y-13.872 Z20.6 E0.02987
G1 X-1.879 Y-13.891 Z20.6 E0.00498
G1 X-1.993 Y-13.891 Z20.6 E0.00208
G1 X-0.842 Y-12.74 Z20.6 E0.02998
G1 X0.308 Y-11.59 Z20.6 E0.02998
G1 X-0.067 Y-11.601 Z20.6 E0.00691
G1 X-1.211 Y-12.746 Z20.6 E0.02983
G1 X-2.356 Y-13.891 Z20.6 E0.02983
G1 X-2.72 Y-13.891 Z20.6 E0.0067
G1 X-1.572 Y-12.742 Z20.6 E0.029925
G1 X-0.423 Y-11.594 Z20.6 E0.029925
G1 X-0.772 Y-11.58 Z20.6 E0.00645
G1 X-1.928 Y-12.736 Z20.6 E0.03011
G1 X-3.083 Y-13.891 Z20.6 E0.03011
G1 X-3.447 Y-13.891 Z20.6 E0.0067
G1 X-2.276 Y-12.72 Z20.6 E0.030515
G1 X-1.105 Y-11.549 Z20.6 E0.030515
G1 X-1.432 Y-11.512 Z20.6 E0.00606
G1 X-2.621 Y-12.702 Z20.6 E0.03099
G1 X-3.81 Y-13.891 Z20.6 E0.03099
G1 X-4.174 Y-13.891 Z20.6 E0.0067
G1 X-2.964 Y-12.681 Z20.6 E0.031535
G1 X-1.754 Y-11.471 Z20.6 E0.031535
G1 X-2.059 Y-11.412 Z20.6 E0.00572
G1 X-3.298 Y-12.652 Z20.6 E0.0323
G1 X-4.538 Y-13.891 Z20.6 E0.0323
G1 X-4.901 Y-13.891 Z20.6 E0.0067
G1 X-3.632 Y-12.622 Z20.6 E0.03306
G1 X-2.364 Y-11.354 Z20.6 E0.03306
G1 X-2.65 Y-11.299 Z20.6 E0.00537
G1 X-2.668 Y-11.294 Z20.6 E0.0
G1 X-3.966 Y-12.593 Z20.6 E0.033835
G1 X-5.265 Y-13.891 Z20.6 E0.033835
G1 X-5.628 Y-13.891 Z20.6 E0.0067
G1 X-4.292 Y-12.554 Z20.6 E0.034825
G1 X-2.955 Y-11.218 Z20.6 E0.034825
G1 X-3.242 Y-11.142 Z20.6 E0.00548
G1 X-4.617 Y-12.516 Z20.6 E0.035825
G1 X-5.992 Y-13.891 Z20.6 E0.035825
G1 X-6.355 Y-13.891 Z20.6 E0.00669
G1 X-5.41 Y-12.946 Z20.6 E0.024617
G1 X-4.466 Y-12.002 Z20.6 E0.024617
G1 X-3.521 Y-11.057 Z20.6 E0.024617
G1 X-3.792 Y-10.964 Z20.6 E0.00528
G1 X-4.768 Y-11.94 Z20.6 E0.025423
G1 X-5.743 Y-12.915 Z20.6 E0.025423
G1 X-6.719 Y-13.891 Z20.6 E0.025423
G1 X-7.083 Y-13.891 Z20.6 E0.0067
G1 X-6.076 Y-12.884 Z20.6 E0.02623
G1 X-5.069 Y-11.878 Z20.6 E0.02623
G1 X-4.062 Y-10.871 Z20.6 E0.02623
G1 X-4.112 Y-10.854 Z20.6 E0.0
G1 X-4.32 Y-10.765 Z20.6 E0.00417
G1 X-5.362 Y-11.807 Z20.6 E0.027153
G1 X-6.404 Y-12.849 Z20.6 E0.027153
G1 X-7.446 Y-13.891 Z20.6 E0.027153
G1 X-7.81 Y-13.891 Z20.6 E0.0067
G1 X-6.731 Y-12.812 Z20.6 E0.028107
G1 X-5.653 Y-11.734 Z20.6 E0.028107
G1 X-4.574 Y-10.655 Z20.6 E0.028107
G1 X-4.828 Y-10.546 Z20.6 E0.0051
G1 X-5.943 Y-11.661 Z20.6 E0.029053
G1 X-7.058 Y-12.776 Z20.6 E0.029053
G1 X-8.173 Y-13.891 Z20.6 E0.029053
G1 X-8.537 Y-13.891 Z20.6 E0.0067
G1 X-7.384 Y-12.738 Z20.6 E0.030037
G1 X-6.232 Y-11.586 Z20.6 E0.030037
G1 X-5.079 Y-10.433 Z20.6 E0.030037
G1 X-5.319 Y-10.309 Z20.6 E0.00497
G1 X-6.513 Y-11.503 Z20.6 E0.03111
G1 X-7.706 Y-12.697 Z20.6 E0.03111
G1 X-8.9 Y-13.891 Z20.6 E0.03111
G1 X-9.264 Y-13.891 Z20.6 E0.0067
G1 X-8.029 Y-12.656 Z20.6 E0.032183
G1 X-6.794 Y-11.421 Z20.6 E0.032183
G1 X-5.559 Y-10.186 Z20.6 E0.032183
G1 X-5.683 Y-10.122 Z20.6 E0.00257
G1 X-5.792 Y-10.056 Z20.6 E0.00236
G1 X-7.07 Y-11.334 Z20.6 E0.033313
G1 X-8.349 Y-12.613 Z20.6 E0.033313
G1 X-9.627 Y-13.891 Z20.6 E0.033313
G1 X-9.991 Y-13.891 Z20.6 E0.00669
G1 X-8.667 Y-12.567 Z20.6 E0.03451
G1 X-7.342 Y-11.242 Z20.6 E0.03451
G1 X-6.018 Y-9.918 Z20.6 E0.03451
G1 X-6.244 Y-9.781 Z20.6 E0.00487
G1 X-7.614 Y-11.151 Z20.6 E0.035703
G1 X-8.985 Y-12.521 Z20.6 E0.035703
G1 X-10.355 Y-13.891 Z20.6 E0.035703
G1 X-10.718 Y-13.891 Z20.6 E0.0067
G1 X-9.654 Y-12.827 Z20.6 E0.027725
G1 X-8.59 Y-11.763 Z20.6 E0.027725
G1 X-7.526 Y-10.699 Z20.6 E0.027725
G1 X-6.462 Y-9.635 Z20.6 E0.027725
G1 X-6.674 Y-9.483 Z20.6 E0.0048
G1 X-7.776 Y-10.585 Z20.6 E0.028715
G1 X-8.878 Y-11.687 Z20.6 E0.028715
G1 X-9.98 Y-12.789 Z20.6 E0.028715
G1 X-11.082 Y-13.891 Z20.6 E0.028715
G1 X-11.445 Y-13.891 Z20.6 E0.0067
G1 X-10.305 Y-12.751 Z20.6 E0.029705
G1 X-9.165 Y-11.611 Z20.6 E0.029705
G1 X-8.025 Y-10.471 Z20.6 E0.029705
G1 X-6.885 Y-9.331 Z20.6 E0.029705
G1 X-7.097 Y-9.179 Z20.6 E0.0048
G1 X-8.275 Y-10.357 Z20.6 E0.030695
G1 X-9.453 Y-11.535 Z20.6 E0.030695
G1 X-10.631 Y-12.713 Z20.6 E0.030695
G1 X-11.809 Y-13.891 Z20.6 E0.030695
G1 X-12.172 Y-13.891 Z20.6 E0.0067
G1 X-10.952 Y-12.672 Z20.6 E0.031778
G1 X-9.733 Y-11.452 Z20.6 E0.031778
G1 X-8.514 Y-10.232 Z20.6 E0.031778
G1 X-7.294 Y-9.013 Z20.6 E0.031778
G1 X-7.487 Y-8.842 Z20.6 E0.00474
G1 X-8.749 Y-10.104 Z20.6 E0.03289
G1 X-10.012 Y-11.366 Z20.6 E0.03289
G1 X-11.274 Y-12.629 Z20.6 E0.03289
G1 X-12.536 Y-13.891 Z20.6 E0.03289
G1 X-12.9 Y-13.891 Z20.6 E0.0067
G1 X-11.595 Y-12.586 Z20.6 E0.034
G1 X-10.29 Y-11.282 Z20.6 E0.034
G1 X-8.985 Y-9.977 Z20.6 E0.034
G1 X-7.68 Y-8.672 Z20.6 E0.034
G1 X-7.873 Y-8.501 Z20.6 E0.00475
G1 X-9.22 Y-9.848 Z20.6 E0.035112
G1 X-10.568 Y-11.196 Z20.6 E0.035112
G1 X-11.916 Y-12.544 Z20.6 E0.035112
G1 X-13.263 Y-13.891 Z20.6 E0.035112
G1 X-13.627 Y-13.891 Z20.6 E0.0067
G1 X-12.237 Y-12.501 Z20.6 E0.036222
G1 X-10.846 Y-11.11 Z20.6 E0.036222
G1 X-9.456 Y-9.72 Z20.6 E0.036222
G1 X-8.066 Y-8.33 Z20.6 E0.036222
G1 X-8.238 Y-8.178 Z20.6 E0.00423
G1 X-8.257 Y-8.157 Z20.6 E0.0
G1 X-9.666 Y-9.566 Z20.6 E0.036705
G1 X-11.074 Y-10.974 Z20.6 E0.036705
G1 X-12.482 Y-12.383 Z20.6 E0.036705
G1 X-13.891 Y-13.792 Z20.6 E0.036705
G1 X-13.891 Y-13.428 Z20.6 E0.0067
G1 X-12.525 Y-12.062 Z20.6 E0.035592
G1 X-11.159 Y-10.696 Z20.6 E0.035592
G1 X-9.793 Y-9.33 Z20.6 E0.035592
G1 X-8.427 Y-7.964 Z20.6 E0.035592
G1 X-8.598 Y-7.771 Z20.6 E0.00475
G1 X-9.921 Y-9.094 Z20.6 E0.034482
G1 X-11.244 Y-10.418 Z20.6 E0.034482
G1 X-12.568 Y-11.741 Z20.6 E0.034482
G1 X-13.891 Y-13.065 Z20.6 E0.034482
G1 X-13.891 Y-12.701 Z20.6 E0.0067
G1 X-12.61 Y-11.42 Z20.6 E0.033372
G1 X-11.33 Y-10.14 Z20.6 E0.033372
G1 X-10.049 Y-8.859 Z20.6 E0.033372
G1 X-8.768 Y-7.578 Z20.6 E0.033372
G1 X-8.939 Y-7.385 Z20.6 E0.00474
G1 X-10.177 Y-8.623 Z20.6 E0.032262
G1 X-11.415 Y-9.862 Z20.6 E0.032262
G1 X-12.653 Y-11.1 Z20.6 E0.032262
G1 X-13.891 Y-12.338 Z20.6 E0.032262
G1 X-13.891 Y-11.974 Z20.6 E0.00669
G1 X-12.696 Y-10.779 Z20.6 E0.03115
G1 X-11.5 Y-9.583 Z20.6 E0.03115
G1 X-10.304 Y-8.388 Z20.6 E0.03115
G1 X-9.109 Y-7.192 Z20.6 E0.03115
G1 X-9.26 Y-6.98 Z20.6 E0.00481
G1 X-10.418 Y-8.138 Z20.6 E0.030165
G1 X-11.576 Y-9.296 Z20.6 E0.030165
G1 X-12.733 Y-10.453 Z20.6 E0.030165
G1 X-13.891 Y-11.611 Z20.6 E0.030165
G1 X-13.891 Y-11.247 Z20.6 E0.0067
G1 X-12.771 Y-10.127 Z20.6 E0.029188
G1 X-11.651 Y-9.006 Z20.6 E0.029188
G1 X-10.531 Y-7.886 Z20.6 E0.029188
G1 X-9.411 Y-6.766 Z20.6 E0.029188
G1 X-9.561 Y-6.553 Z20.6 E0.00481
G1 X-10.644 Y-7.635 Z20.6 E0.02821
G1 X-11.726 Y-8.718 Z20.6 E0.02821
G1 X-12.808 Y-9.8 Z20.6 E0.02821
G1 X-13.891 Y-10.883 Z20.6 E0.02821
G1 X-13.891 Y-10.52 Z20.6 E0.00669
G1 X-12.498 Y-9.127 Z20.6 E0.03631
G1 X-11.104 Y-7.733 Z20.6 E0.03631
G1 X-9.711 Y-6.34 Z20.6 E0.03631
G1 X-9.838 Y-6.159 Z20.6 E0.00407
G1 X-9.858 Y-6.123 Z20.6 E0.0
G1 X-11.202 Y-7.467 Z20.6 E0.03503
G1 X-12.547 Y-8.812 Z20.6 E0.03503
G1 X-13.891 Y-10.156 Z20.6 E0.03503
G1 X-13.891 Y-9.793 Z20.6 E0.0067
G1 X-12.59 Y-8.492 Z20.6 E0.033897
G1 X-11.29 Y-7.191 Z20.6 E0.033897
G1 X-9.989 Y-5.89 Z20.6 E0.033897
G1 X-10.119 Y-5.657 Z20.6 E0.00492
G1 X-11.376 Y-6.914 Z20.6 E0.032763
G1 X-12.634 Y-8.172 Z20.6 E0.032763
G1 X-13.891 Y-9.429 Z20.6 E0.032763
G1 X-13.891 Y-9.066 Z20.6 E0.0067
G1 X-12.677 Y-7.852 Z20.6 E0.031633
G1 X-11.463 Y-6.638 Z20.6 E0.031633
G1 X-10.249 Y-5.424 Z20.6 E0.031633
G1 X-10.38 Y-5.191 Z20.6 E0.00492
G1 X-11.55 Y-6.361 Z20.6 E0.0305
G1 X-12.721 Y-7.532 Z20.6 E0.0305
G1 X-13.891 Y-8.702 Z20.6 E0.0305
G1 X-13.891 Y-8.339 Z20.6 E0.0067
G1 X-12.758 Y-7.206 Z20.6 E0.029527
G1 X-11.624 Y-6.072 Z20.6 E0.029527
G1 X-10.491 Y-4.939 Z20.6 E0.029527
G1 X-10.6 Y-4.684 Z20.6 E0.00511
G1 X-11.697 Y-5.781 Z20.6 E0.028587
G1 X-12.794 Y-6.878 Z20.6 E0.028587
G1 X-13.891 Y-7.975 Z20.6 E0.028587
G1 X-13.891 Y-7.611 Z20.6 E0.0067
G1 X-12.83 Y-6.55 Z20.6 E0.027647
G1 X-11.769 Y-5.489 Z20.6 E0.027647
G1 X-10.708 Y-4.428 Z20.6 E0.027647
G1 X-10.817 Y-4.173 Z20.6 E0.00511
G1 X-11.842 Y-5.198 Z20.6 E0.026703
G1 X-12.866 Y-6.223 Z20.6 E0.026703
G1 X-13.891 Y-7.248 Z20.6 E0.026703
G1 X-13.891 Y-6.884 Z20.6 E0.0067
G1 X-12.902 Y-5.895 Z20.6 E0.025763
G1 X-11.914 Y-4.907 Z20.6 E0.025763
G1 X-10.925 Y-3.918 Z20.6 E0.025763
G1 X-11.011 Y-3.64 Z20.6 E0.00536
G1 X-11.971 Y-4.6 Z20.6 E0.02502
G1 X-12.931 Y-5.561 Z20.6 E0.02502
G1 X-13.891 Y-6.521 Z20.6 E0.02502
G1 X-13.891 Y-6.157 Z20.6 E0.00669
G1 X-12.493 Y-4.759 Z20.6 E0.03643
G1 X-11.095 Y-3.361 Z20.6 E0.03643
G1 X-11.179 Y-3.082 Z20.6 E0.00538
G1 X-12.535 Y-4.438 Z20.6 E0.03533
G1 X-13.891 Y-5.794 Z20.6 E0.03533
G1 X-13.891 Y-5.43 Z20.6 E0.00669
G1 X-12.578 Y-4.116 Z20.6 E0.034235
G1 X-11.264 Y-2.803 Z20.6 E0.034235
G1 X-11.322 Y-2.498 Z20.6 E0.00572
G1 X-12.606 Y-3.782 Z20.6 E0.033465
G1 X-13.891 Y-5.066 Z20.6 E0.033465
G1 X-13.891 Y-4.703 Z20.6 E0.0067
G1 X-12.636 Y-3.448 Z20.6 E0.032705
G1 X-11.381 Y-2.193 Z20.6 E0.032705
G1 X-11.44 Y-1.888 Z20.6 E0.00572
G1 X-12.666 Y-3.114 Z20.6 E0.03194
G1 X-13.891 Y-4.339 Z20.6 E0.03194
G1 X-13.891 Y-3.976 Z20.6 E0.0067
G1 X-12.694 Y-2.78 Z20.6 E0.031175
G1 X-11.498 Y-1.583 Z20.6 E0.031175
G1 X-11.526 Y-1.247 Z20.6 E0.00621
G1 X-12.708 Y-2.43 Z20.6 E0.03082
G1 X-13.891 Y-3.612 Z20.6 E0.03082
G1 X-13.891 Y-3.249 Z20.6 E0.0067
G1 X-12.721 Y-2.079 Z20.6 E0.03048
G1 X-11.552 Y-0.909 Z20.6 E0.03048
G1 X-11.578 Y-0.572 Z20.6 E0.00623
G1 X-12.734 Y-1.728 Z20.6 E0.03014
G1 X-13.891 Y-2.885 Z20.6 E0.03014
G1 X-13.891 Y-2.521 Z20.6 E0.00669
G1 X-12.747 Y-1.378 Z20.6 E0.0298
G1 X-11.604 Y-0.235 Z20.6 E0.0298
G1 X-11.593 Y0.141 Z20.6 E0.00691
G1 X-12.742 Y-1.008 Z20.6 E0.029945
G1 X-13.891 Y-2.158 Z20.6 E0.029945
G1 X-13.891 Y-1.794 Z20.6 E0.0067
G1 X-12.735 Y-0.639 Z20.6 E0.03012
G1 X-11.579 Y0.517 Z20.6 E0.03012
G1 X-11.566 Y0.894 Z20.6 E0.00695
G1 X-12.728 Y-0.269 Z20.6 E0.030295
G1 X-13.891 Y-1.431 Z20.6 E0.030295
G1 X-13.891 Y-1.067 Z20.6 E0.00669
G1 X-12.708 Y0.117 Z20.6 E0.03084
G1 X-11.524 Y1.3 Z20.6 E0.03084
G1 X-11.465 Y1.722 Z20.6 E0.00786
G1 X-12.678 Y0.509 Z20.6 E0.03161
G1 X-13.891 Y-0.704 Z20.6 E0.03161
G1 X-13.891 Y-0.34 Z20.6 E0.0067
G1 X-12.648 Y0.902 Z20.6 E0.03238
G1 X-11.406 Y2.145 Z20.6 E0.03238
G1 X-11.401 Y2.18 Z20.6 E0.0
G1 X-11.288 Y2.626 Z20.6 E0.00849
G1 X-12.59 Y1.324 Z20.6 E0.03391
G1 X-13.891 Y0.023 Z20.6 E0.03391
G1 X-13.891 Y0.387 Z20.6 E0.0067
G1 X-12.528 Y1.75 Z20.6 E0.035515
G1 X-11.165 Y3.113 Z20.6 E0.035515
G1 X-11.069 Y3.495 Z20.6 E0.00727
G1 X-11.022 Y3.62 Z20.6 E0.00245
G1 X-11.978 Y2.664 Z20.6 E0.024923
G1 X-12.935 Y1.707 Z20.6 E0.024923
G1 X-13.891 Y0.751 Z20.6 E0.024923
G1 X-13.891 Y1.114 Z20.6 E0.0067
G1 X-12.861 Y2.144 Z20.6 E0.026827
G1 X-11.832 Y3.173 Z20.6 E0.026827
G1 X-10.802 Y4.203 Z20.6 E0.026827
G1 X-10.627 Y4.67 Z20.6 E0.00919
G1 X-10.553 Y4.816 Z20.6 E0.00302
G1 X-11.666 Y3.703 Z20.6 E0.028997
G1 X-12.778 Y2.591 Z20.6 E0.028997
G1 X-13.891 Y1.478 Z20.6 E0.028997
G1 X-13.891 Y1.841 Z20.6 E0.0067
G1 X-12.562 Y3.17 Z20.6 E0.03463
G1 X-11.233 Y4.499 Z20.6 E0.03463
G1 X-9.904 Y5.828 Z20.6 E0.03463
M106 S255
G1 E-0.63 F2100
;WIPE_START
G1 F7200
G1 X-10.074 Y5.658 Z20.6 E-0.0665
;WIPE_END
G1 E-0.0035 F2100
G1  Z20.8 F9000
; acceleration to travel
M204 P1000 T1500
G1 X-8.447 Y6.241 Z20.8
G1 X-6.821 Y6.825 Z20.508
G1 X-5.194 Y7.408 Z20.304
G1 X-3.567 Y7.991 Z20.201
G1 X-1.94 Y8.574 Z20.213
G1 X-0.314 Y9.158 Z20.334
G1 X1.313 Y9.741 Z20.57
; decel to extrusion
M204 P1000 T1000
G1 X2.705 Y10.24 Z20.8
G1 X4.096 Y10.739 Z20.8
; end travel
M204 P1000 T1500
G1  Z20.6
G1 E0.7 F2100
M106 S255
G1 F1200
G1 X4.279 Y10.922 Z20.6 E0.00478
G1 X4.204 Y11.004 Z20.6 E0.00205
G1 X4.073 Y11.079 Z20.6 E0.00279
G1 X3.908 Y10.915 Z20.6 E0.00429
G1 X3.632 Y11.003 Z20.6 E0.00533
G1 X3.842 Y11.213 Z20.6 E0.00547
G1 X3.612 Y11.346 Z20.6 E0.0049
G1 X3.357 Y11.091 Z20.6 E0.00663
G1 X3.082 Y11.179 Z20.6 E0.00533
G1 X3.381 Y11.479 Z20.6 E0.0078
G1 X3.151 Y11.612 Z20.6 E0.0049
G1 X2.8 Y11.261 Z20.6 E0.00913
G1 X2.497 Y11.321 Z20.6 E0.0057
G1 X2.92 Y11.745 Z20.6 E0.01104
G1 X2.69 Y11.878 Z20.6 E0.0049
G1 X2.193 Y11.382 Z20.6 E0.01293
G1 X1.89 Y11.442 Z20.6 E0.0057
G1 X2.459 Y12.011 Z20.6 E0.01484
G1 X2.229 Y12.144 Z20.6 E0.0049
G1 X1.581 Y11.496 Z20.6 E0.01688
G1 X1.245 Y11.524 Z20.6 E0.0062
G1 X1.998 Y12.277 Z20.6 E0.01962
G1 X1.768 Y12.41 Z20.6 E0.0049
G1 X0.91 Y11.552 Z20.6 E0.02236
G1 X0.574 Y11.58 Z20.6 E0.0062
G1 X1.537 Y12.543 Z20.6 E0.0251
G1 X1.307 Y12.676 Z20.6 E0.00491
G1 X0.233 Y11.603 Z20.6 E0.02797
G1 X-0.141 Y11.592 Z20.6 E0.0069
G1 X1.076 Y12.809 Z20.6 E0.03172
G1 X0.846 Y12.943 Z20.6 E0.00491
G1 X-0.516 Y11.581 Z20.6 E0.03548
G1 X-0.89 Y11.57 Z20.6 E0.0069
G1 X-0.138 Y12.323 Z20.6 E0.019615
G1 X0.615 Y13.076 Z20.6 E0.019615
G1 X0.385 Y13.209 Z20.6 E0.0049
G1 X-0.459 Y12.365 Z20.6 E0.02199
G1 X-1.303 Y11.521 Z20.6 E0.02199
G1 X-1.725 Y11.462 Z20.6 E0.00785
G1 X-0.786 Y12.402 Z20.6 E0.024485
G1 X0.154 Y13.342 Z20.6 E0.024485
G1 X0.135 Y13.353 Z20.6 E0.0
G1 X-0.087 Y13.464 Z20.6 E0.00458
G1 X-1.117 Y12.434 Z20.6 E0.026835
G1 X-2.147 Y11.404 Z20.6 E0.026835
G1 X-2.214 Y11.395 Z20.6 E0.00123
G1 X-2.623 Y11.292 Z20.6 E0.00777
G1 X-1.478 Y12.437 Z20.6 E0.02984
G1 X-0.332 Y13.582 Z20.6 E0.02984
G1 X-0.602 Y13.676 Z20.6 E0.00526
G1 X-1.855 Y12.423 Z20.6 E0.03265
G1 X-3.108 Y11.17 Z20.6 E0.03265
G1 X-3.43 Y11.089 Z20.6 E0.00611
G1 X-3.623 Y11.019 Z20.6 E0.00378
G1 X-2.25 Y12.392 Z20.6 E0.03576
G1 X-0.878 Y13.764 Z20.6 E0.03576
G1 X-1.181 Y13.824 Z20.6 E0.00569
G1 X-2.186 Y12.819 Z20.6 E0.026177
G1 X-3.19 Y11.815 Z20.6 E0.026177
G1 X-4.195 Y10.81 Z20.6 E0.026177
G1 X-4.517 Y10.693 Z20.6 E0.00633
G1 X-4.831 Y10.538 Z20.6 E0.00644
G1 X-3.721 Y11.648 Z20.6 E0.028917
G1 X-2.612 Y12.757 Z20.6 E0.028917
G1 X-1.502 Y13.867 Z20.6 E0.028917
G1 X-1.8 Y13.887 Z20.6 E0.00551
G1 X-1.845 Y13.887 Z20.6 E0.0
G1 X-3.176 Y12.556 Z20.6 E0.034677
G1 X-4.507 Y11.226 Z20.6 E0.034677
G1 X-5.838 Y9.895 Z20.6 E0.034677
M106 S255
G1 E-0.63 F2100
;WIPE_START
G1 F7200
G1 X-5.668 Y10.064 Z20.6 E-0.0665
;WIPE_END
G1 E-0.0035 F2100
G1  Z20.8 F9000
; acceleration to travel
G1 X-4.712 Y11.118 Z20.8
G1 X-3.755 Y12.171 Z20.8
G1 X-2.799 Y13.225 Z20.8
; decel to extrusion
M204 P1000 T1000
G1 X-2.098 Y13.998 Z20.8
; end travel
M204 P1000 T1500
G1  Z20.6
G1 E0.7 F2100
M106 S255
G1 F1200
G1 X-3.195 Y12.901 Z20.6 E0.02859
G1 X-4.292 Y11.804 Z20.6 E0.02859
G1 X-5.39 Y10.706 Z20.6 E0.02859
G1 X-6.487 Y9.609 Z20.6 E0.02859
G1 X-6.793 Y9.413 Z20.6 E0.00669
G1 X-7.769 Y8.624 Z20.6 E0.02312
G1 X-8.655 Y7.735 Z20.6 E0.02312
