; generated by SuperSlicer 2.5.59.13 on 2025-11-17 at 08:42:46 UTC

; 

; external perimeters extrusion width = 0.45mm
; perimeters extrusion width = 0.45mm
; infill extrusion width = 0.45mm
; solid infill extrusion width = 0.45mm
; top infill extrusion width = 0.40mm


M106 S255
M140 S50 ; set bed temperature
G10 P0 R220 ; sets the standby temperature
G10 P0 S220 ; set temperature
;TYPE:Custom
G1 E0.7 F1800
G21 ; set units to millimeters
G90 ; use absolute coordinates
M83 ; use relative distances for extrusion
; FILAMENT_START_GCODE
G10 P0 S220 ; set temperature
M116 ; wait for temperature to be reached
M190 S50 ; set bed temperature and wait for it to be reached
;LAYER_CHANGE
;Z:45.8
;HEIGHT:45.799999
; BEFORE_LAYER_CHANGE
;45.8
G92 E0

G1 E-0.7 F2100
G1 Z0.2 F9000
G1 Z45.8
; AFTER_LAYER_CHANGE
;45.8
G1 Z46
M204 P1000 T1000
G1 X-6.498 Y9.399
G1 Z45.8
G1 E0.7 F2100
;TYPE:Internal infill
;WIDTH:0.45
;HEIGHT:0.2
M106 S255
G1 F1200
G1 X-5.659 Y9.939 E0.03378
G1 X-4.552 Y10.492 E0.0419
G1 X-4.358 Y10.564 E0.00699
G1 X-2.901 Y12.021 E0.06976
G1 X-2.118 Y11.238 E0.03746
G1 X-0.88 Y11.403 E0.04227
G1 X0.356 Y11.431 E0.04186
G1 X1.512 Y11.336 E0.03926
G1 X2.803 Y11.088 E0.0445
G1 X3.985 Y10.72 E0.0419
G1 X5.119 Y10.227 E0.04186
G1 X6.135 Y9.653 E0.03949
G1 X6.199 Y9.607 E0.00268
G1 X6.48 Y9.888 E0.01345
G1 X1.614 Y12.697 E0.1902
G1 X0.937 Y12.021 E0.03238
G1 X-0.982 Y13.94 E0.09186
G1 X-0.82 Y14.102 E0.00776
G1 X-3.253 Y15.507 E0.0951
G1 X-6.739 Y12.021 E0.16687
G1 X-8.658 Y13.94 E0.09186
G1 X-6.739 Y15.859 E0.09186
G1 X-8.658 Y17.778 E0.09186
G1 X-10.577 Y15.859 E0.09186
G1 X-11.059 Y16.342 E0.02311
G1 X-11.053 Y11.544 E0.16238
G1 X-10.577 Y12.021 E0.02282
G1 X-8.658 Y10.102 E0.09186
G1 X-11.048 Y7.711 E0.11444
G1 X-11.044 Y3.878 E0.12975
G1 X-10.577 Y4.345 E0.02234
G1 X-10.573 Y4.342 E0.00016
G1 X-10.521 Y4.483 E0.00511
G1 X-9.975 Y5.594 E0.0419
G1 X-9.411 Y6.484 E0.03567
M106 S255
G1 E-0.63 F2100
;WIPE_START
G1 F7200
G1 X-9.539 Y6.281 E-0.0665
;WIPE_END
G1 E-0.0035 F2100
G1 Z46 F9000
; acceleration to travel
M204 P1000 T1500
G1 X-10.764 Y-6.881
; decel to extrusion
M204 P1000 T1000
G1 X-11.063 Y-10.097
; end travel
M204 P1000 T1500
G1 Z45.8
G1 E0.7 F2100
M106 S255
G1 F1200
G1 X-11.063 Y-7.655 E0.08268
G1 X-10.577 Y-7.169 E0.02326
G1 X-11.063 Y-6.683 E0.02326
G1 X-11.063 Y-3.817 E0.09701
G1 X-10.84 Y-3.595 E0.01065
G1 X-10.722 Y-3.981 E0.01367
G1 X-10.228 Y-5.116 E0.04191
G1 X-9.657 Y-6.126 E0.03928
G1 X-8.939 Y-7.135 E0.04191
G1 X-8.071 Y-8.104 E0.04404
G1 X-7.02 Y-9.025 E0.04731
G1 X-6.347 Y-9.511 E0.02809
G1 X-5.665 Y-9.933 E0.02714
G1 X-6.739 Y-11.007 E0.05141
G1 X-8.658 Y-9.088 E0.09186
G1 X-11.063 Y-11.493 E0.11512
G1 X-11.063 Y-14.359 E0.09702
G1 X-10.577 Y-14.845 E0.02326
G1 X-8.658 Y-12.926 E0.09186
G1 X-6.739 Y-14.845 E0.09186
G1 X-8.658 Y-16.764 E0.09186
G1 X-6.739 Y-18.683 E0.09186
G1 X-2.901 Y-14.845 E0.18373
G1 X-4.82 Y-12.926 E0.09186
G1 X-2.938 Y-11.044 E0.09008
G1 X-2.837 Y-11.071 E0.00353
G1 X0.937 Y-14.845 E0.18067
G1 X-0.982 Y-16.764 E0.09186
G1 X0.937 Y-18.683 E0.09186
G1 X2.856 Y-16.764 E0.09187
G1 X6.694 Y-20.602 E0.18372
G1 X4.775 Y-22.521 E0.09186
G1 X2.856 Y-20.602 E0.09186
G1 X0.937 Y-22.521 E0.09186
G1 X2.856 Y-24.44 E0.09186
G1 X1.234 Y-26.063 E0.07768
G1 X0.641 Y-26.063 E0.02006
G1 X-2.901 Y-22.521 E0.16954
G1 X-0.982 Y-20.602 E0.09186
G1 X-2.901 Y-18.683 E0.09186
G1 X-8.658 Y-24.44 E0.27558
G1 X-7.035 Y-26.063 E0.07768
G1 X-6.442 Y-26.063 E0.02006
G1 X-4.82 Y-24.44 E0.07768
G1 X-3.197 Y-26.063 E0.07768
G1 X-0.755 Y-26.063 E0.08267
M106 S255
G1 E-0.63 F2100
;WIPE_START
G1 F7200
G1 X-0.995 Y-26.063 E-0.0665
;WIPE_END
G1 E-0.0035 F2100
G1 Z46 F9000
; acceleration to travel
G1 X4.526 Y-26.063
; decel to extrusion
M204 P1000 T1000
G1 X5.874 Y-26.063
; end travel
M204 P1000 T1500
G1 Z45.8
G1 E0.7 F2100
M106 S255
G1 F1200
G1 X8.317 Y-26.063 E0.08268
G1 X6.694 Y-24.44 E0.07767
G1 X8.613 Y-22.521 E0.09187
G1 X12.155 Y-26.063 E0.16953
G1 X14.597 Y-26.063 E0.08268
M106 S255
G1 E-0.63 F2100
;WIPE_START
G1 F7200
G1 X14.357 Y-26.063 E-0.0665
;WIPE_END
G1 E-0.0035 F2100
G1 Z46 F9000
; acceleration to travel
G1 X19.878 Y-26.063
; decel to extrusion
M204 P1000 T1000
G1 X21.226 Y-26.063
; end travel
M204 P1000 T1500
G1 Z45.8
G1 E0.7 F2100
M106 S255
G1 F1200
G1 X23.669 Y-26.063 E0.08267
G1 X22.046 Y-24.44 E0.07768
G1 X23.965 Y-22.521 E0.09186
G1 X27.063 Y-25.618 E0.14828
G1 X27.063 Y-21.78 E0.12991
G1 X22.483 Y-17.201 E0.21921
G1 X17.063 Y-14.072 E0.21187
G1 X14.37 Y-16.764 E0.12888
G1 X16.289 Y-18.683 E0.09187
G1 X18.208 Y-16.764 E0.09186
G1 X22.046 Y-20.602 E0.18372
G1 X20.127 Y-22.521 E0.09186
G1 X18.208 Y-20.602 E0.09186
G1 X16.289 Y-22.521 E0.09186
G1 X18.208 Y-24.44 E0.09186
G1 X16.585 Y-26.063 E0.07768
G1 X15.993 Y-26.063 E0.02006
G1 X12.451 Y-22.521 E0.16954
G1 X14.37 Y-20.602 E0.09186
G1 X12.451 Y-18.683 E0.09186
G1 X10.532 Y-20.602 E0.09186
G1 X6.694 Y-16.764 E0.18372
G1 X8.613 Y-14.845 E0.09186
G1 X10.532 Y-16.764 E0.09187
G1 X14.37 Y-12.926 E0.18372
G1 X13.403 Y-11.958 E0.04631
G1 X12.196 Y-11.262 E0.04716
G1 X10.532 Y-12.926 E0.07965
G1 X8.613 Y-11.007 E0.09186
G1 X9.763 Y-9.857 E0.05505
G1 X7.543 Y-8.576 E0.08675
G1 X6.859 Y-9.148 E0.03022
G1 X6.19 Y-9.617 E0.02765
G1 X6.13 Y-9.653 E0.00236
G1 X4.775 Y-11.007 E0.06483
G1 X6.694 Y-12.926 E0.09186
G1 X4.775 Y-14.845 E0.09187
G1 X1.286 Y-11.356 E0.16701
G1 X0.751 Y-11.409 E0.0182
G1 X-0.096 Y-11.434 E0.02871
G1 X-0.933 Y-11.399 E0.02833
G1 X-1.151 Y-11.372 E0.00743
M106 S255
G1 E-0.63 F2100
;WIPE_START
G1 F7200
G1 X-0.933 Y-11.399 E-0.06089
G1 X-0.913 Y-11.4 E-0.00561
;WIPE_END
G1 E-0.0035 F2100
G1 Z46 F9000
; acceleration to travel
G1 X-9.07 Y-15.68
; decel to extrusion
M204 P1000 T1000
G1 X-11.063 Y-16.726
; end travel
M204 P1000 T1500
G1 Z45.8
G1 E0.7 F2100
M106 S255
G1 F1200
G1 X-11.063 Y-19.169 E0.08267
G1 X-10.577 Y-18.683 E0.02327
G1 X-8.658 Y-20.602 E0.09186
G1 X-11.063 Y-23.007 E0.11512
G1 X-11.063 Y-25.449 E0.08267
M106 S255
M204 P1000 T1000
G1 X-11.368 Y-26.368 F9000
;TYPE:Internal perimeter
;WIDTH:0.449999
M106 S255
G1 F1200
G1 X-11.368 Y-2.707 E0.80089
G1 X-11.376 Y-2.138 E0.01928
M106 S255
;WIDTH:0.419543
M106 S255
G1 X-11.383 Y-1.568 E0.01784
G1 X-11.386 Y-1.484 E0.00265
G1 X-11.398 Y-0.914 E0.01784
M106 S255
;WIDTH:0.3675
M106 S255
G1 X-11.409 Y-0.344 E0.01538
G1 X-11.41 Y-0.265 E0.00213
G1 X-11.402 Y0.874 E0.03075
G1 X-11.4 Y0.955 E0.00219
G1 X-11.381 Y1.525 E0.01538
M106 S255
;WIDTH:0.4624
M106 S255
G1 X-11.362 Y2.094 E0.01988
G1 X-11.362 Y2.184 E0.00314
G1 X-11.368 Y3.324 E0.03973
G1 X-11.368 Y18.868 E0.54219
G1 X-9.653 Y18.868 E0.05983
G1 X-9.064 Y18.82 E0.02059
G1 X-8.571 Y18.734 E0.01747
G1 X-7.995 Y18.547 E0.02111
G1 X-7.431 Y18.272 E0.02189
G1 X6.793 Y10.06 E0.57287
G1 X6.793 Y8.808 E0.04365
G1 X6.024 Y9.36 E0.03299
G1 X5.969 Y9.396 E0.00231
G1 X4.978 Y9.956 E0.0397
G1 X4.919 Y9.985 E0.0023
G1 X3.873 Y10.436 E0.03971
G1 X3.811 Y10.458 E0.0023
G1 X2.723 Y10.793 E0.0397
G1 X2.659 Y10.809 E0.00231
G1 X1.541 Y11.024 E0.0397
G1 X1.476 Y11.033 E0.00231
G1 X0.342 Y11.126 E0.0397
G1 X0.276 Y11.128 E0.0023
G1 X-0.862 Y11.098 E0.03971
G1 X-0.928 Y11.092 E0.0023
G1 X-2.056 Y10.94 E0.0397
G1 X-2.121 Y10.927 E0.00231
G1 X-3.226 Y10.654 E0.0397
G1 X-3.289 Y10.634 E0.00231
G1 X-4.364 Y10.24 E0.03993
G1 X-4.425 Y10.214 E0.00231
G1 X-5.445 Y9.708 E0.03973
G1 X-5.503 Y9.676 E0.0023
G1 X-6.463 Y9.063 E0.03973
G1 X-6.517 Y9.024 E0.0023
G1 X-7.404 Y8.312 E0.0397
G1 X-7.453 Y8.267 E0.00231
G1 X-8.263 Y7.458 E0.03994
G1 X-8.308 Y7.409 E0.00232
G1 X-9.021 Y6.521 E0.03973
G1 X-9.06 Y6.467 E0.00231
G1 X-9.673 Y5.507 E0.03973
G1 X-9.706 Y5.45 E0.00231
G1 X-10.212 Y4.429 E0.03974
G1 X-10.238 Y4.368 E0.0023
G1 X-10.631 Y3.299 E0.03974
G1 X-10.651 Y3.236 E0.00231
G1 X-10.932 Y2.132 E0.03973
G1 X-10.944 Y2.066 E0.00233
G1 X-11.002 Y1.499 E0.01988
M106 S255
;WIDTH:0.385151
M106 S255
G1 X-11.06 Y0.932 E0.01622
G1 X-11.063 Y0.87 E0.00178
G1 X-11.086 Y-0.27 E0.03242
G1 X-11.085 Y-0.331 E0.00176
G1 X-11.05 Y-0.9 E0.01621
M106 S255
;WIDTH:0.413805
M106 S255
G1 X-11.016 Y-1.468 E0.01757
G1 X-11.01 Y-1.533 E0.00198
G1 X-10.91 Y-2.093 E0.01757
M106 S255
;WIDTH:0.449999
M106 S255
G1 X-10.81 Y-2.654 E0.01928
G1 X-10.794 Y-2.718 E0.00224
G1 X-10.46 Y-3.808 E0.03856
G1 X-10.437 Y-3.87 E0.00224
G1 X-9.987 Y-4.916 E0.03856
G1 X-9.957 Y-4.975 E0.00224
G1 X-9.397 Y-5.967 E0.03856
G1 X-9.361 Y-6.023 E0.00224
G1 X-8.697 Y-6.948 E0.03856
G1 X-8.655 Y-7 E0.00224
G1 X-7.895 Y-7.847 E0.03855
G1 X-7.414 Y-8.303 E0.02241
G1 X-6.827 Y-8.788 E0.02579
G1 X-6.174 Y-9.259 E0.02725
G1 X-5.468 Y-9.696 E0.02809
G1 X-4.779 Y-10.05 E0.02624
G1 X-4.04 Y-10.369 E0.02725
G1 X-3.262 Y-10.643 E0.02791
G1 X-2.508 Y-10.842 E0.02641
G1 X-1.717 Y-10.995 E0.02726
G1 X-0.904 Y-11.095 E0.02773
G1 X-0.119 Y-11.128 E0.02658
G1 X0.686 Y-11.107 E0.02727
G1 X1.496 Y-11.031 E0.02754
G1 X2.275 Y-10.893 E0.02676
G1 X3.057 Y-10.7 E0.02727
G1 X3.827 Y-10.453 E0.02737
G1 X4.411 Y-10.213 E0.02138
G1 X5.285 Y-9.793 E0.03282
G1 X5.979 Y-9.389 E0.02719
G1 X6.637 Y-8.933 E0.0271
G1 X7.266 Y-8.428 E0.02729
G1 X7.511 Y-8.205 E0.01124
G1 X27.368 Y-19.669 E0.77609
G1 X27.368 Y-22.121 E0.083
M106 S255
M106 S255
G1 X27.368 Y-26.368 E0.14376
G1 X-11.308 Y-26.368 E1.30913
M106 S255
G1 X-11.775 Y-26.775 F9000
;TYPE:External perimeter
M106 S255
G1 F1200
G1 X-11.775 Y19.275 E1.55874
G1 X-9.641 Y19.275 E0.07225
G1 X-9.127 Y19.244 E0.01739
G1 X-8.473 Y19.13 E0.02251
G1 X-7.842 Y18.925 E0.02242
G1 X-7.24 Y18.631 E0.02269
G1 X7.2 Y10.295 E0.56437
G1 X7.2 Y7.929 E0.08009
G1 X6.728 Y8.351 E0.02142
G1 X6.711 Y8.365 E0.00075
G1 X5.787 Y9.029 E0.03853
G1 X5.768 Y9.041 E0.00074
G1 X4.778 Y9.602 E0.03853
G1 X4.758 Y9.612 E0.00075
G1 X3.712 Y10.062 E0.03853
G1 X3.692 Y10.069 E0.00074
G1 X2.604 Y10.404 E0.03853
G1 X2.582 Y10.409 E0.00075
G1 X1.465 Y10.624 E0.03853
G1 X1.443 Y10.627 E0.00074
G1 X0.308 Y10.72 E0.03853
G1 X0.286 Y10.721 E0.00075
G1 X-0.852 Y10.691 E0.03853
G1 X-0.874 Y10.689 E0.00074
G1 X-2.002 Y10.536 E0.03853
G1 X-2.023 Y10.532 E0.00075
G1 X-3.128 Y10.258 E0.03853
G1 X-3.149 Y10.252 E0.00074
G1 X-4.224 Y9.858 E0.03875
G1 X-4.244 Y9.849 E0.00075
G1 X-5.265 Y9.344 E0.03855
G1 X-5.284 Y9.333 E0.00075
G1 X-6.244 Y8.72 E0.03854
G1 X-6.262 Y8.707 E0.00075
G1 X-7.149 Y7.994 E0.03853
G1 X-7.166 Y7.979 E0.00075
G1 X-7.976 Y7.17 E0.03875
G1 X-7.99 Y7.154 E0.00075
G1 X-8.704 Y6.266 E0.03856
G1 X-8.717 Y6.248 E0.00075
G1 X-9.33 Y5.288 E0.03856
G1 X-9.341 Y5.269 E0.00075
G1 X-9.848 Y4.248 E0.03856
G1 X-9.856 Y4.228 E0.00075
G1 X-10.249 Y3.158 E0.03856
G1 X-10.256 Y3.137 E0.00074
G1 X-10.531 Y2.032 E0.03857
G1 X-10.535 Y2.01 E0.00074
G1 X-10.688 Y0.881 E0.03856
G1 X-10.69 Y0.859 E0.00075
G1 X-10.721 Y-0.279 E0.03856
G1 X-10.721 Y-0.301 E0.00075
G1 X-10.628 Y-1.437 E0.03856
G1 X-10.625 Y-1.459 E0.00075
G1 X-10.41 Y-2.578 E0.03856
G1 X-10.405 Y-2.599 E0.00074
G1 X-10.071 Y-3.688 E0.03857
G1 X-10.063 Y-3.709 E0.00074
G1 X-9.613 Y-4.755 E0.03856
G1 X-9.603 Y-4.775 E0.00075
G1 X-9.042 Y-5.767 E0.03856
G1 X-9.031 Y-5.785 E0.00075
G1 X-8.366 Y-6.711 E0.03856
G1 X-8.352 Y-6.728 E0.00075
G1 X-7.592 Y-7.576 E0.03855
G1 X-7.135 Y-8.007 E0.02125
G1 X-6.568 Y-8.474 E0.02487
G1 X-5.936 Y-8.928 E0.02635
G1 X-5.254 Y-9.349 E0.02712
G1 X-4.594 Y-9.687 E0.02512
G1 X-3.879 Y-9.995 E0.02635
G1 X-3.128 Y-10.259 E0.02695
G1 X-2.405 Y-10.448 E0.02529
G1 X-1.64 Y-10.595 E0.02636
G1 X-0.855 Y-10.691 E0.02676
G1 X-0.103 Y-10.721 E0.02547
G1 X0.675 Y-10.7 E0.02636
G1 X1.457 Y-10.625 E0.02659
G1 X2.203 Y-10.493 E0.02565
G1 X2.959 Y-10.305 E0.02635
G1 X3.702 Y-10.066 E0.02642
G1 X4.255 Y-9.837 E0.02027
G1 X5.104 Y-9.428 E0.0319
G1 X5.774 Y-9.038 E0.02624
G1 X6.404 Y-8.599 E0.02599
G1 X7.011 Y-8.111 E0.02636
G1 X7.456 Y-7.702 E0.02044
G1 X27.775 Y-19.434 E0.79419
G1 X27.775 Y-26.775 E0.24849
G1 X-11.715 Y-26.775 E1.33669
M106 S255
;WIPE_START
G1 X-11.575 Y-26.429 F9000
;WIPE_END
;LAYER_CHANGE
;Z:46
;HEIGHT:0.200001
; BEFORE_LAYER_CHANGE
;46
G92 E0

G1 E-0.63 F2100
;WIPE_START
G1 F7200
G1 X-11.717 Y-26.622 E-0.0665
;WIPE_END
G1 E-0.0035 F2100
G1 Z46 F9000
; AFTER_LAYER_CHANGE
;46
; acceleration to travel
M204 P1000 T1500
G1 X-11.208 Y-25.71
; decel to extrusion
M204 P1000 T1000
G1 X-11.063 Y-25.449
; end travel
G1 E0.7 F2100
;TYPE:Internal infill
;WIDTH:0.45
M106 S255
G1 F3600
M204 P1000 T1500
G1 X-11.063 Y-23.007 E0.08268
G1 X-8.658 Y-20.602 E0.11512
G1 X-10.577 Y-18.683 E0.09186
G1 X-11.063 Y-19.169 E0.02326
G1 X-11.063 Y-16.726 E0.08267
M106 S255
G1 E-0.63 F2100
;WIPE_START
G1 F7200
G1 X-11.063 Y-16.966 E-0.0665
;WIPE_END
G1 E-0.0035 F2100
G1 Z46.2 F9000
; acceleration to travel
G1 X-11.063 Y-11.624
; decel to extrusion
M204 P1000 T1000
G1 X-11.063 Y-10.097
; end travel
M204 P1000 T1500
G1 Z46
G1 E0.7 F2100
M106 S255
G1 F3600
G1 X-11.063 Y-7.655 E0.08268
G1 X-10.577 Y-7.169 E0.02326
G1 X-11.063 Y-6.683 E0.02326
G1 X-11.063 Y-3.817 E0.09701
G1 X-10.84 Y-3.595 E0.01065
G1 X-10.722 Y-3.981 E0.01367
G1 X-10.228 Y-5.116 E0.04191
G1 X-9.657 Y-6.126 E0.03928
G1 X-8.939 Y-7.135 E0.04191
G1 X-8.071 Y-8.104 E0.04403
G1 X-7.033 Y-9.015 E0.04674
G1 X-6.291 Y-9.548 E0.03095
G1 X-5.665 Y-9.933 E0.02487
G1 X-6.739 Y-11.007 E0.0514
G1 X-8.658 Y-9.088 E0.09186
G1 X-11.063 Y-11.493 E0.11512
G1 X-11.063 Y-14.359 E0.09702
G1 X-10.577 Y-14.845 E0.02326
G1 X-8.658 Y-12.926 E0.09186
G1 X-6.739 Y-14.845 E0.09186
G1 X-8.658 Y-16.764 E0.09186
G1 X-6.739 Y-18.683 E0.09186
G1 X-2.901 Y-14.845 E0.18372
G1 X-4.82 Y-12.926 E0.09186
G1 X-2.938 Y-11.044 E0.09007
G1 X-2.836 Y-11.071 E0.00357
G1 X0.937 Y-14.845 E0.18064
G1 X-0.982 Y-16.764 E0.09186
G1 X0.937 Y-18.683 E0.09186
G1 X2.856 Y-16.764 E0.09186
G1 X6.694 Y-20.602 E0.18372
G1 X4.775 Y-22.521 E0.09186
G1 X2.856 Y-20.602 E0.09187
G1 X0.937 Y-22.521 E0.09186
G1 X2.856 Y-24.44 E0.09186
G1 X1.234 Y-26.063 E0.07768
G1 X0.641 Y-26.063 E0.02005
G1 X-2.901 Y-22.521 E0.16954
G1 X-0.982 Y-20.602 E0.09186
G1 X-2.901 Y-18.683 E0.09186
G1 X-8.658 Y-24.44 E0.27559
G1 X-7.035 Y-26.063 E0.07768
G1 X-6.442 Y-26.063 E0.02005
G1 X-4.82 Y-24.44 E0.07768
G1 X-3.197 Y-26.063 E0.07768
G1 X-0.755 Y-26.063 E0.08268
M106 S255
G1 E-0.63 F2100
;WIPE_START
G1 F7200
G1 X-0.995 Y-26.063 E-0.0665
;WIPE_END
G1 E-0.0035 F2100
G1 Z46.2 F9000
; acceleration to travel
G1 X4.348 Y-26.063
; decel to extrusion
M204 P1000 T1000
G1 X5.874 Y-26.063
; end travel
M204 P1000 T1500
G1 Z46
G1 E0.7 F2100
M106 S255
G1 F3600
G1 X8.317 Y-26.063 E0.08268
G1 X6.694 Y-24.44 E0.07767
G1 X8.613 Y-22.521 E0.09187
G1 X12.155 Y-26.063 E0.16953
G1 X14.597 Y-26.063 E0.08268
M106 S255
G1 E-0.63 F2100
;WIPE_START
G1 F7200
G1 X14.357 Y-26.063 E-0.0665
;WIPE_END
G1 E-0.0035 F2100
G1 Z46.2 F9000
; acceleration to travel
G1 X19.7 Y-26.063
; decel to extrusion
M204 P1000 T1000
G1 X21.226 Y-26.063
; end travel
M204 P1000 T1500
G1 Z46
G1 E0.7 F2100
M106 S255
G1 F3600
G1 X23.669 Y-26.063 E0.08267
G1 X22.046 Y-24.44 E0.07768
G1 X23.965 Y-22.521 E0.09186
G1 X27.063 Y-25.618 E0.14828
G1 X27.063 Y-21.78 E0.12991
G1 X22.483 Y-17.201 E0.21921
G1 X17.063 Y-14.072 E0.21187
G1 X14.37 Y-16.764 E0.12888
G1 X16.289 Y-18.683 E0.09187
G1 X18.208 Y-16.764 E0.09186
G1 X22.046 Y-20.602 E0.18372
G1 X20.127 Y-22.521 E0.09186
G1 X18.208 Y-20.602 E0.09186
G1 X16.289 Y-22.521 E0.09186
G1 X18.208 Y-24.44 E0.09186
G1 X16.585 Y-26.063 E0.07768
G1 X15.993 Y-26.063 E0.02006
G1 X12.451 Y-22.521 E0.16954
G1 X14.37 Y-20.602 E0.09186
G1 X12.451 Y-18.683 E0.09186
G1 X10.532 Y-20.602 E0.09186
G1 X6.694 Y-16.764 E0.18372
G1 X8.613 Y-14.845 E0.09186
G1 X10.532 Y-16.764 E0.09187
G1 X14.37 Y-12.926 E0.18372
G1 X13.403 Y-11.958 E0.04631
G1 X12.196 Y-11.262 E0.04716
G1 X10.532 Y-12.926 E0.07965
G1 X8.613 Y-11.007 E0.09186
G1 X9.763 Y-9.857 E0.05505
G1 X7.544 Y-8.576 E0.08674
G1 X6.845 Y-9.158 E0.03078
G1 X6.189 Y-9.618 E0.02711
G1 X6.129 Y-9.653 E0.00236
G1 X4.775 Y-11.007 E0.06482
G1 X6.694 Y-12.926 E0.09186
G1 X4.775 Y-14.845 E0.09186
G1 X1.287 Y-11.356 E0.167
G1 X0.768 Y-11.408 E0.01764
G1 X-0.113 Y-11.434 E0.02984
G1 X-0.931 Y-11.399 E0.02772
G1 X-1.151 Y-11.372 E0.00748
M106 S255
G1 E-0.63 F2100
;WIPE_START
G1 F7200
G1 X-0.931 Y-11.399 E-0.06118
G1 X-0.912 Y-11.4 E-0.00532
;WIPE_END
G1 E-0.0035 F2100
G1 Z46.2 F9000
