; generated by SuperSlicer 2.5.59.13 on 2025-11-27 at 21:47:19 UTC

; 

; external perimeters extrusion width = 0.30mm
; perimeters extrusion width = 0.30mm
; infill extrusion width = 0.30mm
; solid infill extrusion width = 0.30mm
; top infill extrusion width = 0.30mm


M106 S255
M140 S50 ; set bed temperature
G10 P0 R220 ; sets the standby temperature
G10 P0 S220 ; set temperature
;TYPE:Custom
G1 E0.7 F1800
G21 ; set units to millimeters
G90 ; use absolute coordinates
M83 ; use relative distances for extrusion
; FILAMENT_START_GCODE
G10 P0 S220 ; set temperature
M116 ; wait for temperature to be reached
M190 S50 ; set bed temperature and wait for it to be reached
;LAYER_CHANGE
;Z:38.000000
;HEIGHT:38.000000
; BEFORE_LAYER_CHANGE
;38
G92 E0

G1 E-0.7 F2100
G1  Z6.2 F9000
G1  Z35.379
; AFTER_LAYER_CHANGE
;38
G1  Z35.579
M204 P1000 T1000
G1 X-0.852 Y1.69 Z36.196
G1 X-1.705 Y3.38 Z36.786
G1 X-2.557 Y5.071 Z37.364
G1 X-3.409 Y6.761 Z37.942
G1 X-4.262 Y8.451 Z38.2
G1 X-5.114 Y10.141 Z37.909
G1 X-5.966 Y11.831 Z37.834
G1 X-6.818 Y13.522 Z37.658
G1 X-7.671 Y15.212 Z37.91
G1 X-8.523 Y16.902 Z38.2
G1  Z38.0
G1 E0.7 F2100
;TYPE:Solid infill
;WIDTH:0.268079
;HEIGHT:0.2
M106 S255
G1 F1200
G1 X-8.109 Y17.317 Z38.0 E0.01007
G1 X-8.109 Y17.68 Z38.0 E0.00625
G1 X-8.776 Y17.014 Z38.0 E0.01621
G1 X-9.138 Y17.014 Z38.0 E0.00624
G1 X-8.109 Y18.044 Z38.0 E0.02502
G1 X-8.109 Y18.066 Z38.0 E0.0
G1 X-8.292 Y18.147 Z38.0 E0.00344
G1 X-8.352 Y18.164 Z38.0 E0.00108
G1 X-9.501 Y17.015 Z38.0 E0.02794
G1 X-9.864 Y17.016 Z38.0 E0.00624
G1 X-8.632 Y18.247 Z38.0 E0.02994
G1 X-8.796 Y18.296 Z38.0 E0.00293
G1 X-8.929 Y18.314 Z38.0 E0.00231
G1 X-10.227 Y17.016 Z38.0 E0.03156
G1 X-10.59 Y17.017 Z38.0 E0.00623
G1 X-9.248 Y18.359 Z38.0 E0.03262
G1 X-9.414 Y18.382 Z38.0 E0.00288
G1 X-9.588 Y18.383 Z38.0 E0.00298
G1 X-10.891 Y17.079 Z38.0 E0.0317
G1 X-10.891 Y17.443 Z38.0 E0.00625
G1 X-9.949 Y18.385 Z38.0 E0.0229
G1 X-10.311 Y18.387 Z38.0 E0.00621
G1 X-10.891 Y17.806 Z38.0 E0.01412
G1 X-10.891 Y18.17 Z38.0 E0.00625
G1 X-10.562 Y18.499 Z38.0 E0.00799
M106 S255
G1 E-0.63 F2100
;WIPE_START
G1 F7200
G1 X-10.732 Y18.329 Z38.0 E-0.0665
;WIPE_END
G1 E-0.0035 F2100
G1  Z38.2 F9000
; acceleration to travel
M204 P1000 T1500
G1 X-9.602 Y17.728 Z38.2
G1 X-8.473 Y17.126 Z38.2
; decel to extrusion
M204 P1000 T1000
G1 X-7.921 Y16.832 Z38.2
; end travel
M204 P1000 T1500
G1  Z38.0
G1 E0.7 F2100
;TYPE:Internal perimeter
;WIDTH:0.299999
M106 S255
G1 F1200
G1 X-8.733 Y16.831 Z38.0 E0.01562 F180.0
G1 X-9.492 Y16.842 Z38.0 E0.01461
G1 X-10.079 Y16.853 Z38.0 E0.01128
G1 X-11.079 Y16.831 Z38.0 E0.01924
G1 X-11.079 Y18.579 Z38.0 E0.03364
G1 X-9.651 Y18.579 Z38.0 E0.02746
G1 X-9.001 Y18.514 Z38.0 E0.01258
G1 X-8.496 Y18.403 Z38.0 E0.00994
G1 X-7.921 Y18.188 Z38.0 E0.01181
G1 X-7.921 Y16.892 Z38.0 E0.02493
M106 S255
M204 P1000 T1000
G1 X-7.664 Y16.581 Z38.0 F9000
M106 S255
G1 F1200
G1 X-8.224 Y16.567 Z38.0 E0.01077 F180.0
G1 X-9.137 Y16.578 Z38.0 E0.01757
G1 X-10.084 Y16.596 Z38.0 E0.01821
G1 X-10.189 Y16.594 Z38.0 E0.00203
G1 X-11.291 Y16.569 Z38.0 E0.02121
G1 X-11.336 Y16.57 Z38.0 E0.0
G1 X-11.336 Y17.703 Z38.0 E0.021795
G1 X-11.336 Y18.836 Z38.0 E0.021795
G1 X-9.646 Y18.836 Z38.0 E0.0325
G1 X-8.965 Y18.768 Z38.0 E0.01317
G1 X-8.423 Y18.649 Z38.0 E0.01069
G1 X-7.758 Y18.397 Z38.0 E0.01367
G1 X-7.664 Y18.349 Z38.0 E0.00204
G1 X-7.664 Y16.641 Z38.0 E0.03285
M106 S255
G1 X-7.407 Y16.33 Z38.0 F9000
M106 S255
G1 F1200
G1 X-8.222 Y16.31 Z38.0 E0.01569 F180.0
G1 X-9.142 Y16.321 Z38.0 E0.01769
G1 X-10.088 Y16.339 Z38.0 E0.01821
G1 X-10.183 Y16.337 Z38.0 E0.00183
G1 X-11.292 Y16.311 Z38.0 E0.02134
G1 X-11.593 Y16.321 Z38.0 E0.00579
G1 X-11.593 Y17.707 Z38.0 E0.026665
G1 X-11.593 Y19.093 Z38.0 E0.026665
G1 X-9.642 Y19.093 Z38.0 E0.03754
G1 X-8.93 Y19.023 Z38.0 E0.01375
G1 X-8.35 Y18.896 Z38.0 E0.01143
G1 X-7.654 Y18.632 Z38.0 E0.01431
G1 X-7.407 Y18.505 Z38.0 E0.00535
G1 X-7.407 Y17.447 Z38.0 E0.020345
G1 X-7.407 Y16.39 Z38.0 E0.020345
M106 S255
G1 X-7.15 Y16.079 Z38.0 F9000
;TYPE:External perimeter
M106 S255
G1 F1200
G1 X-8.221 Y16.053 Z38.0 E0.02061 F180.0
G1 X-9.146 Y16.064 Z38.0 E0.01781
G1 X-10.095 Y16.082 Z38.0 E0.01826
G1 X-11.293 Y16.054 Z38.0 E0.02305
G1 X-11.85 Y16.072 Z38.0 E0.01072
G1 X-11.85 Y17.711 Z38.0 E0.03153
G1 X-11.85 Y19.35 Z38.0 E0.03153
G1 X-10.744 Y19.35 Z38.0 E0.02129
G1 X-9.637 Y19.35 Z38.0 E0.02129
G1 X-8.894 Y19.278 Z38.0 E0.01435
G1 X-8.277 Y19.142 Z38.0 E0.01216
G1 X-7.551 Y18.867 Z38.0 E0.01494
G1 X-7.15 Y18.662 Z38.0 E0.00866
G1 X-7.15 Y17.4 Z38.0 E0.02427
G1 X-7.15 Y16.139 Z38.0 E0.02427
M106 S255
;WIPE_START
G1 X-7.495 Y16.271 Z38.0 F9000
;WIPE_END
G1 E-0.63 F2100
;WIPE_START
G1 F7200
G1 X-7.299 Y16.132 Z38.0 E-0.0665 F180.0
;WIPE_END
G1 E-0.0035 F2100
G1  Z38.2 F180.0
; acceleration to travel
M204 P1000 T1500
G1 X-5.866 Y15.055 Z37.672
G1 X-4.434 Y13.977 Z37.078 F2100.0
G1 X-3.001 Y12.9 Z36.965
G1 X-1.568 Y11.823 Z37.334
G1 X-0.136 Y10.745 Z37.518
G1 X1.297 Y9.668 Z37.796
; decel to extrusion
M204 P1000 T1000
G1 X2.347 Y8.878 Z38.175
G1 X3.397 Y8.089 Z38.2 F180.0
; end travel
M204 P1000 T1500
G1  Z38.0
G1 E0.7 F2100
;TYPE:Internal perimeter
M106 S255
G1 F1200
G1 X3.086 Y8.089 Z38.0 E0.00599 F180.0
G1 X3.085 Y8.711 Z38.0 E0.01198
G1 X4.922 Y8.716 Z38.0 E0.03535
G1 X6.76 Y8.72 Z38.0 E0.03535
G1 X6.76 Y8.404 Z38.0 E0.00608
G1 X6.76 Y8.089 Z38.0 E0.00606
G1 X5.108 Y8.089 Z38.0 E0.031775
G1 X3.457 Y8.089 Z38.0 E0.031775
M106 S255
M204 P1000 T1000
G1 X2.829 Y7.832 Z38.0 F9000
M106 S255
G1 F1200
G1 X2.828 Y8.968 Z38.0 E0.02185 F180.0
G1 X4.225 Y8.971 Z38.0 E0.02687
G1 X5.621 Y8.974 Z38.0 E0.02687
G1 X7.018 Y8.977 Z38.0 E0.02687
G1 X7.018 Y7.832 Z38.0 E0.02203
G1 X5.642 Y7.832 Z38.0 E0.026477
G1 X4.265 Y7.832 Z38.0 E0.026477
G1 X2.889 Y7.832 Z38.0 E0.026477
M106 S255
G1 X2.572 Y7.575 Z38.0 F9000
;TYPE:External perimeter
M106 S255
G1 F1200
G1 X2.57 Y9.224 Z38.0 E0.03174 F180.0
G1 X4.138 Y9.228 Z38.0 E0.030167
G1 X5.707 Y9.231 Z38.0 E0.030167
G1 X7.275 Y9.235 Z38.0 E0.030167
G1 X7.275 Y8.404 Z38.0 E0.01599
G1 X7.275 Y7.575 Z38.0 E0.01595
G1 X5.727 Y7.575 Z38.0 E0.02977
G1 X4.18 Y7.575 Z38.0 E0.02977
G1 X2.632 Y7.575 Z38.0 E0.02977
M106 S255
;WIPE_START
G1 X2.772 Y7.921 Z38.0 F9000
;WIPE_END
G1 X3.397 Y8.4 Z38.0
;TYPE:Internal perimeter
;WIDTH:0.409
M106 S255
G1 F1200
G1 X4.921 Y8.402 Z38.0 E0.041755 F180.0
G1 X6.445 Y8.404 Z38.0 E0.041755
M106 S255
G1 E-0.63 F2100
;WIPE_START
G1 F7200
G1 X6.205 Y8.404 Z38.0 E-0.0665 F180.0
;WIPE_END
G1 E-0.0035 F2100
G1  Z38.2 F180.0
; acceleration to travel
M204 P1000 T1500
G1 X4.476 Y7.967 Z38.2
G1 X2.748 Y7.531 Z38.2
G1 X1.02 Y7.094 Z37.67
G1 X-0.709 Y6.658 Z37.801 F2100.0
G1 X-2.438 Y6.221 Z37.758
G1 X-4.166 Y5.784 Z37.608
G1 X-5.894 Y5.348 Z37.459
G1 X-7.623 Y4.911 Z37.714
; decel to extrusion
M204 P1000 T1000
G1 X-9.312 Y4.484 Z38.171
G1 X-11.002 Y4.058 Z38.2 F180.0
; end travel
M204 P1000 T1500
G1  Z38.0
G1 E0.7 F2100
;TYPE:Solid infill
;WIDTH:0.279907
M106 S255
G1 F1200
G1 X-10.778 Y4.281 Z38.0 E0.00567
G1 X-10.684 Y4.539 Z38.0 E0.00493
G1 X-10.486 Y4.937 Z38.0 E0.00797
G1 X-10.891 Y4.532 Z38.0 E0.01027
G1 X-10.891 Y4.895 Z38.0 E0.00653
G1 X-10.129 Y5.658 Z38.0 E0.01936
G1 X-10.079 Y5.759 Z38.0 E0.00202
G1 X-9.509 Y6.641 Z38.0 E0.01886
G1 X-10.891 Y5.259 Z38.0 E0.03509
G1 X-10.891 Y5.623 Z38.0 E0.00652
G1 X-9.868 Y6.646 Z38.0 E0.025963
G1 X-8.846 Y7.668 Z38.0 E0.025963
G1 X-7.823 Y8.691 Z38.0 E0.025963
G1 X-7.954 Y8.923 Z38.0 E0.00479
G1 X-8.933 Y7.944 Z38.0 E0.024853
G1 X-9.912 Y6.965 Z38.0 E0.024853
G1 X-10.891 Y5.986 Z38.0 E0.024853
G1 X-10.891 Y6.35 Z38.0 E0.00652
G1 X-9.488 Y7.753 Z38.0 E0.035615
G1 X-8.085 Y9.156 Z38.0 E0.035615
G1 X-8.094 Y9.172 Z38.0 E0.0
G1 X-8.097 Y9.508 Z38.0 E0.00602
G1 X-9.494 Y8.11 Z38.0 E0.03547
G1 X-10.891 Y6.713 Z38.0 E0.03547
G1 X-10.891 Y7.077 Z38.0 E0.00653
G1 X-9.495 Y8.473 Z38.0 E0.03543
G1 X-8.099 Y9.869 Z38.0 E0.03543
G1 X-8.102 Y10.229 Z38.0 E0.00648
G1 X-9.497 Y8.834 Z38.0 E0.035405
G1 X-10.891 Y7.44 Z38.0 E0.035405
G1 X-10.891 Y7.804 Z38.0 E0.00652
G1 X-9.498 Y9.197 Z38.0 E0.03537
G1 X-8.105 Y10.59 Z38.0 E0.03537
G1 X-8.107 Y10.951 Z38.0 E0.00648
G1 X-9.499 Y9.559 Z38.0 E0.03533
G1 X-10.891 Y8.167 Z38.0 E0.03533
G1 X-10.891 Y8.531 Z38.0 E0.00653
G1 X-9.666 Y9.756 Z38.0 E0.031085
G1 X-8.442 Y10.98 Z38.0 E0.031085
G1 X-8.805 Y10.981 Z38.0 E0.00652
G1 X-9.848 Y9.938 Z38.0 E0.026475
G1 X-10.891 Y8.895 Z38.0 E0.026475
G1 X-10.891 Y9.258 Z38.0 E0.00653
G1 X-10.029 Y10.119 Z38.0 E0.02187
G1 X-9.168 Y10.981 Z38.0 E0.02187
G1 X-9.531 Y10.982 Z38.0 E0.00651
G1 X-10.891 Y9.622 Z38.0 E0.03453
G1 X-10.891 Y9.985 Z38.0 E0.00653
G1 X-9.894 Y10.982 Z38.0 E0.02531
G1 X-10.257 Y10.983 Z38.0 E0.00652
G1 X-10.891 Y10.349 Z38.0 E0.01609
G1 X-10.891 Y10.712 Z38.0 E0.00653
G1 X-10.51 Y11.094 Z38.0 E0.00969
M106 S255
G1 E-0.63 F2100
;WIPE_START
G1 F7200
G1 X-10.679 Y10.924 Z38.0 E-0.0665
;WIPE_END
G1 E-0.0035 F2100
G1  Z38.2 F9000
; acceleration to travel
G1 X-10.464 Y8.955 Z38.2
G1 X-10.248 Y6.987 Z38.2
G1 X-10.033 Y5.018 Z38.2
G1 X-9.817 Y3.05 Z38.117
G1 X-9.602 Y1.081 Z37.903
G1 X-9.387 Y-0.888 Z37.829
G1 X-9.171 Y-2.856 Z37.889
G1 X-8.956 Y-4.825 Z38.082
G1 X-8.74 Y-6.793 Z38.2
G1 X-8.525 Y-8.762 Z38.2
; decel to extrusion
M204 P1000 T1000
G1 X-8.349 Y-10.365 Z38.2
G1 X-8.174 Y-11.969 Z38.2
G1 X-7.998 Y-13.572 Z38.2
; end travel
M204 P1000 T1500
G1  Z38.0
G1 E0.7 F2100
;WIDTH:0.280101
M106 S255
G1 F1200
G1 X-8.405 Y-13.979 Z38.0 E0.01033
G1 X-8.767 Y-13.977 Z38.0 E0.0065
G1 X-8.109 Y-13.319 Z38.0 E0.01671
G1 X-8.109 Y-12.955 Z38.0 E0.00653
G1 X-9.128 Y-13.975 Z38.0 E0.0259
G1 X-9.49 Y-13.973 Z38.0 E0.00649
G1 X-8.109 Y-12.592 Z38.0 E0.03508
G1 X-8.109 Y-12.228 Z38.0 E0.00653
G1 X-8.98 Y-13.099 Z38.0 E0.022135
G1 X-9.851 Y-13.971 Z38.0 E0.022135
G1 X-10.109 Y-13.969 Z38.0 E0.00463
G1 X-10.215 Y-13.971 Z38.0 E0.0019
G1 X-9.162 Y-12.918 Z38.0 E0.02675
G1 X-8.109 Y-11.865 Z38.0 E0.02675
G1 X-8.109 Y-11.501 Z38.0 E0.00653
G1 X-9.346 Y-12.738 Z38.0 E0.031435
G1 X-10.584 Y-13.976 Z38.0 E0.031435
G1 X-10.891 Y-13.98 Z38.0 E0.00552
G1 X-10.891 Y-13.92 Z38.0 E0.00108
G1 X-9.5 Y-12.529 Z38.0 E0.03534
G1 X-8.109 Y-11.138 Z38.0 E0.03534
G1 X-8.109 Y-10.774 Z38.0 E0.00653
G1 X-9.5 Y-12.165 Z38.0 E0.03534
G1 X-10.891 Y-13.556 Z38.0 E0.03534
G1 X-10.891 Y-13.193 Z38.0 E0.00653
G1 X-9.5 Y-11.802 Z38.0 E0.03534
G1 X-8.109 Y-10.41 Z38.0 E0.03534
G1 X-8.109 Y-10.047 Z38.0 E0.00653
G1 X-9.5 Y-11.438 Z38.0 E0.035335
G1 X-10.891 Y-12.829 Z38.0 E0.035335
G1 X-10.891 Y-12.466 Z38.0 E0.00653
G1 X-9.5 Y-11.074 Z38.0 E0.03534
G1 X-8.109 Y-9.683 Z38.0 E0.03534
G1 X-8.109 Y-9.32 Z38.0 E0.00653
G1 X-9.5 Y-10.711 Z38.0 E0.03534
G1 X-10.891 Y-12.102 Z38.0 E0.03534
G1 X-10.891 Y-11.738 Z38.0 E0.00653
G1 X-9.5 Y-10.347 Z38.0 E0.03534
G1 X-8.109 Y-8.956 Z38.0 E0.03534
G1 X-8.109 Y-8.593 Z38.0 E0.00653
G1 X-9.5 Y-9.984 Z38.0 E0.035335
G1 X-10.891 Y-11.375 Z38.0 E0.035335
G1 X-10.891 Y-11.011 Z38.0 E0.00654
G1 X-9.516 Y-9.636 Z38.0 E0.034925
G1 X-8.141 Y-8.261 Z38.0 E0.034925
G1 X-8.315 Y-8.072 Z38.0 E0.00463
G1 X-9.603 Y-9.36 Z38.0 E0.032715
G1 X-10.891 Y-10.648 Z38.0 E0.032715
G1 X-10.891 Y-10.284 Z38.0 E0.00653
G1 X-9.69 Y-9.084 Z38.0 E0.0305
G1 X-8.49 Y-7.883 Z38.0 E0.0305
G1 X-8.664 Y-7.694 Z38.0 E0.00462
G1 X-9.778 Y-8.808 Z38.0 E0.028285
G1 X-10.891 Y-9.921 Z38.0 E0.028285
G1 X-10.891 Y-9.557 Z38.0 E0.00653
G1 X-9.864 Y-8.53 Z38.0 E0.026075
G1 X-8.838 Y-7.504 Z38.0 E0.026075
G1 X-9.013 Y-7.315 Z38.0 E0.00462
G1 X-9.952 Y-8.254 Z38.0 E0.02386
G1 X-10.891 Y-9.193 Z38.0 E0.02386
G1 X-10.891 Y-8.83 Z38.0 E0.00653
G1 X-10.028 Y-7.967 Z38.0 E0.021925
G1 X-9.165 Y-7.104 Z38.0 E0.021925
G1 X-9.317 Y-6.892 Z38.0 E0.00468
G1 X-10.104 Y-7.679 Z38.0 E0.019995
G1 X-10.891 Y-8.466 Z38.0 E0.019995
G1 X-10.891 Y-8.103 Z38.0 E0.00653
G1 X-10.18 Y-7.392 Z38.0 E0.018065
G1 X-9.469 Y-6.68 Z38.0 E0.018065
G1 X-9.621 Y-6.469 Z38.0 E0.00468
G1 X-10.891 Y-7.739 Z38.0 E0.03227
G1 X-10.891 Y-7.376 Z38.0 E0.00653
G1 X-9.773 Y-6.257 Z38.0 E0.02841
G1 X-9.809 Y-6.207 Z38.0 E0.00111
G1 X-9.908 Y-6.029 Z38.0 E0.00366
G1 X-10.891 Y-7.012 Z38.0 E0.02497
G1 X-10.891 Y-6.649 Z38.0 E0.00653
G1 X-10.039 Y-5.796 Z38.0 E0.02165
G1 X-10.169 Y-5.563 Z38.0 E0.0048
G1 X-10.891 Y-6.285 Z38.0 E0.01834
G1 X-10.891 Y-5.921 Z38.0 E0.00653
G1 X-10.3 Y-5.33 Z38.0 E0.01503
G1 X-10.429 Y-5.095 Z38.0 E0.00481
G1 X-10.891 Y-5.558 Z38.0 E0.01174
G1 X-10.891 Y-5.194 Z38.0 E0.00653
G1 X-10.538 Y-4.841 Z38.0 E0.00897
G1 X-10.647 Y-4.587 Z38.0 E0.00497
G1 X-10.891 Y-4.831 Z38.0 E0.00619
G1 X-10.891 Y-4.467 Z38.0 E0.00653
G1 X-10.757 Y-4.333 Z38.0 E0.00342
G1 X-10.866 Y-4.079 Z38.0 E0.00497
G1 X-11.002 Y-4.214 Z38.0 E0.00344
M106 S255
G1 E-0.63 F2100
;WIPE_START
G1 F7200
G1 X-10.866 Y-4.079 Z38.0 E-0.0531
G1 X-10.847 Y-4.123 Z38.0 E-0.0134
;WIPE_END
G1 E-0.0035 F2100
G1  Z38.2 F9000
; acceleration to travel
G1 X-10.397 Y-2.418 Z38.2
G1 X-9.946 Y-0.712 Z38.02
G1 X-9.496 Y0.994 Z37.866
G1 X-9.046 Y2.699 Z37.831
G1 X-8.595 Y4.404 Z37.908
G1 X-8.145 Y6.11 Z38.075
; decel to extrusion
M204 P1000 T1000
G1 X-7.815 Y7.36 Z38.2
G1 X-7.485 Y8.611 Z38.2
; end travel
M204 P1000 T1500
G1  Z38.0
G1 E0.7 F2100
;TYPE:Internal perimeter
;WIDTH:0.299999
M106 S255
G1 F1200
G1 X-7.615 Y8.516 Z38.0 E0.0031 F180.0
G1 X-8.468 Y7.662 Z38.0 E0.02321
G1 X-8.533 Y7.59 Z38.0 E0.00187
G1 X-9.247 Y6.702 Z38.0 E0.02192
G1 X-9.304 Y6.623 Z38.0 E0.00187
G1 X-9.917 Y5.663 Z38.0 E0.02192
G1 X-9.965 Y5.578 Z38.0 E0.00188
G1 X-10.471 Y4.557 Z38.0 E0.02191
G1 X-10.51 Y4.468 Z38.0 E0.00188
G1 X-10.903 Y3.399 Z38.0 E0.02191
G1 X-11.079 Y2.712 Z38.0 E0.01364
G1 X-11.079 Y4.404 Z38.0 E0.03255
G1 X-11.079 Y6.096 Z38.0 E0.03255
G1 X-11.079 Y7.788 Z38.0 E0.03255
G1 X-11.079 Y9.48 Z38.0 E0.03255
G1 X-11.079 Y11.172 Z38.0 E0.03255
G1 X-9.867 Y11.169 Z38.0 E0.02331
G1 X-8.923 Y11.149 Z38.0 E0.01816
G1 X-7.921 Y11.167 Z38.0 E0.01929
G1 X-7.921 Y9.37 Z38.0 E0.03456
G1 X-7.906 Y9.206 Z38.0 E0.00318
G1 X-7.62 Y8.699 Z38.0 E0.0112
G1 X-7.535 Y8.644 Z38.0 E0.00194
M106 S255
M204 P1000 T1000
G1 X-7.033 Y8.618 Z38.0 F9000
;WIDTH:0.50709
M106 S255
G1 F1200
G1 X-7.075 Y8.588 Z38.0 E0.00179 F180.0
M106 S255
;WIDTH:0.477506
M106 S255
G1 X-7.126 Y8.552 Z38.0 E0.00204
M106 S255
;WIDTH:0.447922
M106 S255
G1 X-7.177 Y8.515 Z38.0 E0.0019
M106 S255
;WIDTH:0.418337
M106 S255
G1 X-7.229 Y8.479 Z38.0 E0.00176
M106 S255
;WIDTH:0.388753
M106 S255
G1 X-7.28 Y8.443 Z38.0 E0.00162
M106 S255
;WIDTH:0.359168
M106 S255
G1 X-7.331 Y8.406 Z38.0 E0.00149
M106 S255
;WIDTH:0.329584
M106 S255
G1 X-7.382 Y8.37 Z38.0 E0.00134
M106 S255
;WIDTH:0.299999
M106 S255
G1 X-7.433 Y8.334 Z38.0 E0.00121
G1 X-8.286 Y7.481 Z38.0 E0.02321
G1 X-8.333 Y7.429 Z38.0 E0.00134
G1 X-9.046 Y6.541 Z38.0 E0.02192
G1 X-9.087 Y6.484 Z38.0 E0.00133
G1 X-9.701 Y5.524 Z38.0 E0.02192
G1 X-9.735 Y5.464 Z38.0 E0.00134
G1 X-10.241 Y4.443 Z38.0 E0.02192
G1 X-10.268 Y4.379 Z38.0 E0.00134
G1 X-10.661 Y3.31 Z38.0 E0.02191
G1 X-10.682 Y3.243 Z38.0 E0.00134
G1 X-10.831 Y2.694 Z38.0 E0.01096
M106 S255
;WIDTH:0.349305
M106 S255
G1 X-10.981 Y2.144 Z38.0 E0.01307
G1 X-11.011 Y1.89 Z38.0 E0.00587
M106 S255
;WIDTH:0.325505
M106 S255
G1 X-11.042 Y1.635 Z38.0 E0.00541
G1 X-11.06 Y1.593 Z38.0 E0.0
M106 S255
;WIDTH:0.354063
M106 S255
G1 X-11.079 Y1.551 Z38.0 E0.00107
M106 S255
;WIDTH:0.382621
M106 S255
G1 X-11.097 Y1.509 Z38.0 E0.00117
M106 S255
;WIDTH:0.411178
M106 S255
G1 X-11.116 Y1.467 Z38.0 E0.00127
M106 S255
;WIDTH:0.439736
M106 S255
G1 X-11.135 Y1.424 Z38.0 E0.00137
M106 S255
;WIDTH:0.468294
M106 S255
G1 X-11.153 Y1.382 Z38.0 E0.00147
M106 S255
;WIDTH:0.496851
M106 S255
G1 X-11.172 Y1.34 Z38.0 E0.00157
M106 S255
;WIDTH:0.525409
M106 S255
G1 X-11.19 Y1.298 Z38.0 E0.00166
M106 S255
;WIDTH:0.553966
M106 S255
G1 X-11.209 Y1.255 Z38.0 E0.00177
G1 X-11.222 Y1.3 Z38.0 E0.00176
M106 S255
;WIDTH:0.525409
M106 S255
G1 X-11.234 Y1.344 Z38.0 E0.00167
M106 S255
;WIDTH:0.496851
M106 S255
G1 X-11.247 Y1.389 Z38.0 E0.00156
M106 S255
;WIDTH:0.468294
M106 S255
G1 X-11.26 Y1.433 Z38.0 E0.00147
M106 S255
;WIDTH:0.439736
M106 S255
G1 X-11.272 Y1.477 Z38.0 E0.00137
M106 S255
;WIDTH:0.411178
M106 S255
G1 X-11.285 Y1.522 Z38.0 E0.00127
M106 S255
;WIDTH:0.382621
M106 S255
G1 X-11.298 Y1.566 Z38.0 E0.00118
