; generated by SuperSlicer 2.5.59.13 on 2025-11-28 at 08:53:28 UTC

; 

; external perimeters extrusion width = 0.30mm
; perimeters extrusion width = 0.30mm
; infill extrusion width = 0.30mm
; solid infill extrusion width = 0.30mm
; top infill extrusion width = 0.30mm


M106 S255
M140 S50 ; set bed temperature
G10 P0 R220 ; sets the standby temperature
G10 P0 S220 ; set temperature
;TYPE:Custom
G1 E0.7 F1800
G21 ; set units to millimeters
G90 ; use absolute coordinates
M83 ; use relative distances for extrusion
; FILAMENT_START_GCODE
G10 P0 S220 ; set temperature
M116 ; wait for temperature to be reached
M190 S50 ; set bed temperature and wait for it to be reached
;LAYER_CHANGE
;Z:30.6
;HEIGHT:30.6
; BEFORE_LAYER_CHANGE
;30.6
G92 E0

G1 E-0.7 F2100
G1  Z6.2 F9000
G1  Z27.033
; AFTER_LAYER_CHANGE
;30.6
G1  Z27.233
M204 P1000 T1000
G1 X0.736 Y1.822 Z27.881
G1 X1.473 Y3.645 Z28.553
G1 X2.209 Y5.468 Z29.225
G1 X2.945 Y7.29 Z29.897
G1 X3.682 Y9.112 Z30.569
G1 X4.418 Y10.935 Z30.8
G1  Z30.6
G1 E0.7 F2100
;TYPE:Solid infill
;WIDTH:0.288019
;HEIGHT:0.2
M106 S255
G1 F1200
G1 X4.309 Y10.827 Z30.6 E0.00284
G1 X4.116 Y10.847 Z30.6 E0.00359
G1 X4.003 Y10.884 Z30.6 E0.0022
G1 X4.152 Y11.033 Z30.6 E0.00391
G1 X3.922 Y11.166 Z30.6 E0.00492
G1 X3.727 Y10.972 Z30.6 E0.00508
G1 X3.452 Y11.06 Z30.6 E0.00534
G1 X3.691 Y11.3 Z30.6 E0.00625
G1 X3.461 Y11.433 Z30.6 E0.00492
G1 X3.177 Y11.148 Z30.6 E0.00742
G1 X2.901 Y11.237 Z30.6 E0.00534
G1 X3.23 Y11.566 Z30.6 E0.0086
G1 X3.0 Y11.699 Z30.6 E0.00491
G1 X2.602 Y11.301 Z30.6 E0.0104
G1 X2.298 Y11.361 Z30.6 E0.00571
G1 X2.769 Y11.832 Z30.6 E0.01231
G1 X2.539 Y11.965 Z30.6 E0.00491
G1 X1.995 Y11.421 Z30.6 E0.01422
G1 X1.691 Y11.481 Z30.6 E0.00572
G1 X2.308 Y12.098 Z30.6 E0.01613
G1 X2.078 Y12.231 Z30.6 E0.00491
G1 X1.362 Y11.515 Z30.6 E0.01871
G1 X1.026 Y11.543 Z30.6 E0.00622
G1 X1.848 Y12.364 Z30.6 E0.02146
G1 X1.617 Y12.497 Z30.6 E0.00492
G1 X0.69 Y11.57 Z30.6 E0.02421
G1 X0.354 Y11.598 Z30.6 E0.00623
G1 X1.387 Y12.63 Z30.6 E0.02697
G1 X1.156 Y12.763 Z30.6 E0.00491
G1 X-0.011 Y11.596 Z30.6 E0.0305
G1 X-0.387 Y11.584 Z30.6 E0.00693
G1 X0.926 Y12.896 Z30.6 E0.03427
G1 X0.695 Y13.03 Z30.6 E0.00492
G1 X-0.033 Y12.302 Z30.6 E0.019025
G1 X-0.762 Y11.573 Z30.6 E0.019025
G1 X-0.985 Y11.566 Z30.6 E0.00413
G1 X-1.156 Y11.542 Z30.6 E0.00319
G1 X-0.345 Y12.352 Z30.6 E0.021165
G1 X0.465 Y13.163 Z30.6 E0.021165
G1 X0.234 Y13.296 Z30.6 E0.00491
G1 X-0.672 Y12.39 Z30.6 E0.02368
G1 X-1.579 Y11.483 Z30.6 E0.02368
G1 X-2.002 Y11.424 Z30.6 E0.00788
G1 X-0.999 Y12.426 Z30.6 E0.02619
G1 X0.004 Y13.429 Z30.6 E0.02619
G1 X-0.227 Y13.562 Z30.6 E0.00491
G1 X-1.341 Y12.448 Z30.6 E0.029085
G1 X-2.454 Y11.335 Z30.6 E0.029085
G1 X-2.94 Y11.212 Z30.6 E0.00926
G1 X-1.698 Y12.454 Z30.6 E0.032425
G1 X-0.457 Y13.695 Z30.6 E0.032425
G1 X-0.688 Y13.828 Z30.6 E0.00492
G1 X-2.057 Y12.458 Z30.6 E0.035765
G1 X-3.426 Y11.089 Z30.6 E0.035765
G1 X-3.446 Y11.085 Z30.6 E0.0
G1 X-3.997 Y10.883 Z30.6 E0.01084
G1 X-2.971 Y11.909 Z30.6 E0.0268
G1 X-1.944 Y12.935 Z30.6 E0.0268
G1 X-0.918 Y13.961 Z30.6 E0.0268
G1 X-1.149 Y14.094 Z30.6 E0.00492
G1 X-2.293 Y12.95 Z30.6 E0.029877
G1 X-3.437 Y11.806 Z30.6 E0.029877
G1 X-4.581 Y10.662 Z30.6 E0.029877
G1 X-5.292 Y10.315 Z30.6 E0.01463
G1 X-3.988 Y11.619 Z30.6 E0.034067
G1 X-2.683 Y12.923 Z30.6 E0.034067
G1 X-1.379 Y14.227 Z30.6 E0.034067
G1 X-1.61 Y14.36 Z30.6 E0.00491
G1 X-2.83 Y13.14 Z30.6 E0.03188
G1 X-4.051 Y11.919 Z30.6 E0.03188
G1 X-5.272 Y10.698 Z30.6 E0.03188
G1 X-6.492 Y9.478 Z30.6 E0.03188
M106 S255
G1 E-0.63 F2100
;WIPE_START
G1 F7200
G1 X-6.322 Y9.648 Z30.6 E-0.0665
;WIPE_END
G1 E-0.0035 F2100
G1  Z30.8 F9000
; acceleration to travel
M204 P1000 T1500
G1 X-7.494 Y8.184 Z30.8
G1 X-8.666 Y6.72 Z30.8
G1 X-9.838 Y5.256 Z30.8
; decel to extrusion
M204 P1000 T1000
G1 X-10.697 Y4.183 Z30.8
; end travel
M204 P1000 T1500
G1  Z30.6
G1 E0.7 F2100
M106 S255
G1 F1200
G1 X-10.891 Y3.988 Z30.6 E0.00508
G1 X-10.891 Y4.352 Z30.6 E0.00671
G1 X-10.664 Y4.579 Z30.6 E0.00594
G1 X-10.314 Y5.292 Z30.6 E0.01467
G1 X-10.891 Y4.715 Z30.6 E0.01508
G1 X-10.891 Y5.079 Z30.6 E0.00671
G1 X-9.477 Y6.493 Z30.6 E0.03695
M106 S255
; acceleration to travel
G1 X-10.392 Y5.797 Z30.6 F9000
; decel to extrusion
M204 P1000 T1000
G1 X-11.002 Y5.332 Z30.6
; end travel
M106 S255
G1 F1200
M204 P1000 T1500
G1 X-9.693 Y6.641 Z30.6 E0.034186
G1 X-8.384 Y7.949 Z30.6 E0.034186
G1 X-7.075 Y9.258 Z30.6 E0.034186
G1 X-5.767 Y10.567 Z30.6 E0.034186
G1 X-4.458 Y11.876 Z30.6 E0.034186
G1 X-3.149 Y13.184 Z30.6 E0.034186
G1 X-1.84 Y14.493 Z30.6 E0.034186
G1 X-2.071 Y14.626 Z30.6 E0.00492
G1 X-3.331 Y13.366 Z30.6 E0.032913
G1 X-4.591 Y12.106 Z30.6 E0.032913
G1 X-5.851 Y10.846 Z30.6 E0.032913
G1 X-7.111 Y9.586 Z30.6 E0.032913
G1 X-8.371 Y8.326 Z30.6 E0.032913
G1 X-9.631 Y7.066 Z30.6 E0.032913
G1 X-10.891 Y5.806 Z30.6 E0.032913
G1 X-10.891 Y6.17 Z30.6 E0.00672
G1 X-9.664 Y7.397 Z30.6 E0.032053
G1 X-8.437 Y8.624 Z30.6 E0.032053
G1 X-7.21 Y9.851 Z30.6 E0.032053
G1 X-5.982 Y11.078 Z30.6 E0.032053
G1 X-4.755 Y12.305 Z30.6 E0.032053
G1 X-3.528 Y13.532 Z30.6 E0.032053
G1 X-2.301 Y14.759 Z30.6 E0.032053
G1 X-2.532 Y14.893 Z30.6 E0.00492
G1 X-3.925 Y13.5 Z30.6 E0.036392
G1 X-5.318 Y12.106 Z30.6 E0.036392
G1 X-6.712 Y10.713 Z30.6 E0.036392
G1 X-8.105 Y9.32 Z30.6 E0.036392
G1 X-9.498 Y7.926 Z30.6 E0.036392
G1 X-10.891 Y6.533 Z30.6 E0.036392
G1 X-10.891 Y6.897 Z30.6 E0.00672
G1 X-9.536 Y8.252 Z30.6 E0.035388
G1 X-8.181 Y9.607 Z30.6 E0.035388
G1 X-6.826 Y10.962 Z30.6 E0.035388
G1 X-5.472 Y12.316 Z30.6 E0.035388
G1 X-4.117 Y13.671 Z30.6 E0.035388
G1 X-2.762 Y15.026 Z30.6 E0.035388
G1 X-2.993 Y15.159 Z30.6 E0.00492
G1 X-4.309 Y13.843 Z30.6 E0.034385
G1 X-5.626 Y12.526 Z30.6 E0.034385
G1 X-6.942 Y11.21 Z30.6 E0.034385
G1 X-8.258 Y9.893 Z30.6 E0.034385
G1 X-9.575 Y8.576 Z30.6 E0.034385
G1 X-10.891 Y7.26 Z30.6 E0.034385
G1 X-10.891 Y7.624 Z30.6 E0.00671
G1 X-9.613 Y8.902 Z30.6 E0.033382
G1 X-8.335 Y10.18 Z30.6 E0.033382
G1 X-7.057 Y11.458 Z30.6 E0.033382
G1 X-5.779 Y12.736 Z30.6 E0.033382
G1 X-4.501 Y14.014 Z30.6 E0.033382
G1 X-3.223 Y15.292 Z30.6 E0.033382
G1 X-3.454 Y15.425 Z30.6 E0.00492
G1 X-4.694 Y14.186 Z30.6 E0.032378
G1 X-5.933 Y12.946 Z30.6 E0.032378
G1 X-7.172 Y11.706 Z30.6 E0.032378
G1 X-8.412 Y10.467 Z30.6 E0.032378
G1 X-9.651 Y9.228 Z30.6 E0.032378
G1 X-10.891 Y7.988 Z30.6 E0.032378
G1 X-10.891 Y8.351 Z30.6 E0.00672
G1 X-9.69 Y9.552 Z30.6 E0.031375
G1 X-8.489 Y10.753 Z30.6 E0.031375
G1 X-7.288 Y11.954 Z30.6 E0.031375
G1 X-6.086 Y13.156 Z30.6 E0.031375
G1 X-4.885 Y14.357 Z30.6 E0.031375
G1 X-3.684 Y15.558 Z30.6 E0.031375
G1 X-3.915 Y15.691 Z30.6 E0.00491
G1 X-5.31 Y14.296 Z30.6 E0.036446
G1 X-6.705 Y12.901 Z30.6 E0.036446
G1 X-8.101 Y11.505 Z30.6 E0.036446
G1 X-9.496 Y10.11 Z30.6 E0.036446
G1 X-10.891 Y8.715 Z30.6 E0.036446
G1 X-10.891 Y9.078 Z30.6 E0.00672
G1 X-9.542 Y10.427 Z30.6 E0.035242
G1 X-8.193 Y11.776 Z30.6 E0.035242
G1 X-6.843 Y13.126 Z30.6 E0.035242
G1 X-5.494 Y14.475 Z30.6 E0.035242
G1 X-4.145 Y15.824 Z30.6 E0.035242
G1 X-4.376 Y15.957 Z30.6 E0.00491
G1 X-5.679 Y14.654 Z30.6 E0.034038
G1 X-6.982 Y13.351 Z30.6 E0.034038
G1 X-8.285 Y12.048 Z30.6 E0.034038
G1 X-9.588 Y10.745 Z30.6 E0.034038
G1 X-10.891 Y9.442 Z30.6 E0.034038
G1 X-10.891 Y9.805 Z30.6 E0.00671
G1 X-9.634 Y11.062 Z30.6 E0.032834
G1 X-8.377 Y12.319 Z30.6 E0.032834
G1 X-7.12 Y13.576 Z30.6 E0.032834
G1 X-5.863 Y14.833 Z30.6 E0.032834
G1 X-4.606 Y16.09 Z30.6 E0.032834
G1 X-4.837 Y16.223 Z30.6 E0.00492
G1 X-6.048 Y15.012 Z30.6 E0.031628
G1 X-7.259 Y13.801 Z30.6 E0.031628
G1 X-8.469 Y12.591 Z30.6 E0.031628
G1 X-9.68 Y11.38 Z30.6 E0.031628
G1 X-10.891 Y10.169 Z30.6 E0.031628
G1 X-10.891 Y10.532 Z30.6 E0.00672
G1 X-9.726 Y11.697 Z30.6 E0.030426
G1 X-8.561 Y12.862 Z30.6 E0.030426
G1 X-7.397 Y14.026 Z30.6 E0.030426
G1 X-6.232 Y15.191 Z30.6 E0.030426
G1 X-5.067 Y16.356 Z30.6 E0.030426
G1 X-5.298 Y16.489 Z30.6 E0.00491
G1 X-6.696 Y15.091 Z30.6 E0.036527
G1 X-8.094 Y13.692 Z30.6 E0.036527
G1 X-9.493 Y12.294 Z30.6 E0.036527
G1 X-10.891 Y10.896 Z30.6 E0.036527
G1 X-10.891 Y11.26 Z30.6 E0.00671
G1 X-9.55 Y12.601 Z30.6 E0.035022
G1 X-8.21 Y13.942 Z30.6 E0.035022
G1 X-6.869 Y15.282 Z30.6 E0.035022
G1 X-5.528 Y16.623 Z30.6 E0.035022
G1 X-5.759 Y16.756 Z30.6 E0.00491
G1 X-7.042 Y15.473 Z30.6 E0.033517
G1 X-8.325 Y14.189 Z30.6 E0.033517
G1 X-9.608 Y12.906 Z30.6 E0.033517
G1 X-10.891 Y11.623 Z30.6 E0.033517
G1 X-10.891 Y11.987 Z30.6 E0.00671
G1 X-9.666 Y13.212 Z30.6 E0.032012
G1 X-8.44 Y14.438 Z30.6 E0.032012
G1 X-7.214 Y15.664 Z30.6 E0.032012
G1 X-5.989 Y16.889 Z30.6 E0.032012
G1 X-6.22 Y17.022 Z30.6 E0.00491
G1 X-7.388 Y15.854 Z30.6 E0.030507
G1 X-8.556 Y14.686 Z30.6 E0.030507
G1 X-9.723 Y13.518 Z30.6 E0.030507
G1 X-10.891 Y12.35 Z30.6 E0.030507
G1 X-10.891 Y12.714 Z30.6 E0.00671
G1 X-9.781 Y13.824 Z30.6 E0.029
G1 X-8.67 Y14.934 Z30.6 E0.029
G1 X-7.56 Y16.045 Z30.6 E0.029
G1 X-6.45 Y17.155 Z30.6 E0.029
G1 X-6.681 Y17.288 Z30.6 E0.00492
G1 X-8.084 Y15.884 Z30.6 E0.03666
G1 X-9.488 Y14.481 Z30.6 E0.03666
G1 X-10.891 Y13.077 Z30.6 E0.03666
G1 X-10.891 Y13.441 Z30.6 E0.00672
G1 X-9.564 Y14.768 Z30.6 E0.034653
G1 X-8.238 Y16.094 Z30.6 E0.034653
G1 X-6.911 Y17.421 Z30.6 E0.034653
G1 X-7.142 Y17.554 Z30.6 E0.00491
G1 X-8.392 Y16.304 Z30.6 E0.032647
G1 X-9.641 Y15.055 Z30.6 E0.032647
G1 X-10.891 Y13.805 Z30.6 E0.032647
G1 X-10.891 Y14.168 Z30.6 E0.00672
G1 X-9.718 Y15.341 Z30.6 E0.03064
G1 X-8.545 Y16.514 Z30.6 E0.03064
G1 X-7.372 Y17.687 Z30.6 E0.03064
G1 X-7.603 Y17.82 Z30.6 E0.00491
G1 X-8.699 Y16.724 Z30.6 E0.028633
G1 X-9.795 Y15.628 Z30.6 E0.028633
G1 X-10.891 Y14.532 Z30.6 E0.028633
G1 X-10.891 Y14.895 Z30.6 E0.00672
G1 X-9.876 Y15.911 Z30.6 E0.026527
G1 X-8.86 Y16.926 Z30.6 E0.026527
G1 X-7.845 Y17.942 Z30.6 E0.026527
G1 X-8.09 Y18.06 Z30.6 E0.00503
G1 X-9.49 Y16.66 Z30.6 E0.036585
G1 X-10.891 Y15.259 Z30.6 E0.036585
G1 X-10.891 Y15.622 Z30.6 E0.00671
G1 X-9.622 Y16.892 Z30.6 E0.03316
G1 X-8.352 Y18.161 Z30.6 E0.03316
G1 X-8.63 Y18.247 Z30.6 E0.00536
G1 X-9.76 Y17.117 Z30.6 E0.02954
G1 X-10.891 Y15.986 Z30.6 E0.02954
G1 X-10.891 Y16.349 Z30.6 E0.00671
G1 X-9.913 Y17.327 Z30.6 E0.025545
G1 X-8.935 Y18.305 Z30.6 E0.025545
G1 X-9.261 Y18.343 Z30.6 E0.00605
G1 X-10.076 Y17.528 Z30.6 E0.02129
G1 X-10.891 Y16.713 Z30.6 E0.02129
G1 X-10.891 Y17.077 Z30.6 E0.00672
G1 X-9.586 Y18.382 Z30.6 E0.03408
G1 X-9.668 Y18.391 Z30.6 E0.00153
G1 X-9.94 Y18.391 Z30.6 E0.00502
G1 X-10.891 Y17.44 Z30.6 E0.02484
G1 X-10.891 Y17.804 Z30.6 E0.00672
G1 X-10.304 Y18.391 Z30.6 E0.01534
G1 X-10.667 Y18.391 Z30.6 E0.00671
G1 X-11.002 Y18.057 Z30.6 E0.00874
M106 S255
G1 E-0.63 F2100
;WIPE_START
G1 F7200
G1 X-10.832 Y18.226 Z30.6 E-0.0665
;WIPE_END
G1 E-0.0035 F2100
G1  Z30.8 F9000
; acceleration to travel
G1 X-9.583 Y16.745 Z30.8
G1 X-8.333 Y15.264 Z30.8
G1 X-7.084 Y13.783 Z30.8
G1 X-5.834 Y12.302 Z30.8
G1 X-4.585 Y10.821 Z30.8
G1 X-3.335 Y9.34 Z30.592
G1 X-2.086 Y7.859 Z29.991
G1 X-0.836 Y6.378 Z29.411
G1 X0.413 Y4.897 Z28.884
G1 X1.663 Y3.416 Z28.507
G1 X2.912 Y1.935 Z28.355
G1 X4.162 Y0.454 Z28.146
G1 X5.411 Y-1.026 Z28.496
G1 X6.66 Y-2.507 Z29.086
G1 X7.91 Y-3.988 Z29.601
G1 X9.159 Y-5.469 Z29.919
G1 X10.409 Y-6.95 Z30.142
G1 X11.658 Y-8.431 Z30.365
G1 X12.908 Y-9.912 Z30.589
G1 X14.157 Y-11.393 Z30.8
G1 X15.407 Y-12.874 Z30.8
G1 X16.656 Y-14.355 Z30.8
G1 X17.906 Y-15.836 Z30.8
G1 X19.155 Y-17.317 Z30.8
; decel to extrusion
M204 P1000 T1000
G1 X20.376 Y-18.764 Z30.8
G1 X21.597 Y-20.212 Z30.8
G1 X22.818 Y-21.66 Z30.8
G1 X24.04 Y-23.107 Z30.8
G1 X25.261 Y-24.554 Z30.8
G1 X26.482 Y-26.002 Z30.8
; end travel
M204 P1000 T1500
G1  Z30.6
G1 E0.7 F2100
;WIDTH:0.295746
M106 S255
G1 F1200
G1 X26.891 Y-25.593 Z30.6 E0.01097
G1 X26.891 Y-25.229 Z30.6 E0.0069
G1 X26.229 Y-25.891 Z30.6 E0.01776
G1 X25.865 Y-25.891 Z30.6 E0.0069
G1 X26.891 Y-24.865 Z30.6 E0.02751
G1 X26.891 Y-24.502 Z30.6 E0.00689
G1 X25.502 Y-25.891 Z30.6 E0.03727
G1 X25.138 Y-25.891 Z30.6 E0.00689
G1 X26.014 Y-25.014 Z30.6 E0.02351
G1 X26.891 Y-24.138 Z30.6 E0.02351
G1 X26.891 Y-23.775 Z30.6 E0.00689
G1 X25.833 Y-24.833 Z30.6 E0.028385
G1 X24.775 Y-25.891 Z30.6 E0.028385
G1 X24.411 Y-25.891 Z30.6 E0.0069
G1 X25.651 Y-24.651 Z30.6 E0.033255
G1 X26.891 Y-23.411 Z30.6 E0.033255
G1 X26.891 Y-23.048 Z30.6 E0.0069
G1 X25.943 Y-23.996 Z30.6 E0.025423
G1 X24.996 Y-24.943 Z30.6 E0.025423
G1 X24.048 Y-25.891 Z30.6 E0.025423
G1 X23.684 Y-25.891 Z30.6 E0.00689
G1 X24.753 Y-24.822 Z30.6 E0.028677
G1 X25.822 Y-23.753 Z30.6 E0.028677
G1 X26.891 Y-22.684 Z30.6 E0.028677
G1 X26.891 Y-22.32 Z30.6 E0.00689
G1 X25.701 Y-23.51 Z30.6 E0.031923
G1 X24.51 Y-24.701 Z30.6 E0.031923
G1 X23.32 Y-25.891 Z30.6 E0.031923
G1 X22.957 Y-25.891 Z30.6 E0.0069
G1 X24.268 Y-24.58 Z30.6 E0.035173
G1 X25.58 Y-23.268 Z30.6 E0.035173
G1 X26.891 Y-21.957 Z30.6 E0.035173
G1 X26.891 Y-21.593 Z30.6 E0.0069
G1 X25.816 Y-22.668 Z30.6 E0.028817
G1 X24.742 Y-23.742 Z30.6 E0.028817
G1 X23.668 Y-24.816 Z30.6 E0.028817
G1 X22.593 Y-25.891 Z30.6 E0.028817
G1 X22.23 Y-25.891 Z30.6 E0.0069
G1 X23.395 Y-24.726 Z30.6 E0.031255
G1 X24.56 Y-23.56 Z30.6 E0.031255
G1 X25.726 Y-22.395 Z30.6 E0.031255
G1 X26.891 Y-21.23 Z30.6 E0.031255
G1 X26.891 Y-20.866 Z30.6 E0.0069
G1 X25.635 Y-22.122 Z30.6 E0.033695
G1 X24.378 Y-23.378 Z30.6 E0.033695
G1 X23.122 Y-24.635 Z30.6 E0.033695
G1 X21.866 Y-25.891 Z30.6 E0.033695
G1 X21.503 Y-25.891 Z30.6 E0.00689
G1 X22.85 Y-24.544 Z30.6 E0.036132
G1 X24.197 Y-23.197 Z30.6 E0.036132
G1 X25.544 Y-21.85 Z30.6 E0.036132
G1 X26.891 Y-20.503 Z30.6 E0.036132
G1 X26.891 Y-20.139 Z30.6 E0.0069
G1 X25.741 Y-21.289 Z30.6 E0.030856
G1 X24.59 Y-22.44 Z30.6 E0.030856
G1 X23.44 Y-23.59 Z30.6 E0.030856
G1 X22.289 Y-24.741 Z30.6 E0.030856
G1 X21.139 Y-25.891 Z30.6 E0.030856
G1 X20.775 Y-25.891 Z30.6 E0.0069
G1 X21.977 Y-24.689 Z30.6 E0.032232
G1 X23.179 Y-23.487 Z30.6 E0.032232
G1 X24.38 Y-22.286 Z30.6 E0.032232
G1 X25.582 Y-21.084 Z30.6 E0.032232
G1 X26.784 Y-19.882 Z30.6 E0.032232
G1 X26.554 Y-19.749 Z30.6 E0.00505
G1 X25.326 Y-20.977 Z30.6 E0.032946
G1 X24.097 Y-22.206 Z30.6 E0.032946
G1 X22.869 Y-23.434 Z30.6 E0.032946
G1 X21.64 Y-24.663 Z30.6 E0.032946
G1 X20.412 Y-25.891 Z30.6 E0.032946
G1 X20.048 Y-25.891 Z30.6 E0.0069
G1 X21.303 Y-24.636 Z30.6 E0.03366
G1 X22.558 Y-23.381 Z30.6 E0.03366
G1 X23.813 Y-22.126 Z30.6 E0.03366
G1 X25.068 Y-20.871 Z30.6 E0.03366
G1 X26.323 Y-19.616 Z30.6 E0.03366
G1 X26.093 Y-19.483 Z30.6 E0.00505
G1 X24.811 Y-20.765 Z30.6 E0.034376
G1 X23.53 Y-22.046 Z30.6 E0.034376
G1 X22.248 Y-23.328 Z30.6 E0.034376
G1 X20.967 Y-24.609 Z30.6 E0.034376
G1 X19.685 Y-25.891 Z30.6 E0.034376
G1 X19.321 Y-25.891 Z30.6 E0.00689
G1 X20.629 Y-24.583 Z30.6 E0.03509
G1 X21.937 Y-23.275 Z30.6 E0.03509
G1 X23.246 Y-21.966 Z30.6 E0.03509
G1 X24.554 Y-20.658 Z30.6 E0.03509
G1 X25.862 Y-19.35 Z30.6 E0.03509
G1 X25.632 Y-19.217 Z30.6 E0.00504
G1 X24.297 Y-20.552 Z30.6 E0.035804
G1 X22.962 Y-21.887 Z30.6 E0.035804
G1 X21.628 Y-23.221 Z30.6 E0.035804
G1 X20.293 Y-24.556 Z30.6 E0.035804
G1 X18.958 Y-25.891 Z30.6 E0.035804
G1 X18.594 Y-25.891 Z30.6 E0.00689
G1 X19.955 Y-24.53 Z30.6 E0.036516
G1 X21.317 Y-23.168 Z30.6 E0.036516
G1 X22.678 Y-21.807 Z30.6 E0.036516
G1 X24.04 Y-20.445 Z30.6 E0.036516
G1 X25.401 Y-19.084 Z30.6 E0.036516
G1 X25.171 Y-18.951 Z30.6 E0.00505
G1 X23.783 Y-20.339 Z30.6 E0.03723
G1 X22.395 Y-21.727 Z30.6 E0.03723
G1 X21.007 Y-23.115 Z30.6 E0.03723
G1 X19.619 Y-24.503 Z30.6 E0.03723
G1 X18.231 Y-25.891 Z30.6 E0.03723
G1 X17.867 Y-25.891 Z30.6 E0.0069
G1 X19.046 Y-24.712 Z30.6 E0.03162
G1 X20.225 Y-23.533 Z30.6 E0.03162
G1 X21.404 Y-22.354 Z30.6 E0.03162
G1 X22.582 Y-21.176 Z30.6 E0.03162
G1 X23.761 Y-19.997 Z30.6 E0.03162
G1 X24.94 Y-18.818 Z30.6 E0.03162
G1 X24.71 Y-18.685 Z30.6 E0.00505
G1 X23.509 Y-19.886 Z30.6 E0.032215
G1 X22.308 Y-21.087 Z30.6 E0.032215
G1 X21.106 Y-22.288 Z30.6 E0.032215
G1 X19.905 Y-23.489 Z30.6 E0.032215
G1 X18.704 Y-24.69 Z30.6 E0.032215
G1 X17.503 Y-25.891 Z30.6 E0.032215
G1 X17.14 Y-25.891 Z30.6 E0.00689
G1 X18.363 Y-24.668 Z30.6 E0.03281
G1 X19.586 Y-23.445 Z30.6 E0.03281
G1 X20.81 Y-22.222 Z30.6 E0.03281
G1 X22.033 Y-20.998 Z30.6 E0.03281
G1 X23.256 Y-19.775 Z30.6 E0.03281
G1 X24.479 Y-18.552 Z30.6 E0.03281
G1 X24.249 Y-18.419 Z30.6 E0.00505
