; generated by SuperSlicer 2.5.59.13 on 2025-11-17 at 08:42:44 UTC

; 

; external perimeters extrusion width = 0.45mm
; perimeters extrusion width = 0.45mm
; infill extrusion width = 0.45mm
; solid infill extrusion width = 0.45mm
; top infill extrusion width = 0.40mm


M106 S255
M140 S50 ; set bed temperature
G10 P0 R220 ; sets the standby temperature
G10 P0 S220 ; set temperature
;TYPE:Custom
G1 E0.7 F1800
G21 ; set units to millimeters
G90 ; use absolute coordinates
M83 ; use relative distances for extrusion
; FILAMENT_START_GCODE
G10 P0 S220 ; set temperature
M116 ; wait for temperature to be reached
M190 S50 ; set bed temperature and wait for it to be reached
;LAYER_CHANGE
;Z:26.2
;HEIGHT:26.200001
; BEFORE_LAYER_CHANGE
;26.2
G92 E0

G1 E-0.7 F2100
G1 Z0.2 F9000
G1 Z26.2
; AFTER_LAYER_CHANGE
;26.2
G1 Z26.4
M204 P1000 T1000
G1 X-9.093 Y-6.918
G1 Z26.2
G1 E0.7 F2100
;TYPE:Internal infill
;WIDTH:0.45
;HEIGHT:0.2
M106 S255
G1 F1200
G1 X-8.939 Y-7.135 E0.00901
G1 X-8.071 Y-8.104 E0.04404
G1 X-7.413 Y-8.681 E0.02962
G1 X-8.239 Y-9.507 E0.03952
G1 X-10.158 Y-7.588 E0.09186
G1 X-11.063 Y-8.493 E0.04332
G1 X-11.063 Y-12.331 E0.12991
G1 X-10.158 Y-11.426 E0.04332
G1 X-8.239 Y-13.345 E0.09186
G1 X-10.158 Y-15.264 E0.09186
G1 X-8.239 Y-17.183 E0.09186
G1 X-4.401 Y-13.345 E0.18372
G1 X-6.32 Y-11.426 E0.09187
G1 X-5.115 Y-10.221 E0.05767
G1 X-4.928 Y-10.317 E0.00712
G1 X-4.139 Y-10.658 E0.02908
G1 X-3.354 Y-10.934 E0.02817
G1 X-2.836 Y-11.071 E0.01814
G1 X-0.563 Y-13.345 E0.10883
G1 X-2.482 Y-15.264 E0.09186
G1 X-0.563 Y-17.183 E0.09186
G1 X1.356 Y-15.264 E0.09186
G1 X5.194 Y-19.102 E0.18372
G1 X3.275 Y-21.021 E0.09186
G1 X1.356 Y-19.102 E0.09187
G1 X-0.563 Y-21.021 E0.09186
G1 X1.356 Y-22.94 E0.09186
G1 X-0.563 Y-24.859 E0.09186
G1 X-4.401 Y-21.021 E0.18372
G1 X-2.482 Y-19.102 E0.09186
G1 X-4.401 Y-17.183 E0.09186
G1 X-10.158 Y-22.94 E0.27559
G1 X-8.239 Y-24.859 E0.09186
G1 X-6.32 Y-22.94 E0.09186
G1 X-3.197 Y-26.063 E0.14948
G1 X2.071 Y-26.063 E0.17833
G1 X3.275 Y-24.859 E0.05763
G1 X4.479 Y-26.063 E0.05762
G1 X5.909 Y-26.063 E0.04842
G1 X7.113 Y-24.859 E0.05762
G1 X5.194 Y-22.94 E0.09186
G1 X7.113 Y-21.021 E0.09186
G1 X10.951 Y-24.859 E0.18372
G1 X9.747 Y-26.063 E0.05763
G1 X17.423 Y-26.063 E0.25982
G1 X18.627 Y-24.859 E0.05762
G1 X19.831 Y-26.063 E0.05762
G1 X21.261 Y-26.063 E0.04842
G1 X22.465 Y-24.859 E0.05763
G1 X20.546 Y-22.94 E0.09186
G1 X22.465 Y-21.021 E0.09186
G1 X26.303 Y-24.859 E0.18372
G1 X25.099 Y-26.063 E0.05762
G1 X27.063 Y-26.063 E0.06646
G1 X27.063 Y-20.261 E0.19636
G1 X26.303 Y-21.021 E0.03636
G1 X22.483 Y-17.201 E0.18285
G1 X15.161 Y-12.973 E0.28621
G1 X12.87 Y-15.264 E0.10964
G1 X14.789 Y-17.183 E0.09186
G1 X16.708 Y-15.264 E0.09186
G1 X20.546 Y-19.102 E0.18373
G1 X18.627 Y-21.021 E0.09186
G1 X16.708 Y-19.102 E0.09186
G1 X14.789 Y-21.021 E0.09186
G1 X16.708 Y-22.94 E0.09186
G1 X14.789 Y-24.859 E0.09186
G1 X10.951 Y-21.021 E0.18372
G1 X12.87 Y-19.102 E0.09186
G1 X10.951 Y-17.183 E0.09186
G1 X9.032 Y-19.102 E0.09187
G1 X5.194 Y-15.264 E0.18372
G1 X7.113 Y-13.345 E0.09186
G1 X9.032 Y-15.264 E0.09186
G1 X12.728 Y-11.569 E0.17689
G1 X10.294 Y-10.164 E0.0951
G1 X9.032 Y-11.426 E0.06042
G1 X7.113 Y-9.507 E0.09186
G1 X7.861 Y-8.759 E0.03581
G1 X7.544 Y-8.576 E0.01241
G1 X6.845 Y-9.158 E0.03077
G1 X6.189 Y-9.618 E0.02712
G1 X5.485 Y-10.032 E0.02765
G1 X4.715 Y-10.416 E0.02914
G1 X4.34 Y-10.572 E0.01373
G1 X5.194 Y-11.426 E0.04087
G1 X3.275 Y-13.345 E0.09186
G1 X1.287 Y-11.356 E0.0952
G1 X0.768 Y-11.408 E0.01763
G1 X-0.113 Y-11.434 E0.02984
G1 X-0.931 Y-11.399 E0.02773
G1 X-1.151 Y-11.372 E0.00747
M106 S255
G1 E-0.63 F2100
;WIPE_START
G1 F7200
G1 X-0.931 Y-11.399 E-0.06118
G1 X-0.912 Y-11.4 E-0.00532
;WIPE_END
G1 E-0.0035 F2100
G1 Z26.4 F9000
; acceleration to travel
M204 P1000 T1500
G1 X-9.069 Y-14.899
; decel to extrusion
M204 P1000 T1000
G1 X-11.063 Y-15.755
; end travel
M204 P1000 T1500
G1 Z26.2
G1 E0.7 F2100
M106 S255
G1 F1200
G1 X-11.063 Y-18.197 E0.08267
G1 X-10.158 Y-19.102 E0.04332
G1 X-11.063 Y-20.007 E0.04332
G1 X-11.063 Y-25.873 E0.19856
G1 X-10.873 Y-26.063 E0.00908
G1 X-8.43 Y-26.063 E0.08268
M106 S255
G1 E-0.63 F2100
;WIPE_START
G1 F7200
G1 X-8.67 Y-26.063 E-0.0665
;WIPE_END
G1 E-0.0035 F2100
G1 Z26.4 F9000
; acceleration to travel
G1 X-10.578 Y-1.413
; decel to extrusion
M204 P1000 T1000
G1 X-11.044 Y4.609
; end travel
M204 P1000 T1500
G1 Z26.2
G1 E0.7 F2100
M106 S255
G1 F1200
G1 X-11.042 Y3.041 E0.05308
G1 X-11.004 Y3.079 E0.00183
G1 X-10.921 Y3.396 E0.01107
G1 X-10.573 Y4.342 E0.03411
G1 X-11.045 Y4.813 E0.02257
G1 X-11.052 Y10.707 E0.19952
G1 X-10.158 Y11.602 E0.04282
G1 X-11.055 Y12.499 E0.04293
G1 X-11.062 Y18.374 E0.19885
G1 X-10.879 Y18.556 E0.00874
G1 X-9.417 Y18.537 E0.04952
G1 X-8.239 Y17.359 E0.05639
G1 X-10.158 Y15.44 E0.09186
G1 X-8.239 Y13.521 E0.09186
G1 X-5.155 Y16.605 E0.14763
G1 X-1.587 Y14.545 E0.13945
G1 X-0.563 Y13.521 E0.04902
G1 X-0.288 Y13.795 E0.01314
G1 X4.578 Y10.986 E0.1902
G1 X4.213 Y10.621 E0.01747
G1 X3.984 Y10.72 E0.00844
G1 X2.727 Y11.107 E0.04452
G1 X1.647 Y11.311 E0.0372
G1 X1.356 Y11.602 E0.01394
G1 X1.123 Y11.368 E0.01118
G1 X0.356 Y11.431 E0.02604
G1 X-0.88 Y11.403 E0.04186
G1 X-2.108 Y11.241 E0.0419
G1 X-3.085 Y10.999 E0.03408
G1 X-2.482 Y11.602 E0.02888
G1 X-4.401 Y13.521 E0.09186
G1 X-10.158 Y7.764 E0.27558
G1 X-9.188 Y6.795 E0.0464
G1 X-8.539 Y7.608 E0.03522
G1 X-7.663 Y8.49 E0.04211
G1 X-7.54 Y8.59 E0.00535
M106 S255
G1 E-0.63 F2100
;WIPE_START
G1 F7200
G1 X-7.663 Y8.49 E-0.04382
G1 X-7.72 Y8.432 E-0.02268
;WIPE_END
G1 E-0.0035 F2100
G1 Z26.4 F9000
; acceleration to travel
G1 X3.943 Y8.734
; decel to extrusion
M204 P1000 T1000
G1 X6.793 Y8.808
; end travel
M204 P1000 T1500
G1 Z26.2
G1 E0.7 F2100
;TYPE:Internal perimeter
;WIDTH:0.4624
M106 S255
G1 F1200
G1 X6.024 Y9.36 E0.03299
G1 X5.969 Y9.396 E0.0023
G1 X4.978 Y9.956 E0.03971
G1 X4.919 Y9.985 E0.0023
G1 X3.873 Y10.436 E0.03971
G1 X3.811 Y10.458 E0.0023
G1 X2.723 Y10.793 E0.0397
G1 X2.659 Y10.809 E0.00231
G1 X1.541 Y11.024 E0.0397
G1 X1.476 Y11.033 E0.00231
G1 X0.341 Y11.126 E0.0397
G1 X0.275 Y11.128 E0.0023
G1 X-0.862 Y11.098 E0.03971
G1 X-0.928 Y11.092 E0.0023
G1 X-2.056 Y10.94 E0.0397
G1 X-2.121 Y10.927 E0.00231
G1 X-3.226 Y10.654 E0.0397
G1 X-3.289 Y10.634 E0.00231
G1 X-4.364 Y10.24 E0.03994
G1 X-4.425 Y10.214 E0.00231
G1 X-5.446 Y9.708 E0.03973
G1 X-5.503 Y9.676 E0.0023
G1 X-6.463 Y9.063 E0.03973
G1 X-6.517 Y9.024 E0.0023
G1 X-7.404 Y8.311 E0.03971
G1 X-7.454 Y8.267 E0.00231
G1 X-8.263 Y7.458 E0.03992
G1 X-8.308 Y7.409 E0.00231
G1 X-9.021 Y6.521 E0.03974
G1 X-9.06 Y6.467 E0.0023
G1 X-9.673 Y5.507 E0.03974
G1 X-9.706 Y5.45 E0.00231
G1 X-10.212 Y4.429 E0.03973
G1 X-10.238 Y4.368 E0.00231
G1 X-10.631 Y3.299 E0.03974
G1 X-10.651 Y3.236 E0.0023
G1 X-10.932 Y2.132 E0.03974
G1 X-10.944 Y2.066 E0.00233
G1 X-11.002 Y1.499 E0.01988
M106 S255
;WIDTH:0.385151
M106 S255
G1 X-11.06 Y0.932 E0.01622
G1 X-11.063 Y0.87 E0.00178
G1 X-11.086 Y-0.27 E0.03242
G1 X-11.085 Y-0.331 E0.00175
G1 X-11.05 Y-0.9 E0.01622
M106 S255
;WIDTH:0.413805
M106 S255
G1 X-11.016 Y-1.468 E0.01757
G1 X-11.01 Y-1.533 E0.00198
G1 X-10.91 Y-2.093 E0.01757
M106 S255
;WIDTH:0.449999
M106 S255
G1 X-10.81 Y-2.654 E0.01928
G1 X-10.794 Y-2.718 E0.00224
G1 X-10.46 Y-3.808 E0.03856
G1 X-10.437 Y-3.87 E0.00224
G1 X-9.987 Y-4.916 E0.03856
G1 X-9.957 Y-4.975 E0.00224
G1 X-9.397 Y-5.967 E0.03856
G1 X-9.361 Y-6.023 E0.00224
G1 X-8.697 Y-6.948 E0.03856
G1 X-8.655 Y-7 E0.00224
G1 X-7.895 Y-7.847 E0.03855
G1 X-7.414 Y-8.304 E0.02244
G1 X-6.84 Y-8.778 E0.02518
G1 X-6.161 Y-9.268 E0.02837
G1 X-5.467 Y-9.697 E0.0276
G1 X-4.794 Y-10.043 E0.0256
G1 X-4.025 Y-10.375 E0.02838
G1 X-3.261 Y-10.643 E0.02741
G1 X-2.524 Y-10.838 E0.02579
G1 X-1.701 Y-10.998 E0.02838
G1 X-0.903 Y-11.095 E0.02722
G1 X-0.136 Y-11.128 E0.02597
G1 X0.702 Y-11.106 E0.02839
G1 X1.497 Y-11.03 E0.02704
G1 X2.258 Y-10.897 E0.02614
G1 X3.073 Y-10.696 E0.0284
G1 X3.828 Y-10.453 E0.02685
G1 X4.419 Y-10.21 E0.02162
G1 X5.299 Y-9.786 E0.0331
G1 X5.98 Y-9.389 E0.02666
G1 X6.624 Y-8.943 E0.02651
G1 X7.279 Y-8.418 E0.02841
G1 X7.512 Y-8.205 E0.01069
G1 X27.368 Y-19.669 E0.77608
G1 X27.368 Y-26.368 E0.22676
G1 X-3.162 Y-26.368 E1.03342
M106 S255
M106 S255
G1 X-11.368 Y-26.368 E0.27774
G1 X-11.368 Y-2.707 E0.80089
G1 X-11.376 Y-2.138 E0.01928
M106 S255
;WIDTH:0.419543
M106 S255
G1 X-11.383 Y-1.568 E0.01784
G1 X-11.386 Y-1.484 E0.00265
G1 X-11.398 Y-0.914 E0.01784
M106 S255
;WIDTH:0.3675
M106 S255
G1 X-11.409 Y-0.344 E0.01538
G1 X-11.41 Y-0.265 E0.00213
G1 X-11.402 Y0.874 E0.03075
G1 X-11.4 Y0.955 E0.00219
G1 X-11.381 Y1.525 E0.01538
M106 S255
;WIDTH:0.4624
M106 S255
G1 X-11.362 Y2.094 E0.01988
G1 X-11.362 Y2.184 E0.00314
G1 X-11.368 Y3.324 E0.03973
G1 X-11.368 Y18.868 E0.54219
G1 X-9.653 Y18.868 E0.05983
G1 X-9.058 Y18.819 E0.0208
G1 X-8.418 Y18.684 E0.02282
G1 X-7.84 Y18.471 E0.0215
G1 X-7.35 Y18.225 E0.01911
G1 X6.793 Y10.06 E0.56961
G1 X6.793 Y8.868 E0.04156
M106 S255
M204 P1000 T1000
G1 X7.2 Y7.929 F9000
;TYPE:External perimeter
;WIDTH:0.449999
M106 S255
G1 F1200
G1 X6.728 Y8.351 E0.02143
G1 X6.711 Y8.365 E0.00074
G1 X5.787 Y9.029 E0.03853
G1 X5.768 Y9.041 E0.00075
G1 X4.778 Y9.602 E0.03853
G1 X4.758 Y9.612 E0.00074
G1 X3.712 Y10.062 E0.03853
G1 X3.692 Y10.069 E0.00075
G1 X2.604 Y10.404 E0.03853
G1 X2.582 Y10.409 E0.00074
G1 X1.465 Y10.624 E0.03853
G1 X1.443 Y10.627 E0.00075
G1 X0.308 Y10.72 E0.03853
G1 X0.286 Y10.721 E0.00074
G1 X-0.852 Y10.691 E0.03853
G1 X-0.874 Y10.689 E0.00075
G1 X-2.002 Y10.536 E0.03853
G1 X-2.023 Y10.532 E0.00074
G1 X-3.128 Y10.258 E0.03853
G1 X-3.149 Y10.252 E0.00075
G1 X-4.224 Y9.858 E0.03876
G1 X-4.245 Y9.849 E0.00074
G1 X-5.265 Y9.343 E0.03856
G1 X-5.284 Y9.333 E0.00074
G1 X-6.244 Y8.72 E0.03855
G1 X-6.262 Y8.707 E0.00075
G1 X-7.15 Y7.994 E0.03853
G1 X-7.166 Y7.979 E0.00075
G1 X-7.976 Y7.17 E0.03874
G1 X-7.99 Y7.154 E0.00075
G1 X-8.704 Y6.266 E0.03856
G1 X-8.717 Y6.248 E0.00074
G1 X-9.33 Y5.288 E0.03857
G1 X-9.341 Y5.269 E0.00074
G1 X-9.848 Y4.248 E0.03856
G1 X-9.856 Y4.228 E0.00075
G1 X-10.249 Y3.158 E0.03856
G1 X-10.256 Y3.137 E0.00075
G1 X-10.531 Y2.032 E0.03856
G1 X-10.535 Y2.01 E0.00075
G1 X-10.688 Y0.881 E0.03856
G1 X-10.69 Y0.859 E0.00074
G1 X-10.721 Y-0.279 E0.03857
G1 X-10.721 Y-0.301 E0.00074
G1 X-10.628 Y-1.437 E0.03856
G1 X-10.625 Y-1.459 E0.00075
G1 X-10.41 Y-2.578 E0.03856
G1 X-10.405 Y-2.599 E0.00075
G1 X-10.071 Y-3.688 E0.03856
G1 X-10.063 Y-3.709 E0.00075
G1 X-9.613 Y-4.755 E0.03856
G1 X-9.603 Y-4.775 E0.00074
G1 X-9.042 Y-5.767 E0.03857
G1 X-9.031 Y-5.785 E0.00074
G1 X-8.366 Y-6.711 E0.03856
G1 X-8.352 Y-6.728 E0.00075
G1 X-7.592 Y-7.576 E0.03855
G1 X-7.134 Y-8.008 E0.02129
G1 X-6.582 Y-8.464 E0.02426
G1 X-5.923 Y-8.937 E0.02745
G1 X-5.254 Y-9.35 E0.02663
G1 X-4.609 Y-9.68 E0.02452
G1 X-3.864 Y-10.001 E0.02745
G1 X-3.127 Y-10.259 E0.02644
G1 X-2.421 Y-10.445 E0.0247
G1 X-1.624 Y-10.598 E0.02746
G1 X-0.854 Y-10.691 E0.02626
G1 X-0.12 Y-10.721 E0.02487
G1 X0.691 Y-10.699 E0.02747
G1 X1.458 Y-10.625 E0.02607
G1 X2.187 Y-10.496 E0.02506
G1 X2.974 Y-10.301 E0.02746
G1 X3.702 Y-10.066 E0.0259
G1 X4.263 Y-9.834 E0.02053
G1 X5.119 Y-9.421 E0.03216
G1 X5.774 Y-9.038 E0.02571
G1 X6.391 Y-8.609 E0.02542
G1 X7.024 Y-8.101 E0.02747
G1 X7.456 Y-7.702 E0.01989
G1 X27.775 Y-19.434 E0.79418
G1 X27.775 Y-26.775 E0.2485
G1 X-3.162 Y-26.775 E1.04719
G1 X-11.775 Y-26.775 E0.29153
G1 X-11.775 Y19.275 E1.55873
G1 X-9.641 Y19.275 E0.07225
G1 X-9.122 Y19.244 E0.01758
G1 X-8.469 Y19.129 E0.02244
G1 X-7.841 Y18.925 E0.02236
G1 X-7.24 Y18.631 E0.02264
G1 X7.2 Y10.295 E0.56437
G1 X7.2 Y7.989 E0.07805
M106 S255
;WIPE_START
G1 X6.579 Y8.214 F9000
;WIPE_END
;LAYER_CHANGE
;Z:26.4
;HEIGHT:0.199999
; BEFORE_LAYER_CHANGE
;26.4
G92 E0

G1 E-0.63 F2100
;WIPE_START
G1 F7200
G1 X6.384 Y8.354 E-0.0665
;WIPE_END
G1 E-0.0035 F2100
G1 Z26.4 F9000
; AFTER_LAYER_CHANGE
;26.4
G1 Z26.6
; acceleration to travel
M204 P1000 T1500
G1 X-4.446 Y8.537
; decel to extrusion
M204 P1000 T1000
G1 X-7.54 Y8.59
; end travel
M204 P1000 T1500
G1 Z26.4
G1 E0.7 F2100
;TYPE:Internal infill
;WIDTH:0.45
M106 S255
G1 F3600
G1 X-7.662 Y8.49 E0.00534
G1 X-8.539 Y7.608 E0.04212
G1 X-9.188 Y6.795 E0.03521
G1 X-10.158 Y7.764 E0.04641
G1 X-4.401 Y13.521 E0.27558
G1 X-2.482 Y11.602 E0.09186
G1 X-3.085 Y10.999 E0.02888
G1 X-2.108 Y11.241 E0.03408
G1 X-0.88 Y11.403 E0.0419
G1 X0.356 Y11.431 E0.04186
G1 X1.123 Y11.368 E0.02604
G1 X1.356 Y11.602 E0.01118
G1 X1.648 Y11.31 E0.01397
G1 X2.803 Y11.088 E0.03981
G1 X3.985 Y10.72 E0.0419
G1 X4.213 Y10.621 E0.00842
G1 X4.578 Y10.986 E0.01747
G1 X-0.288 Y13.795 E0.1902
G1 X-0.563 Y13.521 E0.01314
G1 X-1.587 Y14.545 E0.04902
G1 X-5.155 Y16.605 E0.13945
G1 X-8.239 Y13.521 E0.14763
G1 X-10.158 Y15.44 E0.09186
G1 X-8.239 Y17.359 E0.09187
G1 X-9.417 Y18.537 E0.0564
G1 X-10.879 Y18.556 E0.0495
G1 X-11.062 Y18.374 E0.00875
G1 X-11.055 Y12.499 E0.19885
G1 X-10.158 Y11.602 E0.04293
G1 X-11.052 Y10.707 E0.04282
G1 X-11.045 Y4.813 E0.19952
G1 X-10.573 Y4.342 E0.02257
G1 X-10.921 Y3.396 E0.0341
G1 X-11.004 Y3.079 E0.01108
G1 X-11.042 Y3.041 E0.00183
G1 X-11.044 Y4.609 E0.05308
M106 S255
G1 E-0.63 F2100
;WIPE_START
G1 F7200
G1 X-11.044 Y4.369 E-0.0665
;WIPE_END
G1 E-0.0035 F2100
G1 Z26.6 F9000
; acceleration to travel
G1 X-9.527 Y-4.41
; decel to extrusion
M204 P1000 T1000
G1 X-9.093 Y-6.918
; end travel
M204 P1000 T1500
G1 Z26.4
G1 E0.7 F2100
M106 S255
G1 F3600
G1 X-8.939 Y-7.135 E0.00901
G1 X-8.071 Y-8.104 E0.04404
G1 X-7.413 Y-8.681 E0.02962
G1 X-8.239 Y-9.507 E0.03955
G1 X-10.158 Y-7.588 E0.09186
G1 X-11.063 Y-8.493 E0.04332
G1 X-11.063 Y-12.331 E0.12991
G1 X-10.158 Y-11.426 E0.04332
G1 X-8.239 Y-13.345 E0.09186
G1 X-10.158 Y-15.264 E0.09186
G1 X-8.239 Y-17.183 E0.09186
G1 X-4.401 Y-13.345 E0.18372
G1 X-6.32 Y-11.426 E0.09186
G1 X-5.114 Y-10.221 E0.0577
G1 X-4.912 Y-10.325 E0.00769
G1 X-4.154 Y-10.652 E0.02796
G1 X-3.356 Y-10.934 E0.02866
G1 X-2.837 Y-11.071 E0.01816
G1 X-0.563 Y-13.345 E0.10886
G1 X-2.482 Y-15.264 E0.09186
G1 X-0.563 Y-17.183 E0.09186
G1 X1.356 Y-15.264 E0.09186
G1 X5.194 Y-19.102 E0.18373
G1 X3.275 Y-21.021 E0.09186
G1 X1.356 Y-19.102 E0.09186
G1 X-0.563 Y-21.021 E0.09186
G1 X1.356 Y-22.94 E0.09186
G1 X-0.563 Y-24.859 E0.09186
G1 X-4.401 Y-21.021 E0.18372
G1 X-2.482 Y-19.102 E0.09186
G1 X-4.401 Y-17.183 E0.09187
G1 X-10.158 Y-22.94 E0.27558
G1 X-8.239 Y-24.859 E0.09186
G1 X-6.32 Y-22.94 E0.09186
G1 X-3.197 Y-26.063 E0.14948
G1 X2.071 Y-26.063 E0.17834
G1 X3.275 Y-24.859 E0.05762
G1 X4.479 Y-26.063 E0.05762
G1 X5.909 Y-26.063 E0.04842
G1 X7.113 Y-24.859 E0.05762
G1 X5.194 Y-22.94 E0.09186
G1 X7.113 Y-21.021 E0.09187
G1 X10.951 Y-24.859 E0.18372
G1 X9.747 Y-26.063 E0.05762
G1 X17.423 Y-26.063 E0.25982
G1 X18.627 Y-24.859 E0.05762
G1 X19.831 Y-26.063 E0.05763
G1 X21.261 Y-26.063 E0.04842
G1 X22.465 Y-24.859 E0.05762
G1 X20.546 Y-22.94 E0.09186
G1 X22.465 Y-21.021 E0.09186
G1 X26.303 Y-24.859 E0.18372
G1 X25.099 Y-26.063 E0.05762
G1 X27.063 Y-26.063 E0.06646
G1 X27.063 Y-20.261 E0.19636
G1 X26.303 Y-21.021 E0.03636
G1 X22.483 Y-17.201 E0.18285
G1 X15.161 Y-12.973 E0.28621
G1 X12.87 Y-15.264 E0.10964
G1 X14.789 Y-17.183 E0.09187
G1 X16.708 Y-15.264 E0.09186
G1 X20.546 Y-19.102 E0.18372
G1 X18.627 Y-21.021 E0.09186
G1 X16.708 Y-19.102 E0.09186
G1 X14.789 Y-21.021 E0.09186
G1 X16.708 Y-22.94 E0.09186
G1 X14.789 Y-24.859 E0.09186
G1 X10.951 Y-21.021 E0.18373
G1 X12.87 Y-19.102 E0.09186
G1 X10.951 Y-17.183 E0.09186
G1 X9.032 Y-19.102 E0.09186
G1 X5.194 Y-15.264 E0.18372
G1 X7.113 Y-13.345 E0.09186
G1 X9.032 Y-15.264 E0.09186
G1 X12.728 Y-11.569 E0.1769
G1 X10.294 Y-10.164 E0.0951
G1 X9.032 Y-11.426 E0.06041
G1 X7.113 Y-9.507 E0.09187
G1 X7.861 Y-8.759 E0.0358
G1 X7.543 Y-8.576 E0.01242
G1 X6.859 Y-9.148 E0.03021
G1 X6.19 Y-9.617 E0.02766
G1 X5.471 Y-10.04 E0.02824
G1 X4.73 Y-10.409 E0.02801
G1 X4.34 Y-10.572 E0.01429
G1 X5.194 Y-11.426 E0.04088
G1 X3.275 Y-13.345 E0.09186
G1 X1.286 Y-11.356 E0.09521
G1 X0.751 Y-11.409 E0.0182
G1 X-0.096 Y-11.434 E0.02871
G1 X-0.933 Y-11.399 E0.02833
G1 X-1.151 Y-11.372 E0.00743
M106 S255
G1 E-0.63 F2100
;WIPE_START
G1 F7200
G1 X-0.933 Y-11.399 E-0.0609
G1 X-0.913 Y-11.4 E-0.0056
;WIPE_END
G1 E-0.0035 F2100
G1 Z26.6 F9000
