; generated by SuperSlicer 2.5.59.13 on 2025-11-17 at 08:42:45 UTC

; 

; external perimeters extrusion width = 0.45mm
; perimeters extrusion width = 0.45mm
; infill extrusion width = 0.45mm
; solid infill extrusion width = 0.45mm
; top infill extrusion width = 0.40mm


M106 S255
M140 S50 ; set bed temperature
G10 P0 R220 ; sets the standby temperature
G10 P0 S220 ; set temperature
;TYPE:Custom
G1 E0.7 F1800
G21 ; set units to millimeters
G90 ; use absolute coordinates
M83 ; use relative distances for extrusion
; FILAMENT_START_GCODE
G10 P0 S220 ; set temperature
M116 ; wait for temperature to be reached
M190 S50 ; set bed temperature and wait for it to be reached
;LAYER_CHANGE
;Z:38.2
;HEIGHT:38.200001
; BEFORE_LAYER_CHANGE
;38.2
G92 E0

G1 E-0.7 F2100
G1 Z0.2 F9000
G1 Z38.2
; AFTER_LAYER_CHANGE
;38.2
G1 Z38.4
M204 P1000 T1000
G1 X-7.754 Y17.258
G1 Z38.2
G1 E0.7 F2100
;TYPE:Solid infill
;WIDTH:0.390874
;HEIGHT:0.2
M106 S255
G1 F1200
G1 X-8.402 Y16.61 E0.02694
G1 X-8.978 Y16.61 E0.01692
G1 X-7.929 Y17.658 E0.0436
G1 X-7.929 Y18.183 E0.01541
G1 X-7.965 Y18.198 E0.00115
G1 X-9.553 Y16.61 E0.06605
G1 X-10.129 Y16.61 E0.01693
G1 X-8.379 Y18.36 E0.07276
G1 X-8.754 Y18.471 E0.01151
G1 X-8.833 Y18.482 E0.00232
G1 X-10.705 Y16.61 E0.07785
G1 X-11.071 Y16.61 E0.01076
G1 X-11.071 Y16.82 E0.00616
G1 X-9.338 Y18.553 E0.07207
G1 X-9.392 Y18.56 E0.0016
G1 X-9.903 Y18.563 E0.01504
G1 X-11.071 Y17.395 E0.04855
G1 X-11.071 Y17.971 E0.01692
G1 X-10.476 Y18.566 E0.02474
G1 X-11.048 Y18.569 E0.01684
G1 X-11.246 Y18.372 E0.00821
M106 S255
G1 E-0.63 F2100
;WIPE_START
G1 F7200
G1 X-11.076 Y18.541 E-0.0665
;WIPE_END
G1 E-0.0035 F2100
G1 Z38.4 F9000
; acceleration to travel
M204 P1000 T1500
G1 X-8.308 Y16.75
; decel to extrusion
M204 P1000 T1000
G1 X-7.632 Y16.313
; end travel
M204 P1000 T1500
G1 Z38.2
G1 E0.7 F2100
;TYPE:Internal perimeter
;WIDTH:0.449999
M106 S255
G1 F1200
G1 X-11.368 Y16.313 E0.12645
G1 X-11.368 Y18.868 E0.08649
G1 X-9.646 Y18.868 E0.05828
G1 X-8.783 Y18.775 E0.0294
G1 X-8.18 Y18.611 E0.02113
G1 X-7.632 Y18.368 E0.0203
G1 X-7.632 Y16.373 E0.06754
M106 S255
M204 P1000 T1000
G1 X-7.225 Y15.906 F9000
;TYPE:External perimeter
M106 S255
G1 F1200
G1 X-11.775 Y15.906 E0.15401
G1 X-11.775 Y19.275 E0.11405
G1 X-9.638 Y19.275 E0.07232
G1 X-8.726 Y19.178 E0.03105
G1 X-8.065 Y19.001 E0.02318
G1 X-7.586 Y18.801 E0.01758
G1 X-7.225 Y18.616 E0.01371
G1 X-7.225 Y15.966 E0.08971
M106 S255
;WIPE_START
G1 X-7.571 Y16.106 F9000
;WIPE_END
G1 E-0.63 F2100
;WIPE_START
G1 F7200
G1 X-7.81 Y16.084 E-0.0665
;WIPE_END
G1 E-0.0035 F2100
G1 Z38.4 F9000
; acceleration to travel
M204 P1000 T1500
G1 X0.803 Y10.184
; decel to extrusion
M204 P1000 T1000
G1 X2.908 Y8.742
; end travel
M204 P1000 T1500
G1 Z38.2
G1 E0.7 F2100
;TYPE:Internal perimeter
;WIDTH:0.637761
M106 S255
G1 F1200
G1 X6.699 Y8.746 E0.1875
G1 X6.699 Y8.448 E0.01473
G1 X6.699 Y8.151 E0.01471
G1 X2.91 Y8.15 E0.18737
G1 X2.908 Y8.682 E0.02634
M106 S255
M204 P1000 T1000
G1 X2.404 Y9.241 F9000
;TYPE:External perimeter
;WIDTH:0.449999
M106 S255
G1 F1200
G1 X7.2 Y9.247 E0.16232
G1 X7.2 Y7.65 E0.05408
G1 X2.405 Y7.65 E0.16229
G1 X2.412 Y8.276 E0.02121
G1 X2.405 Y9.181 E0.03063
M106 S255
;WIPE_START
G1 X2.753 Y9.042 F9000
;WIPE_END
G1 E-0.63 F2100
;WIPE_START
G1 F7200
G1 X2.558 Y9.183 E-0.0665
;WIPE_END
G1 E-0.0035 F2100
G1 Z38.4 F9000
; acceleration to travel
M204 P1000 T1500
G1 X-7.509 Y5.977
; decel to extrusion
M204 P1000 T1000
G1 X-9.969 Y5.193
; end travel
M204 P1000 T1500
G1 Z38.2
G1 E0.7 F2100
;TYPE:Solid infill
;WIDTH:0.396749
M106 S255
G1 F1200
G1 X-11.054 Y4.109 E0.04577
G1 X-11.055 Y4.683 E0.01715
G1 X-9.655 Y6.083 E0.05907
G1 X-9.305 Y6.635 E0.01952
G1 X-8.533 Y7.602 E0.03693
G1 X-7.534 Y8.608 E0.04229
G1 X-7.598 Y8.717 E0.00376
G1 X-11.057 Y5.258 E0.14598
G1 X-11.058 Y5.832 E0.01714
G1 X-7.809 Y9.081 E0.13713
G1 X-7.917 Y9.267 E0.00641
G1 X-7.918 Y9.548 E0.00837
G1 X-11.059 Y6.406 E0.13257
G1 X-11.06 Y6.981 E0.01715
G1 X-7.921 Y10.12 E0.13249
G1 X-7.924 Y10.693 E0.01709
G1 X-11.062 Y7.555 E0.13242
G1 X-11.063 Y8.13 E0.01715
G1 X-7.927 Y11.266 E0.13235
G1 X-7.928 Y11.39 E0.00371
G1 X-8.378 Y11.39 E0.01345
G1 X-11.064 Y8.704 E0.11336
G1 X-11.065 Y9.279 E0.01714
G1 X-8.954 Y11.39 E0.08912
G1 X-9.53 Y11.39 E0.01718
G1 X-11.067 Y9.853 E0.06487
G1 X-11.068 Y10.427 E0.01714
G1 X-10.105 Y11.39 E0.04063
G1 X-10.681 Y11.39 E0.01718
G1 X-11.244 Y10.827 E0.02376
M106 S255
G1 E-0.63 F2100
;WIPE_START
G1 F7200
G1 X-11.074 Y10.997 E-0.0665
;WIPE_END
G1 E-0.0035 F2100
G1 Z38.4 F9000
; acceleration to travel
G1 X-10.624 Y5.621
; decel to extrusion
M204 P1000 T1000
G1 X-10.514 Y4.307
; end travel
M204 P1000 T1500
G1 Z38.2
G1 E0.7 F2100
;TYPE:Gap fill
;WIDTH:0.12248
M106 S255
G1 F1200
G1 X-10.588 Y4.192 E0.00097
M106 S255
;WIDTH:0.161683
M106 S255
G1 X-10.637 Y4.116 E0.00092
M106 S255
;WIDTH:0.200885
M106 S255
G1 X-10.685 Y4.041 E0.00121
M106 S255
;WIDTH:0.240087
M106 S255
G1 X-10.733 Y3.966 E0.0015
M106 S255
;WIDTH:0.27929
M106 S255
G1 X-10.781 Y3.891 E0.00179
M106 S255
;WIDTH:0.318492
M106 S255
G1 X-10.83 Y3.816 E0.00209
M106 S255
;WIDTH:0.357694
M106 S255
G1 X-10.878 Y3.74 E0.00238
M106 S255
;WIDTH:0.383789
M106 S255
G1 X-10.936 Y3.67 E0.00262
M106 S255
;WIDTH:0.409883
M106 S255
G1 X-10.958 Y3.547 E0.00387
M106 S255
;WIDTH:0.326909
M106 S255
G1 X-10.982 Y3.407 E0.0034
G1 X-10.998 Y3.281 E0.00308
M106 S255
;WIDTH:0.292838
M106 S255
G1 X-11.015 Y3.154 E0.00271
M106 S255
;WIDTH:0.258766
M106 S255
G1 X-11.031 Y3.027 E0.00234
M106 S255
;WIDTH:0.224695
M106 S255
G1 X-11.047 Y2.9 E0.00199
M106 S255
;WIDTH:0.190624
M106 S255
G1 X-11.064 Y2.773 E0.00162
M106 S255
;WIDTH:0.156552
M106 S255
G1 X-11.08 Y2.647 E0.00127
M106 S255
;WIDTH:0.119836
M106 S255
G1 X-11.102 Y2.472 E0.00119
M106 S255
G1 E-0.63 F2100
;WIPE_START
G1 F7200
G1 X-11.029 Y2.701 E-0.0665
;WIPE_END
G1 E-0.0035 F2100
G1 Z38.4 F9000
; acceleration to travel
G1 X-11.203 Y-3.141
; decel to extrusion
M204 P1000 T1000
G1 X-11.246 Y-4.569
; end travel
M204 P1000 T1500
G1 Z38.2
G1 E0.7 F2100
;TYPE:Solid infill
;WIDTH:0.413121
M106 S255
G1 F1200
G1 X-10.696 Y-4.019 E0.02416
G1 X-10.522 Y-4.42 E0.01359
G1 X-11.071 Y-4.969 E0.02413
G1 X-11.071 Y-5.545 E0.01789
G1 X-10.348 Y-4.822 E0.03178
G1 X-10.221 Y-5.113 E0.00986
G1 X-10.164 Y-5.214 E0.00361
G1 X-11.071 Y-6.121 E0.03985
G1 X-11.071 Y-6.696 E0.01789
G1 X-9.956 Y-5.582 E0.04899
G1 X-9.748 Y-5.949 E0.01312
G1 X-11.071 Y-7.272 E0.05813
G1 X-11.071 Y-7.848 E0.01789
G1 X-9.523 Y-6.3 E0.068
G1 X-9.284 Y-6.636 E0.01283
G1 X-11.071 Y-8.423 E0.07853
G1 X-11.071 Y-8.999 E0.01789
G1 X-9.044 Y-6.972 E0.08906
G1 X-8.931 Y-7.131 E0.00607
G1 X-8.785 Y-7.289 E0.00667
G1 X-11.071 Y-9.575 E0.10045
G1 X-11.071 Y-10.15 E0.01789
G1 X-8.508 Y-7.588 E0.1126
G1 X-8.232 Y-7.887 E0.01266
G1 X-11.071 Y-10.726 E0.12476
G1 X-11.071 Y-11.302 E0.01789
G1 X-7.955 Y-8.186 E0.13691
G1 X-7.929 Y-8.215 E0.0012
G1 X-7.929 Y-8.736 E0.01619
G1 X-11.071 Y-11.878 E0.13806
G1 X-11.071 Y-12.453 E0.01789
G1 X-7.929 Y-9.312 E0.13806
G1 X-7.929 Y-9.887 E0.01789
G1 X-11.071 Y-13.029 E0.13806
G1 X-11.071 Y-13.605 E0.01789
G1 X-7.929 Y-10.463 E0.13806
G1 X-7.929 Y-11.039 E0.01789
G1 X-11.071 Y-14.18 E0.13806
G1 X-11.071 Y-14.39 E0.00652
G1 X-10.705 Y-14.39 E0.01137
G1 X-7.929 Y-11.614 E0.12198
G1 X-7.929 Y-12.19 E0.01789
G1 X-10.129 Y-14.39 E0.09667
G1 X-9.553 Y-14.39 E0.01789
G1 X-7.929 Y-12.766 E0.07138
G1 X-7.929 Y-13.342 E0.01789
G1 X-8.978 Y-14.39 E0.04608
G1 X-8.402 Y-14.39 E0.01789
G1 X-7.754 Y-13.742 E0.02847
M106 S255
G1 E-0.63 F2100
;WIPE_START
G1 F7200
G1 X-7.924 Y-13.912 E-0.0665
;WIPE_END
G1 E-0.0035 F2100
G1 Z38.4 F9000
; acceleration to travel
G1 X-10.335 Y-5.913
; decel to extrusion
M204 P1000 T1000
G1 X-10.924 Y-3.959
; end travel
M204 P1000 T1500
G1 Z38.2
G1 E0.7 F2100
;TYPE:Gap fill
;WIDTH:0.383037
M106 S255
G1 F1200
G1 X-10.933 Y-3.806 E0.00437
M106 S255
;WIDTH:0.350538
M106 S255
G1 X-10.938 Y-3.731 E0.00195
M106 S255
;WIDTH:0.397536
M106 S255
G1 X-10.944 Y-3.667 E0.00192
M106 S255
;WIDTH:0.444533
M106 S255
G1 X-10.963 Y-3.542 E0.00423
M106 S255
;WIDTH:0.404149
M106 S255
G1 X-10.981 Y-3.418 E0.00381
M106 S255
;WIDTH:0.363766
M106 S255
G1 X-11 Y-3.294 E0.00339
M106 S255
;WIDTH:0.323382
M106 S255
G1 X-11.019 Y-3.17 E0.00296
M106 S255
;WIDTH:0.282998
M106 S255
G1 X-11.038 Y-3.046 E0.00255
M106 S255
;WIDTH:0.242614
M106 S255
G1 X-11.057 Y-2.922 E0.00212
M106 S255
;WIDTH:0.20223
M106 S255
G1 X-11.076 Y-2.797 E0.0017
G1 X-11.084 Y-2.705 E0.00125
G1 X-11.106 Y-2.474 E0.00314
M106 S255
;WIDTH:0.127535
M106 S255
G1 X-11.133 Y-2.195 E0.00206
M106 S255
G1 E-0.63 F2100
;WIPE_START
G1 F7200
G1 X-11.11 Y-2.434 E-0.0665
;WIPE_END
G1 E-0.0035 F2100
G1 Z38.4 F9000
; acceleration to travel
G1 X-8.315 Y-12.281
; decel to extrusion
M204 P1000 T1000
G1 X-7.632 Y-14.687
; end travel
M204 P1000 T1500
G1 Z38.2
G1 E0.7 F2100
;TYPE:Internal perimeter
;WIDTH:0.449999
M106 S255
G1 F1200
G1 X-11.368 Y-14.687 E0.12645
G1 X-11.368 Y-2.707 E0.40551
G1 X-11.376 Y-2.138 E0.01928
M106 S255
;WIDTH:0.419543
M106 S255
G1 X-11.383 Y-1.568 E0.01784
G1 X-11.386 Y-1.484 E0.00265
G1 X-11.398 Y-0.914 E0.01784
M106 S255
;WIDTH:0.3675
M106 S255
G1 X-11.409 Y-0.344 E0.01538
G1 X-11.41 Y-0.265 E0.00214
G1 X-11.402 Y0.874 E0.03074
G1 X-11.4 Y0.955 E0.00219
G1 X-11.381 Y1.525 E0.01538
M106 S255
;WIDTH:0.4624
M106 S255
G1 X-11.362 Y2.094 E0.01988
G1 X-11.362 Y2.184 E0.00314
G1 X-11.368 Y3.324 E0.03974
G1 X-11.368 Y11.687 E0.29172
G1 X-7.632 Y11.687 E0.13031
G1 X-7.632 Y9.453 E0.07792
G1 X-7.619 Y9.326 E0.00447
G1 X-7.429 Y8.999 E0.01319
G1 X-7.274 Y8.898 E0.00645
G1 X-7.087 Y8.873 E0.00657
M106 S255
;WIDTH:0.485696
M106 S255
G1 X-6.9 Y8.848 E0.00695
M106 S255
;WIDTH:0.523958
M106 S255
G1 X-6.713 Y8.823 E0.00754
M106 S255
;WIDTH:0.56222
M106 S255
G1 X-6.526 Y8.797 E0.00814
M106 S255
;WIDTH:0.600482
M106 S255
G1 X-6.34 Y8.772 E0.00873
M106 S255
;WIDTH:0.638744
M106 S255
G1 X-6.153 Y8.747 E0.00934
G1 X-2.206 Y8.743 E0.19552
G1 X-1.908 Y8.742 E0.01478
G1 X-1.912 Y8.267 E0.02352
M106 S255
;WIDTH:0.635824
M106 S255
G1 X-1.91 Y8.15 E0.00581
G1 X-6.358 Y8.151 E0.21928
G1 X-6.398 Y8.28 E0.00665
G1 X-6.478 Y8.311 E0.00421
M106 S255
;WIDTH:0.59674
M106 S255
G1 X-6.557 Y8.343 E0.00393
M106 S255
;WIDTH:0.554736
M106 S255
G1 X-6.636 Y8.375 E0.00363
M106 S255
;WIDTH:0.512732
M106 S255
G1 X-6.715 Y8.407 E0.00334
M106 S255
;WIDTH:0.470728
M106 S255
G1 X-6.795 Y8.438 E0.00303
M106 S255
;WIDTH:0.428723
M106 S255
G1 X-6.874 Y8.47 E0.00274
G1 X-7.261 Y8.419 E0.01251
G1 X-7.41 Y8.311 E0.00593
G1 X-8.263 Y7.458 E0.03871
G1 X-8.308 Y7.409 E0.00212
G1 X-9.021 Y6.521 E0.03654
G1 X-9.06 Y6.467 E0.00212
G1 X-9.673 Y5.507 E0.03655
G1 X-9.706 Y5.45 E0.00212
G1 X-10.212 Y4.429 E0.03655
G1 X-10.238 Y4.368 E0.00212
G1 X-10.631 Y3.299 E0.03655
G1 X-10.651 Y3.236 E0.00212
G1 X-10.791 Y2.684 E0.01827
M106 S255
;WIDTH:0.462675
M106 S255
G1 X-10.932 Y2.132 E0.01988
G1 X-10.944 Y2.066 E0.00233
G1 X-11.002 Y1.499 E0.0199
M106 S255
;WIDTH:0.385151
M106 S255
G1 X-11.06 Y0.932 E0.01621
G1 X-11.063 Y0.87 E0.00178
G1 X-11.086 Y-0.27 E0.03242
G1 X-11.085 Y-0.331 E0.00176
G1 X-11.05 Y-0.9 E0.01621
M106 S255
;WIDTH:0.413805
M106 S255
G1 X-11.016 Y-1.468 E0.01757
G1 X-11.01 Y-1.533 E0.00199
G1 X-10.91 Y-2.093 E0.01756
M106 S255
;WIDTH:0.449999
M106 S255
G1 X-10.81 Y-2.654 E0.01929
G1 X-10.794 Y-2.718 E0.00224
G1 X-10.46 Y-3.808 E0.03856
G1 X-10.437 Y-3.87 E0.00224
G1 X-9.987 Y-4.916 E0.03856
G1 X-9.957 Y-4.975 E0.00224
G1 X-9.397 Y-5.967 E0.03856
G1 X-9.361 Y-6.023 E0.00223
G1 X-8.697 Y-6.948 E0.03857
G1 X-8.11 Y-7.608 E0.02988
G1 X-7.632 Y-8.098 E0.02318
G1 X-7.632 Y-14.627 E0.22099
M106 S255
M204 P1000 T1000
G1 X-7.225 Y-15.094 F9000
;TYPE:External perimeter
M106 S255
G1 F1200
G1 X-11.775 Y-15.094 E0.15401
G1 X-11.775 Y12.094 E0.92031
G1 X-7.225 Y12.094 E0.15401
G1 X-7.225 Y9.453 E0.0894
G1 X-7.157 Y9.302 E0.00561
G1 X-6.977 Y9.25 E0.00637
G1 X-1.404 Y9.241 E0.18862
G1 X-1.412 Y8.273 E0.03279
G1 X-1.405 Y7.65 E0.02109
G1 X-6.775 Y7.65 E0.18176
G1 X-6.811 Y7.995 E0.01175
G1 X-6.99 Y8.082 E0.00674
G1 X-7.122 Y8.023 E0.00492
G1 X-7.976 Y7.17 E0.04084
G1 X-7.99 Y7.154 E0.00074
G1 X-8.704 Y6.266 E0.03857
G1 X-8.717 Y6.248 E0.00074
G1 X-9.33 Y5.288 E0.03856
G1 X-9.341 Y5.269 E0.00075
G1 X-9.848 Y4.248 E0.03856
G1 X-9.856 Y4.228 E0.00075
G1 X-10.249 Y3.158 E0.03856
G1 X-10.256 Y3.137 E0.00075
G1 X-10.531 Y2.032 E0.03856
G1 X-10.535 Y2.01 E0.00074
G1 X-10.688 Y0.881 E0.03857
G1 X-10.69 Y0.859 E0.00074
G1 X-10.721 Y-0.279 E0.03856
G1 X-10.721 Y-0.301 E0.00075
G1 X-10.628 Y-1.437 E0.03856
G1 X-10.625 Y-1.459 E0.00075
G1 X-10.41 Y-2.578 E0.03856
G1 X-10.405 Y-2.599 E0.00075
G1 X-10.071 Y-3.688 E0.03856
G1 X-10.063 Y-3.709 E0.00074
G1 X-9.613 Y-4.755 E0.03857
G1 X-9.603 Y-4.775 E0.00074
G1 X-9.042 Y-5.767 E0.03856
G1 X-9.031 Y-5.785 E0.00075
G1 X-8.366 Y-6.711 E0.03856
G1 X-7.807 Y-7.336 E0.0284
G1 X-7.225 Y-7.923 E0.02798
G1 X-7.225 Y-15.034 E0.2407
M106 S255
;WIPE_START
G1 X-7.571 Y-14.894 F9000
;WIPE_END
G1 E-0.63 F2100
;WIPE_START
G1 F7200
G1 X-7.81 Y-14.916 E-0.0665
;WIPE_END
G1 E-0.0035 F2100
G1 Z38.4 F9000
; acceleration to travel
M204 P1000 T1500
G1 X-9.84 Y-18.548
; decel to extrusion
M204 P1000 T1000
G1 X-10.337 Y-19.435
; end travel
M204 P1000 T1500
G1 Z38.2
G1 E0.7 F2100
;TYPE:Solid infill
;WIDTH:0.419363
M106 S255
G1 F1200
G1 X-11.071 Y-20.169 E0.03276
G1 X-11.071 Y-20.745 E0.01816
G1 X-9.936 Y-19.61 E0.05062
G1 X-9.36 Y-19.61 E0.01816
G1 X-11.071 Y-21.321 E0.07632
G1 X-11.071 Y-21.896 E0.01816
G1 X-8.784 Y-19.61 E0.10199
G1 X-8.209 Y-19.61 E0.01816
G1 X-11.071 Y-22.472 E0.12767
G1 X-11.071 Y-23.048 E0.01816
G1 X-7.929 Y-19.906 E0.14015
G1 X-7.929 Y-20.482 E0.01816
G1 X-11.071 Y-23.623 E0.14014
G1 X-11.071 Y-24.199 E0.01816
G1 X-7.929 Y-21.057 E0.14015
G1 X-7.929 Y-21.633 E0.01816
G1 X-11.071 Y-24.775 E0.14015
G1 X-11.071 Y-25.35 E0.01815
G1 X-7.895 Y-22.174 E0.14169
G1 X-7.81 Y-22.489 E0.01027
G1 X-7.722 Y-22.577 E0.00393
G1 X-11.071 Y-25.926 E0.14941
G1 X-11.071 Y-26.071 E0.00456
G1 X-10.64 Y-26.071 E0.0136
G1 X-7.406 Y-22.837 E0.14428
G1 X-7.241 Y-22.908 E0.00567
G1 X-6.902 Y-22.909 E0.01066
G1 X-10.064 Y-26.071 E0.14105
G1 X-9.488 Y-26.071 E0.01816
G1 X-6.329 Y-22.911 E0.14094
G1 X-5.756 Y-22.914 E0.01809
G1 X-8.913 Y-26.071 E0.14084
G1 X-8.337 Y-26.071 E0.01816
G1 X-5.182 Y-22.916 E0.14074
G1 X-4.609 Y-22.918 E0.01809
G1 X-7.761 Y-26.071 E0.14064
G1 X-7.186 Y-26.071 E0.01816
G1 X-4.035 Y-22.92 E0.14054
G1 X-3.462 Y-22.923 E0.01808
G1 X-6.61 Y-26.071 E0.14044
G1 X-6.034 Y-26.071 E0.01816
G1 X-2.888 Y-22.925 E0.14034
G1 X-2.315 Y-22.927 E0.01809
G1 X-5.458 Y-26.071 E0.14023
G1 X-4.883 Y-26.071 E0.01816
G1 X-2.107 Y-23.295 E0.12382
G1 X-2.107 Y-23.871 E0.01816
G1 X-4.307 Y-26.071 E0.09814
G1 X-3.731 Y-26.071 E0.01816
G1 X-2.107 Y-24.447 E0.07246
G1 X-2.107 Y-25.022 E0.01816
G1 X-3.156 Y-26.071 E0.04677
G1 X-2.58 Y-26.071 E0.01816
G1 X-1.932 Y-25.423 E0.0289
M106 S255
G1 E-0.63 F2100
;WIPE_START
G1 F7200
G1 X-2.102 Y-25.593 E-0.0665
;WIPE_END
G1 E-0.0035 F2100
G1 Z38.4 F9000
; acceleration to travel
G1 X-1.867 Y-23.213
; decel to extrusion
M204 P1000 T1000
G1 X-1.81 Y-22.632
; end travel
M204 P1000 T1500
G1 Z38.2
G1 E0.7 F2100
;TYPE:Internal perimeter
;WIDTH:0.449999
M106 S255
G1 F1200
G1 X-1.81 Y-26.368 E0.12645
G1 X-11.368 Y-26.368 E0.32353
G1 X-11.368 Y-19.313 E0.2388
G1 X-7.632 Y-19.313 E0.12646
G1 X-7.632 Y-22.021 E0.09168
G1 X-7.546 Y-22.335 E0.01101
G1 X-7.335 Y-22.546 E0.01009
G1 X-7.021 Y-22.632 E0.011
G1 X-1.87 Y-22.632 E0.17437
M106 S255
M204 P1000 T1000
G1 X-1.403 Y-22.225 F9000
;TYPE:External perimeter
M106 S255
G1 F1200
G1 X-1.403 Y-26.775 E0.15401
G1 X-11.775 Y-26.775 E0.35108
G1 X-11.775 Y-18.906 E0.26637
G1 X-7.225 Y-18.906 E0.15401
G1 X-7.225 Y-22.021 E0.10546
G1 X-7.165 Y-22.165 E0.00528
G1 X-7.021 Y-22.225 E0.00527
G1 X-1.463 Y-22.225 E0.18815
M106 S255
;WIPE_START
G1 X-1.603 Y-22.571 F9000
;WIPE_END
G1 E-0.63 F2100
;WIPE_START
G1 F7200
G1 X-1.461 Y-22.378 E-0.0665
;WIPE_END
G1 E-0.0035 F2100
G1 Z38.4 F9000
; acceleration to travel
M204 P1000 T1500
G1 X2.069 Y-23.107
; decel to extrusion
M204 P1000 T1000
G1 X2.932 Y-23.285
; end travel
M204 P1000 T1500
G1 Z38.2
G1 E0.7 F2100
