; generated by SuperSlicer 2.5.59.13 on 2025-11-18 at 16:44:08 UTC

; 

; external perimeters extrusion width = 0.30mm
; perimeters extrusion width = 0.30mm
; infill extrusion width = 0.30mm
; solid infill extrusion width = 0.30mm
; top infill extrusion width = 0.30mm


M106 S255
M140 S50 ; set bed temperature
G10 P0 R220 ; sets the standby temperature
G10 P0 S220 ; set temperature
;TYPE:Custom
G1 E0.7 F1800
G21 ; set units to millimeters
G90 ; use absolute coordinates
M83 ; use relative distances for extrusion
; FILAMENT_START_GCODE
G10 P0 S220 ; set temperature
M116 ; wait for temperature to be reached
M190 S50 ; set bed temperature and wait for it to be reached
;LAYER_CHANGE
;Z:30.6
;HEIGHT:30.6
; BEFORE_LAYER_CHANGE
;30.6
G92 E0

G1 E-0.7 F2100
G1 Z0.2 F9000
G1 Z30.6
; AFTER_LAYER_CHANGE
;30.6
G1 Z30.8
M204 P1000 T1000
G1 X4.418 Y10.935
G1 Z30.6
G1 E0.7 F2100
;TYPE:Solid infill
;WIDTH:0.288019
;HEIGHT:0.2
M106 S255
G1 F1200
G1 X4.309 Y10.827 E0.00284
G1 X4.116 Y10.847 E0.00359
G1 X4.003 Y10.884 E0.0022
G1 X4.152 Y11.033 E0.00391
G1 X3.922 Y11.166 E0.00492
G1 X3.727 Y10.972 E0.00508
G1 X3.452 Y11.06 E0.00534
G1 X3.691 Y11.3 E0.00625
G1 X3.461 Y11.433 E0.00492
G1 X3.177 Y11.148 E0.00742
G1 X2.901 Y11.237 E0.00534
G1 X3.23 Y11.566 E0.0086
G1 X3 Y11.699 E0.00491
G1 X2.602 Y11.301 E0.0104
G1 X2.298 Y11.361 E0.00571
G1 X2.769 Y11.832 E0.01231
G1 X2.539 Y11.965 E0.00491
G1 X1.995 Y11.421 E0.01422
G1 X1.691 Y11.481 E0.00572
G1 X2.308 Y12.098 E0.01613
G1 X2.078 Y12.231 E0.00491
G1 X1.362 Y11.515 E0.01871
G1 X1.026 Y11.543 E0.00622
G1 X1.848 Y12.364 E0.02146
G1 X1.617 Y12.497 E0.00492
G1 X0.69 Y11.57 E0.02421
G1 X0.354 Y11.598 E0.00623
G1 X1.387 Y12.63 E0.02697
G1 X1.156 Y12.763 E0.00491
G1 X-0.011 Y11.596 E0.0305
G1 X-0.387 Y11.584 E0.00693
G1 X0.926 Y12.896 E0.03427
G1 X0.695 Y13.03 E0.00492
G1 X-0.762 Y11.573 E0.03805
G1 X-0.985 Y11.566 E0.00413
G1 X-1.156 Y11.542 E0.00319
G1 X0.465 Y13.163 E0.04233
G1 X0.234 Y13.296 E0.00491
G1 X-1.579 Y11.483 E0.04736
G1 X-2.002 Y11.424 E0.00788
G1 X0.004 Y13.429 E0.05238
G1 X-0.227 Y13.562 E0.00491
G1 X-2.454 Y11.335 E0.05817
G1 X-2.94 Y11.212 E0.00926
G1 X-0.457 Y13.695 E0.06485
G1 X-0.688 Y13.828 E0.00492
G1 X-3.426 Y11.089 E0.07153
G1 X-3.446 Y11.085 E0.00037
G1 X-3.997 Y10.883 E0.01084
G1 X-0.918 Y13.961 E0.0804
G1 X-1.149 Y14.094 E0.00492
G1 X-4.581 Y10.662 E0.08963
G1 X-5.292 Y10.315 E0.01463
G1 X-1.379 Y14.227 E0.1022
G1 X-1.61 Y14.36 E0.00491
G1 X-6.492 Y9.478 E0.12752
M106 S255
G1 E-0.63 F2100
;WIPE_START
G1 F7200
G1 X-6.322 Y9.648 E-0.0665
;WIPE_END
G1 E-0.0035 F2100
G1 Z30.8 F9000
; acceleration to travel
M204 P1000 T1500
G1 X-9.838 Y5.256
; decel to extrusion
M204 P1000 T1000
G1 X-10.697 Y4.183
; end travel
M204 P1000 T1500
G1 Z30.6
G1 E0.7 F2100
M106 S255
G1 F1200
G1 X-10.891 Y3.988 E0.00508
G1 X-10.891 Y4.352 E0.00671
G1 X-10.664 Y4.579 E0.00594
G1 X-10.314 Y5.292 E0.01467
G1 X-10.891 Y4.715 E0.01508
G1 X-10.891 Y5.079 E0.00671
G1 X-9.477 Y6.493 E0.03695
M106 S255
; acceleration to travel
G1 X-10.392 Y5.797 F9000
; decel to extrusion
M204 P1000 T1000
G1 X-11.002 Y5.332
; end travel
M106 S255
G1 F1200
M204 P1000 T1500
G1 X-1.84 Y14.493 E0.2393
G1 X-2.071 Y14.626 E0.00492
G1 X-10.891 Y5.806 E0.23039
G1 X-10.891 Y6.17 E0.00672
G1 X-2.301 Y14.759 E0.22437
G1 X-2.532 Y14.893 E0.00492
G1 X-10.891 Y6.533 E0.21835
G1 X-10.891 Y6.897 E0.00672
G1 X-2.762 Y15.026 E0.21233
G1 X-2.993 Y15.159 E0.00492
G1 X-10.891 Y7.26 E0.20631
G1 X-10.891 Y7.624 E0.00671
G1 X-3.223 Y15.292 E0.20029
G1 X-3.454 Y15.425 E0.00492
G1 X-10.891 Y7.988 E0.19427
G1 X-10.891 Y8.351 E0.00672
G1 X-3.684 Y15.558 E0.18825
G1 X-3.915 Y15.691 E0.00491
G1 X-10.891 Y8.715 E0.18223
G1 X-10.891 Y9.078 E0.00672
G1 X-4.145 Y15.824 E0.17621
G1 X-4.376 Y15.957 E0.00491
G1 X-10.891 Y9.442 E0.17019
G1 X-10.891 Y9.805 E0.00671
G1 X-4.606 Y16.09 E0.16417
G1 X-4.837 Y16.223 E0.00492
G1 X-10.891 Y10.169 E0.15814
G1 X-10.891 Y10.532 E0.00672
G1 X-5.067 Y16.356 E0.15213
G1 X-5.298 Y16.489 E0.00491
G1 X-10.891 Y10.896 E0.14611
G1 X-10.891 Y11.26 E0.00671
G1 X-5.528 Y16.623 E0.14009
G1 X-5.759 Y16.756 E0.00491
G1 X-10.891 Y11.623 E0.13407
G1 X-10.891 Y11.987 E0.00671
G1 X-5.989 Y16.889 E0.12805
G1 X-6.22 Y17.022 E0.00491
G1 X-10.891 Y12.35 E0.12203
G1 X-10.891 Y12.714 E0.00671
G1 X-6.45 Y17.155 E0.116
G1 X-6.681 Y17.288 E0.00492
G1 X-10.891 Y13.077 E0.10998
G1 X-10.891 Y13.441 E0.00672
G1 X-6.911 Y17.421 E0.10396
G1 X-7.142 Y17.554 E0.00491
G1 X-10.891 Y13.805 E0.09794
G1 X-10.891 Y14.168 E0.00672
G1 X-7.372 Y17.687 E0.09192
G1 X-7.603 Y17.82 E0.00491
G1 X-10.891 Y14.532 E0.0859
G1 X-10.891 Y14.895 E0.00672
G1 X-7.845 Y17.942 E0.07958
G1 X-8.09 Y18.06 E0.00503
G1 X-10.891 Y15.259 E0.07317
G1 X-10.891 Y15.622 E0.00671
G1 X-8.352 Y18.161 E0.06632
G1 X-8.63 Y18.247 E0.00536
G1 X-10.891 Y15.986 E0.05908
G1 X-10.891 Y16.349 E0.00671
G1 X-8.935 Y18.305 E0.05109
G1 X-9.261 Y18.343 E0.00605
G1 X-10.891 Y16.713 E0.04258
G1 X-10.891 Y17.077 E0.00672
G1 X-9.586 Y18.382 E0.03408
G1 X-9.668 Y18.391 E0.00153
G1 X-9.94 Y18.391 E0.00502
G1 X-10.891 Y17.44 E0.02484
G1 X-10.891 Y17.804 E0.00672
G1 X-10.304 Y18.391 E0.01534
G1 X-10.667 Y18.391 E0.00671
G1 X-11.002 Y18.057 E0.00874
M106 S255
G1 E-0.63 F2100
;WIPE_START
G1 F7200
G1 X-10.832 Y18.226 E-0.0665
;WIPE_END
G1 E-0.0035 F2100
G1 Z30.8 F9000
; acceleration to travel
G1 X19.155 Y-17.317
; decel to extrusion
M204 P1000 T1000
G1 X26.482 Y-26.002
; end travel
M204 P1000 T1500
G1 Z30.6
G1 E0.7 F2100
;WIDTH:0.295746
M106 S255
G1 F1200
G1 X26.891 Y-25.593 E0.01097
G1 X26.891 Y-25.229 E0.0069
G1 X26.229 Y-25.891 E0.01776
G1 X25.865 Y-25.891 E0.0069
G1 X26.891 Y-24.865 E0.02751
G1 X26.891 Y-24.502 E0.00689
G1 X25.502 Y-25.891 E0.03727
G1 X25.138 Y-25.891 E0.00689
G1 X26.891 Y-24.138 E0.04702
G1 X26.891 Y-23.775 E0.00689
G1 X24.775 Y-25.891 E0.05677
G1 X24.411 Y-25.891 E0.0069
G1 X26.891 Y-23.411 E0.06651
G1 X26.891 Y-23.048 E0.0069
G1 X24.048 Y-25.891 E0.07627
G1 X23.684 Y-25.891 E0.00689
G1 X26.891 Y-22.684 E0.08603
G1 X26.891 Y-22.32 E0.00689
G1 X23.32 Y-25.891 E0.09577
G1 X22.957 Y-25.891 E0.0069
G1 X26.891 Y-21.957 E0.10552
G1 X26.891 Y-21.593 E0.0069
G1 X22.593 Y-25.891 E0.11527
G1 X22.23 Y-25.891 E0.0069
G1 X26.891 Y-21.23 E0.12502
G1 X26.891 Y-20.866 E0.0069
G1 X21.866 Y-25.891 E0.13478
G1 X21.503 Y-25.891 E0.00689
G1 X26.891 Y-20.503 E0.14453
G1 X26.891 Y-20.139 E0.0069
G1 X21.139 Y-25.891 E0.15428
G1 X20.775 Y-25.891 E0.0069
G1 X26.784 Y-19.882 E0.16116
G1 X26.554 Y-19.749 E0.00505
G1 X20.412 Y-25.891 E0.16473
G1 X20.048 Y-25.891 E0.0069
G1 X26.323 Y-19.616 E0.1683
G1 X26.093 Y-19.483 E0.00505
G1 X19.685 Y-25.891 E0.17188
G1 X19.321 Y-25.891 E0.00689
G1 X25.862 Y-19.35 E0.17545
G1 X25.632 Y-19.217 E0.00504
G1 X18.958 Y-25.891 E0.17902
G1 X18.594 Y-25.891 E0.00689
G1 X25.401 Y-19.084 E0.18258
G1 X25.171 Y-18.951 E0.00505
G1 X18.231 Y-25.891 E0.18615
G1 X17.867 Y-25.891 E0.0069
G1 X24.94 Y-18.818 E0.18972
G1 X24.71 Y-18.685 E0.00505
G1 X17.503 Y-25.891 E0.19329
G1 X17.14 Y-25.891 E0.00689
G1 X24.479 Y-18.552 E0.19686
G1 X24.249 Y-18.419 E0.00505
G1 X16.776 Y-25.891 E0.20043
G1 X16.413 Y-25.891 E0.00689
G1 X24.018 Y-18.285 E0.204
G1 X23.788 Y-18.152 E0.00505
G1 X16.049 Y-25.891 E0.20756
G1 X15.686 Y-25.891 E0.0069
G1 X23.557 Y-18.019 E0.21113
G1 X23.327 Y-17.886 E0.00505
G1 X15.322 Y-25.891 E0.21471
G1 X14.958 Y-25.891 E0.00689
G1 X23.096 Y-17.753 E0.21828
G1 X22.866 Y-17.62 E0.00505
G1 X14.595 Y-25.891 E0.22184
G1 X14.231 Y-25.891 E0.00689
G1 X22.635 Y-17.487 E0.22542
G1 X22.405 Y-17.354 E0.00505
G1 X13.868 Y-25.891 E0.22898
G1 X13.504 Y-25.891 E0.00689
G1 X22.174 Y-17.221 E0.23255
G1 X21.944 Y-17.088 E0.00505
G1 X13.141 Y-25.891 E0.23612
G1 X12.777 Y-25.891 E0.0069
G1 X21.713 Y-16.955 E0.23969
G1 X21.483 Y-16.822 E0.00505
G1 X12.413 Y-25.891 E0.24326
G1 X12.05 Y-25.891 E0.00689
G1 X21.252 Y-16.689 E0.24683
G1 X21.022 Y-16.555 E0.00505
G1 X11.686 Y-25.891 E0.2504
G1 X11.323 Y-25.891 E0.00689
G1 X20.792 Y-16.422 E0.25397
G1 X20.561 Y-16.289 E0.00505
G1 X10.959 Y-25.891 E0.25753
G1 X10.596 Y-25.891 E0.0069
G1 X20.331 Y-16.156 E0.2611
G1 X20.1 Y-16.023 E0.00505
G1 X10.232 Y-25.891 E0.26468
G1 X9.869 Y-25.891 E0.00689
G1 X19.87 Y-15.89 E0.26825
G1 X19.639 Y-15.757 E0.00505
G1 X9.505 Y-25.891 E0.27181
G1 X9.141 Y-25.891 E0.00689
G1 X19.409 Y-15.624 E0.27539
G1 X19.178 Y-15.491 E0.00504
G1 X8.778 Y-25.891 E0.27896
G1 X8.414 Y-25.891 E0.00689
G1 X18.948 Y-15.358 E0.28252
G1 X18.717 Y-15.225 E0.00505
G1 X8.051 Y-25.891 E0.28609
G1 X7.687 Y-25.891 E0.0069
G1 X18.487 Y-15.092 E0.28966
G1 X18.256 Y-14.959 E0.00505
G1 X7.324 Y-25.891 E0.29322
G1 X6.96 Y-25.891 E0.0069
G1 X18.026 Y-14.826 E0.2968
G1 X17.795 Y-14.692 E0.00505
G1 X6.596 Y-25.891 E0.30036
G1 X6.233 Y-25.891 E0.0069
G1 X17.565 Y-14.559 E0.30394
G1 X17.334 Y-14.426 E0.00504
G1 X5.869 Y-25.891 E0.30751
G1 X5.506 Y-25.891 E0.0069
G1 X17.104 Y-14.293 E0.31107
G1 X16.873 Y-14.16 E0.00505
G1 X5.142 Y-25.891 E0.31465
G1 X4.779 Y-25.891 E0.00689
G1 X16.643 Y-14.027 E0.31821
G1 X16.412 Y-13.894 E0.00505
G1 X4.415 Y-25.891 E0.32179
G1 X4.052 Y-25.891 E0.00689
G1 X16.182 Y-13.761 E0.32535
G1 X15.951 Y-13.628 E0.00505
G1 X3.688 Y-25.891 E0.32892
G1 X3.324 Y-25.891 E0.0069
G1 X15.721 Y-13.495 E0.33249
G1 X15.49 Y-13.362 E0.00505
G1 X2.961 Y-25.891 E0.33606
G1 X2.597 Y-25.891 E0.00689
G1 X15.26 Y-13.229 E0.33963
G1 X15.029 Y-13.096 E0.00505
G1 X2.234 Y-25.891 E0.3432
G1 X1.87 Y-25.891 E0.0069
G1 X14.799 Y-12.962 E0.34676
G1 X14.568 Y-12.829 E0.00505
G1 X1.507 Y-25.891 E0.35034
G1 X1.143 Y-25.891 E0.0069
G1 X14.338 Y-12.696 E0.3539
G1 X14.107 Y-12.563 E0.00505
G1 X0.779 Y-25.891 E0.35748
G1 X0.416 Y-25.891 E0.00689
G1 X13.877 Y-12.43 E0.36105
G1 X13.646 Y-12.297 E0.00504
G1 X0.052 Y-25.891 E0.36462
G1 X-0.311 Y-25.891 E0.0069
G1 X13.416 Y-12.164 E0.36818
G1 X13.185 Y-12.031 E0.00505
G1 X-0.675 Y-25.891 E0.37175
G1 X-1.038 Y-25.891 E0.0069
G1 X12.955 Y-11.898 E0.37532
G1 X12.724 Y-11.765 E0.00505
G1 X-1.402 Y-25.891 E0.37889
G1 X-1.766 Y-25.891 E0.00689
G1 X12.494 Y-11.632 E0.38246
G1 X12.263 Y-11.499 E0.00505
G1 X-2.129 Y-25.891 E0.38603
G1 X-2.493 Y-25.891 E0.0069
G1 X12.033 Y-11.366 E0.3896
G1 X11.802 Y-11.233 E0.00505
G1 X-2.856 Y-25.891 E0.39316
G1 X-3.22 Y-25.891 E0.0069
G1 X11.572 Y-11.099 E0.39674
G1 X11.341 Y-10.966 E0.00505
G1 X-3.583 Y-25.891 E0.4003
G1 X-3.947 Y-25.891 E0.0069
G1 X11.111 Y-10.833 E0.40388
G1 X10.88 Y-10.7 E0.00504
G1 X-4.31 Y-25.891 E0.40745
G1 X-4.674 Y-25.891 E0.00689
G1 X10.65 Y-10.567 E0.41102
G1 X10.419 Y-10.434 E0.00505
G1 X-5.038 Y-25.891 E0.41458
G1 X-5.401 Y-25.891 E0.0069
G1 X10.189 Y-10.301 E0.41815
G1 X9.958 Y-10.168 E0.00505
G1 X-5.765 Y-25.891 E0.42172
G1 X-6.128 Y-25.891 E0.0069
G1 X9.728 Y-10.035 E0.42529
G1 X9.497 Y-9.902 E0.00505
G1 X-6.492 Y-25.891 E0.42886
G1 X-6.855 Y-25.891 E0.00689
G1 X9.267 Y-9.769 E0.43244
G1 X9.036 Y-9.636 E0.00504
G1 X-7.219 Y-25.891 E0.436
G1 X-7.583 Y-25.891 E0.0069
G1 X8.806 Y-9.503 E0.43957
G1 X8.575 Y-9.369 E0.00505
G1 X-7.946 Y-25.891 E0.44314
G1 X-8.31 Y-25.891 E0.00689
G1 X8.345 Y-9.236 E0.44671
G1 X8.115 Y-9.103 E0.00505
G1 X-8.673 Y-25.891 E0.45027
G1 X-9.037 Y-25.891 E0.0069
G1 X7.884 Y-8.97 E0.45385
G1 X7.654 Y-8.837 E0.00504
G1 X-9.4 Y-25.891 E0.45742
G1 X-9.764 Y-25.891 E0.00689
G1 X6.585 Y-9.542 E0.43851
G1 X6.258 Y-9.775 E0.00761
G1 X5.645 Y-10.119 E0.01334
G1 X-10.128 Y-25.891 E0.42304
G1 X-10.491 Y-25.891 E0.0069
G1 X4.879 Y-10.521 E0.41225
G1 X4.252 Y-10.785 E0.01291
G1 X-10.855 Y-25.891 E0.40517
G1 X-10.891 Y-25.891 E0.00069
G1 X-10.891 Y-25.564 E0.00621
G1 X3.675 Y-10.998 E0.39068
G1 X3.157 Y-11.153 E0.01025
G1 X-10.891 Y-25.2 E0.37679
G1 X-10.891 Y-24.837 E0.00689
G1 X2.648 Y-11.297 E0.36315
G1 X2.2 Y-11.382 E0.00865
G1 X-10.891 Y-24.473 E0.35114
G1 X-10.891 Y-24.11 E0.00689
G1 X1.752 Y-11.466 E0.33913
G1 X1.58 Y-11.499 E0.00332
G1 X1.337 Y-11.518 E0.00463
G1 X-10.891 Y-23.746 E0.32798
G1 X-10.891 Y-23.383 E0.00689
G1 X0.942 Y-11.55 E0.31738
G1 X0.546 Y-11.582 E0.00752
G1 X-10.891 Y-23.019 E0.30678
G1 X-10.891 Y-22.656 E0.00689
G1 X0.162 Y-11.602 E0.29648
G1 X-0.189 Y-11.59 E0.00667
G1 X-10.891 Y-22.292 E0.28705
G1 X-10.891 Y-21.928 E0.00689
G1 X-0.54 Y-11.578 E0.27763
G1 X-0.892 Y-11.566 E0.00667
G1 X-10.891 Y-21.565 E0.26819
G1 X-10.891 Y-21.201 E0.0069
G1 X-1.223 Y-11.533 E0.25931
G1 X-1.541 Y-11.487 E0.00609
G1 X-10.891 Y-20.838 E0.25079
G1 X-10.891 Y-20.474 E0.0069
G1 X-1.859 Y-11.442 E0.24226
G1 X-2.177 Y-11.396 E0.00609
G1 X-10.891 Y-20.111 E0.23374
G1 X-10.891 Y-19.747 E0.0069
G1 X-2.475 Y-11.331 E0.22573
G1 X-2.766 Y-11.258 E0.00568
G1 X-10.891 Y-19.383 E0.21794
G1 X-10.891 Y-19.02 E0.0069
G1 X-3.056 Y-11.185 E0.21015
G1 X-3.346 Y-11.112 E0.00568
G1 X-10.891 Y-18.656 E0.20236
G1 X-10.891 Y-18.293 E0.0069
G1 X-3.616 Y-11.018 E0.19512
G1 X-3.882 Y-10.921 E0.00538
G1 X-10.891 Y-17.929 E0.18798
G1 X-10.891 Y-17.566 E0.0069
G1 X-4.149 Y-10.823 E0.18084
G1 X-4.415 Y-10.726 E0.00538
G1 X-10.891 Y-17.202 E0.1737
G1 X-10.891 Y-16.838 E0.0069
G1 X-4.672 Y-10.619 E0.16682
G1 X-4.915 Y-10.499 E0.00514
G1 X-10.891 Y-16.475 E0.1603
G1 X-10.891 Y-16.111 E0.00689
G1 X-5.158 Y-10.379 E0.15377
G1 X-5.402 Y-10.258 E0.00515
G1 X-10.891 Y-15.748 E0.14723
G1 X-10.891 Y-15.384 E0.0069
G1 X-5.645 Y-10.138 E0.1407
G1 X-5.694 Y-10.114 E0.00104
G1 X-5.871 Y-10.001 E0.00399
G1 X-10.891 Y-15.021 E0.13464
G1 X-10.891 Y-14.657 E0.00689
G1 X-6.094 Y-9.86 E0.12868
G1 X-6.316 Y-9.718 E0.00499
G1 X-10.891 Y-14.294 E0.12272
G1 X-10.891 Y-13.93 E0.0069
G1 X-6.538 Y-9.577 E0.11676
G1 X-6.759 Y-9.435 E0.00499
G1 X-10.891 Y-13.566 E0.11081
G1 X-10.891 Y-13.203 E0.0069
G1 X-6.962 Y-9.274 E0.10539
G1 X-7.164 Y-9.113 E0.0049
G1 X-10.891 Y-12.839 E0.09996
G1 X-10.891 Y-12.476 E0.0069
G1 X-7.367 Y-8.951 E0.09452
G1 X-7.569 Y-8.79 E0.00491
G1 X-10.891 Y-12.112 E0.08909
G1 X-10.891 Y-11.749 E0.0069
G1 X-7.766 Y-8.624 E0.08382
G1 X-7.953 Y-8.447 E0.00488
G1 X-10.891 Y-11.385 E0.07881
G1 X-10.891 Y-11.021 E0.00689
G1 X-8.14 Y-8.27 E0.0738
G1 X-8.246 Y-8.17 E0.00277
G1 X-8.32 Y-8.087 E0.00211
G1 X-10.891 Y-10.658 E0.06896
G1 X-10.891 Y-10.294 E0.00689
G1 X-8.492 Y-7.895 E0.06435
G1 X-8.664 Y-7.704 E0.00488
G1 X-10.891 Y-9.931 E0.05974
G1 X-10.891 Y-9.567 E0.00689
G1 X-8.836 Y-7.512 E0.05512
G1 X-9.008 Y-7.32 E0.00489
G1 X-10.891 Y-9.204 E0.05051
G1 X-10.891 Y-8.84 E0.00689
G1 X-9.161 Y-7.11 E0.0464
G1 X-9.314 Y-6.9 E0.00494
G1 X-10.891 Y-8.477 E0.04229
G1 X-10.891 Y-8.113 E0.0069
G1 X-9.467 Y-6.689 E0.03819
G1 X-9.62 Y-6.478 E0.00494
G1 X-10.891 Y-7.749 E0.0341
G1 X-10.891 Y-7.386 E0.00689
G1 X-9.77 Y-6.265 E0.03008
G1 X-9.901 Y-6.032 E0.00506
G1 X-10.891 Y-7.022 E0.02655
G1 X-10.891 Y-6.659 E0.00689
G1 X-10.032 Y-5.8 E0.02304
G1 X-10.164 Y-5.568 E0.00506
G1 X-10.891 Y-6.295 E0.01951
G1 X-10.891 Y-5.932 E0.00689
G1 X-10.295 Y-5.335 E0.01599
G1 X-10.426 Y-5.103 E0.00506
G1 X-10.891 Y-5.568 E0.01249
G1 X-10.891 Y-5.204 E0.00689
G1 X-10.535 Y-4.848 E0.00955
G1 X-10.644 Y-4.594 E0.00525
G1 X-10.891 Y-4.841 E0.00662
G1 X-10.891 Y-4.477 E0.0069
G1 X-10.754 Y-4.34 E0.00368
G1 X-10.863 Y-4.086 E0.00525
G1 X-11.002 Y-4.224 E0.00372
M106 S255
M204 P1000 T1000
G1 X-10.722 Y-3.932 F9000
;TYPE:Internal perimeter
;WIDTH:0.299999
M106 S255
G1 F1200
G1 X-10.703 Y-3.984 E0.00107
G1 X-10.252 Y-5.03 E0.02191
G1 X-10.209 Y-5.118 E0.00188
G1 X-9.648 Y-6.109 E0.02192
G1 X-9.596 Y-6.191 E0.00187
G1 X-8.931 Y-7.117 E0.02192
G1 X-8.87 Y-7.193 E0.00187
G1 X-8.11 Y-8.04 E0.02191
G1 X-7.63 Y-8.498 E0.01275
G1 X-7.576 Y-8.546 E0.0014
G1 X-6.724 Y-9.23 E0.02102
G1 X-6.647 Y-9.285 E0.00182
G1 X-5.689 Y-9.901 E0.0219
G1 X-5.605 Y-9.949 E0.00187
G1 X-4.587 Y-10.457 E0.02189
G1 X-4.497 Y-10.496 E0.00188
G1 X-3.431 Y-10.891 E0.02189
G1 X-3.338 Y-10.92 E0.00187
G1 X-2.234 Y-11.198 E0.0219
G1 X-2.138 Y-11.217 E0.00187
G1 X-1.011 Y-11.374 E0.0219
G1 X-0.914 Y-11.382 E0.00187
G1 X0.223 Y-11.417 E0.02189
G1 X0.321 Y-11.414 E0.00187
G1 X1.455 Y-11.326 E0.0219
G1 X1.552 Y-11.313 E0.00188
G1 X2.67 Y-11.102 E0.02189
G1 X2.765 Y-11.079 E0.00187
G1 X3.854 Y-10.749 E0.0219
G1 X4.441 Y-10.505 E0.01223
G1 X4.993 Y-10.27 E0.01153
G1 X5.08 Y-10.227 E0.00188
G1 X6.073 Y-9.67 E0.02189
G1 X6.155 Y-9.618 E0.00187
