; generated by SuperSlicer 2.5.59.13 on 2025-11-28 at 08:53:36 UTC

; 

; external perimeters extrusion width = 0.30mm
; perimeters extrusion width = 0.30mm
; infill extrusion width = 0.30mm
; solid infill extrusion width = 0.30mm
; top infill extrusion width = 0.30mm


M106 S255
M140 S50 ; set bed temperature
G10 P0 R220 ; sets the standby temperature
G10 P0 S220 ; set temperature
;TYPE:Custom
G1 E0.7 F1800
G21 ; set units to millimeters
G90 ; use absolute coordinates
M83 ; use relative distances for extrusion
; FILAMENT_START_GCODE
G10 P0 S220 ; set temperature
M116 ; wait for temperature to be reached
M190 S50 ; set bed temperature and wait for it to be reached
;LAYER_CHANGE
;Z:38.000000
;HEIGHT:38.000000
; BEFORE_LAYER_CHANGE
;38
G92 E0

G1 E-0.7 F2100
G1 Z0.2 F9000
G1 Z38.000000
; AFTER_LAYER_CHANGE
;38
G1 Z38.2
M204 P1000 T1000
G1 X-8.523 Y16.902
G1 Z38.000000
G1 E0.7 F2100
;TYPE:Solid infill
;WIDTH:0.268079
;HEIGHT:0.2
M106 S255
G1 F1200
G1 X-8.109 Y17.317 E0.01007
G1 X-8.109 Y17.68 E0.00625
G1 X-8.776 Y17.014 E0.01621
G1 X-9.138 Y17.014 E0.00624
G1 X-8.109 Y18.044 E0.02502
G1 X-8.109 Y18.066 E0.00038
G1 X-8.292 Y18.147 E0.00344
G1 X-8.352 Y18.164 E0.00108
G1 X-9.501 Y17.015 E0.02794
G1 X-9.864 Y17.016 E0.00624
G1 X-8.632 Y18.247 E0.02994
G1 X-8.796 Y18.296 E0.00293
G1 X-8.929 Y18.314 E0.00231
G1 X-10.227 Y17.016 E0.03156
G1 X-10.59 Y17.017 E0.00623
G1 X-9.248 Y18.359 E0.03262
G1 X-9.414 Y18.382 E0.00288
G1 X-9.588 Y18.383 E0.00298
G1 X-10.891 Y17.079 E0.0317
G1 X-10.891 Y17.443 E0.00625
G1 X-9.949 Y18.385 E0.0229
G1 X-10.311 Y18.387 E0.00621
G1 X-10.891 Y17.806 E0.01412
G1 X-10.891 Y18.17 E0.00625
G1 X-10.562 Y18.499 E0.00799
M106 S255
G1 E-0.63 F2100
;WIPE_START
G1 F7200
G1 X-10.732 Y18.329 E-0.0665
;WIPE_END
G1 E-0.0035 F2100
G1 Z38.2 F9000
; acceleration to travel
M204 P1000 T1500
G1 X-8.473 Y17.126
; decel to extrusion
M204 P1000 T1000
G1 X-7.921 Y16.832
; end travel
M204 P1000 T1500
G1 Z38.000000
G1 E0.7 F2100
;TYPE:Internal perimeter
;WIDTH:0.299999
M106 S255
G1 F1200
G1 X-8.733 Y16.831 E0.01562
G1 X-9.492 Y16.842 E0.01461
G1 X-10.079 Y16.853 E0.01128
G1 X-11.079 Y16.831 E0.01924
G1 X-11.079 Y18.579 E0.03364
G1 X-9.651 Y18.579 E0.02746
G1 X-9.001 Y18.514 E0.01258
G1 X-8.496 Y18.403 E0.00994
G1 X-7.921 Y18.188 E0.01181
G1 X-7.921 Y16.892 E0.02493
M106 S255
M204 P1000 T1000
G1 X-7.664 Y16.581 F9000
M106 S255
G1 F1200
G1 X-8.224 Y16.567 E0.01077
G1 X-9.137 Y16.578 E0.01757
G1 X-10.084 Y16.596 E0.01821
G1 X-10.189 Y16.594 E0.00203
G1 X-11.291 Y16.569 E0.02121
G1 X-11.336 Y16.57 E0.00086
G1 X-11.336 Y18.836 E0.04359
G1 X-9.646 Y18.836 E0.0325
G1 X-8.965 Y18.768 E0.01317
G1 X-8.423 Y18.649 E0.01069
G1 X-7.758 Y18.397 E0.01367
G1 X-7.664 Y18.349 E0.00204
G1 X-7.664 Y16.641 E0.03285
M106 S255
G1 X-7.407 Y16.33 F9000
M106 S255
G1 F1200
G1 X-8.222 Y16.31 E0.01569
G1 X-9.142 Y16.321 E0.01769
G1 X-10.088 Y16.339 E0.01821
G1 X-10.183 Y16.337 E0.00183
G1 X-11.292 Y16.311 E0.02134
G1 X-11.593 Y16.321 E0.00579
G1 X-11.593 Y19.093 E0.05333
G1 X-9.642 Y19.093 E0.03754
G1 X-8.93 Y19.023 E0.01375
G1 X-8.35 Y18.896 E0.01143
G1 X-7.654 Y18.632 E0.01431
G1 X-7.407 Y18.505 E0.00535
G1 X-7.407 Y16.39 E0.04069
M106 S255
G1 X-7.15 Y16.079 F9000
;TYPE:External perimeter
M106 S255
G1 F1200
G1 X-8.221 Y16.053 E0.02061
G1 X-9.146 Y16.064 E0.01781
G1 X-10.095 Y16.082 E0.01826
G1 X-11.293 Y16.054 E0.02305
G1 X-11.85 Y16.072 E0.01072
G1 X-11.85 Y19.35 E0.06306
G1 X-9.637 Y19.35 E0.04258
G1 X-8.894 Y19.278 E0.01435
G1 X-8.277 Y19.142 E0.01216
G1 X-7.551 Y18.867 E0.01494
G1 X-7.15 Y18.662 E0.00866
G1 X-7.15 Y16.139 E0.04854
M106 S255
;WIPE_START
G1 X-7.495 Y16.271 F9000
;WIPE_END
G1 E-0.63 F2100
;WIPE_START
G1 F7200
G1 X-7.299 Y16.132 E-0.0665
;WIPE_END
G1 E-0.0035 F2100
G1 Z38.2 F9000
; acceleration to travel
M204 P1000 T1500
G1 X1.297 Y9.668
; decel to extrusion
M204 P1000 T1000
G1 X3.397 Y8.089
; end travel
M204 P1000 T1500
G1 Z38.000000
G1 E0.7 F2100
;TYPE:Internal perimeter
M106 S255
G1 F1200
G1 X3.086 Y8.089 E0.00599
G1 X3.085 Y8.711 E0.01198
G1 X6.76 Y8.72 E0.0707
G1 X6.76 Y8.404 E0.00608
G1 X6.76 Y8.089 E0.00606
G1 X3.457 Y8.089 E0.06355
M106 S255
M204 P1000 T1000
G1 X2.829 Y7.832 F9000
M106 S255
G1 F1200
G1 X2.828 Y8.968 E0.02185
G1 X7.018 Y8.977 E0.08061
G1 X7.018 Y7.832 E0.02203
G1 X2.889 Y7.832 E0.07943
M106 S255
G1 X2.572 Y7.575 F9000
;TYPE:External perimeter
M106 S255
G1 F1200
G1 X2.57 Y9.224 E0.03174
G1 X7.275 Y9.235 E0.0905
G1 X7.275 Y8.404 E0.01599
G1 X7.275 Y7.575 E0.01595
G1 X2.632 Y7.575 E0.08931
M106 S255
;WIPE_START
G1 X2.772 Y7.921 F9000
;WIPE_END
G1 X3.397 Y8.4
;TYPE:Internal perimeter
;WIDTH:0.409
M106 S255
G1 F1200
G1 X6.445 Y8.404 E0.08351
M106 S255
G1 E-0.63 F2100
;WIPE_START
G1 F7200
G1 X6.205 Y8.404 E-0.0665
;WIPE_END
G1 E-0.0035 F2100
G1 Z38.2 F9000
; acceleration to travel
M204 P1000 T1500
G1 X-7.623 Y4.911
; decel to extrusion
M204 P1000 T1000
G1 X-11.002 Y4.058
; end travel
M204 P1000 T1500
G1 Z38.000000
G1 E0.7 F2100
;TYPE:Solid infill
;WIDTH:0.279907
M106 S255
G1 F1200
G1 X-10.778 Y4.281 E0.00567
G1 X-10.684 Y4.539 E0.00493
G1 X-10.486 Y4.937 E0.00797
G1 X-10.891 Y4.532 E0.01027
G1 X-10.891 Y4.895 E0.00653
G1 X-10.129 Y5.658 E0.01936
G1 X-10.079 Y5.759 E0.00202
G1 X-9.509 Y6.641 E0.01886
G1 X-10.891 Y5.259 E0.03509
G1 X-10.891 Y5.623 E0.00652
G1 X-7.823 Y8.691 E0.07789
G1 X-7.954 Y8.923 E0.00479
G1 X-10.891 Y5.986 E0.07456
G1 X-10.891 Y6.35 E0.00652
G1 X-8.085 Y9.156 E0.07123
G1 X-8.094 Y9.172 E0.00034
G1 X-8.097 Y9.508 E0.00602
G1 X-10.891 Y6.713 E0.07094
G1 X-10.891 Y7.077 E0.00653
G1 X-8.099 Y9.869 E0.07086
G1 X-8.102 Y10.229 E0.00648
G1 X-10.891 Y7.44 E0.07081
G1 X-10.891 Y7.804 E0.00652
G1 X-8.105 Y10.59 E0.07074
G1 X-8.107 Y10.951 E0.00648
G1 X-10.891 Y8.167 E0.07066
G1 X-10.891 Y8.531 E0.00653
G1 X-8.442 Y10.98 E0.06217
G1 X-8.805 Y10.981 E0.00652
G1 X-10.891 Y8.895 E0.05295
G1 X-10.891 Y9.258 E0.00653
G1 X-9.168 Y10.981 E0.04374
G1 X-9.531 Y10.982 E0.00651
G1 X-10.891 Y9.622 E0.03453
G1 X-10.891 Y9.985 E0.00653
G1 X-9.894 Y10.982 E0.02531
G1 X-10.257 Y10.983 E0.00652
G1 X-10.891 Y10.349 E0.01609
G1 X-10.891 Y10.712 E0.00653
G1 X-10.51 Y11.094 E0.00969
M106 S255
G1 E-0.63 F2100
;WIPE_START
G1 F7200
G1 X-10.679 Y10.924 E-0.0665
;WIPE_END
G1 E-0.0035 F2100
G1 Z38.2 F9000
; acceleration to travel
G1 X-8.525 Y-8.762
; decel to extrusion
M204 P1000 T1000
G1 X-7.998 Y-13.572
; end travel
M204 P1000 T1500
G1 Z38.000000
G1 E0.7 F2100
;WIDTH:0.280101
M106 S255
G1 F1200
G1 X-8.405 Y-13.979 E0.01033
G1 X-8.767 Y-13.977 E0.0065
G1 X-8.109 Y-13.319 E0.01671
G1 X-8.109 Y-12.955 E0.00653
G1 X-9.128 Y-13.975 E0.0259
G1 X-9.49 Y-13.973 E0.00649
G1 X-8.109 Y-12.592 E0.03508
G1 X-8.109 Y-12.228 E0.00653
G1 X-9.851 Y-13.971 E0.04427
G1 X-10.109 Y-13.969 E0.00463
G1 X-10.215 Y-13.971 E0.0019
G1 X-8.109 Y-11.865 E0.0535
G1 X-8.109 Y-11.501 E0.00653
G1 X-10.584 Y-13.976 E0.06287
G1 X-10.891 Y-13.98 E0.00552
G1 X-10.891 Y-13.92 E0.00108
G1 X-8.109 Y-11.138 E0.07068
G1 X-8.109 Y-10.774 E0.00653
G1 X-10.891 Y-13.556 E0.07068
G1 X-10.891 Y-13.193 E0.00653
G1 X-8.109 Y-10.41 E0.07068
G1 X-8.109 Y-10.047 E0.00653
G1 X-10.891 Y-12.829 E0.07067
G1 X-10.891 Y-12.466 E0.00653
G1 X-8.109 Y-9.683 E0.07068
G1 X-8.109 Y-9.32 E0.00653
G1 X-10.891 Y-12.102 E0.07068
G1 X-10.891 Y-11.738 E0.00653
G1 X-8.109 Y-8.956 E0.07068
G1 X-8.109 Y-8.593 E0.00653
G1 X-10.891 Y-11.375 E0.07067
G1 X-10.891 Y-11.011 E0.00654
G1 X-8.141 Y-8.261 E0.06985
G1 X-8.315 Y-8.072 E0.00463
G1 X-10.891 Y-10.648 E0.06543
G1 X-10.891 Y-10.284 E0.00653
G1 X-8.49 Y-7.883 E0.061
G1 X-8.664 Y-7.694 E0.00462
G1 X-10.891 Y-9.921 E0.05657
G1 X-10.891 Y-9.557 E0.00653
G1 X-8.838 Y-7.504 E0.05215
G1 X-9.013 Y-7.315 E0.00462
G1 X-10.891 Y-9.193 E0.04772
G1 X-10.891 Y-8.83 E0.00653
G1 X-9.165 Y-7.104 E0.04385
G1 X-9.317 Y-6.892 E0.00468
G1 X-10.891 Y-8.466 E0.03999
G1 X-10.891 Y-8.103 E0.00653
G1 X-9.469 Y-6.68 E0.03613
G1 X-9.621 Y-6.469 E0.00468
G1 X-10.891 Y-7.739 E0.03227
G1 X-10.891 Y-7.376 E0.00653
G1 X-9.773 Y-6.257 E0.02841
G1 X-9.809 Y-6.207 E0.00111
G1 X-9.908 Y-6.029 E0.00366
G1 X-10.891 Y-7.012 E0.02497
G1 X-10.891 Y-6.649 E0.00653
G1 X-10.039 Y-5.796 E0.02165
G1 X-10.169 Y-5.563 E0.0048
G1 X-10.891 Y-6.285 E0.01834
G1 X-10.891 Y-5.921 E0.00653
G1 X-10.3 Y-5.33 E0.01503
G1 X-10.429 Y-5.095 E0.00481
G1 X-10.891 Y-5.558 E0.01174
G1 X-10.891 Y-5.194 E0.00653
G1 X-10.538 Y-4.841 E0.00897
G1 X-10.647 Y-4.587 E0.00497
G1 X-10.891 Y-4.831 E0.00619
G1 X-10.891 Y-4.467 E0.00653
G1 X-10.757 Y-4.333 E0.00342
G1 X-10.866 Y-4.079 E0.00497
G1 X-11.002 Y-4.214 E0.00344
M106 S255
G1 E-0.63 F2100
;WIPE_START
G1 F7200
G1 X-10.866 Y-4.079 E-0.0531
G1 X-10.847 Y-4.123 E-0.0134
;WIPE_END
G1 E-0.0035 F2100
G1 Z38.2 F9000
; acceleration to travel
G1 X-8.145 Y6.11
; decel to extrusion
M204 P1000 T1000
G1 X-7.485 Y8.611
; end travel
M204 P1000 T1500
G1 Z38.000000
G1 E0.7 F2100
;TYPE:Internal perimeter
;WIDTH:0.299999
M106 S255
G1 F1200
G1 X-7.615 Y8.516 E0.0031
G1 X-8.468 Y7.662 E0.02321
G1 X-8.533 Y7.59 E0.00187
G1 X-9.247 Y6.702 E0.02192
G1 X-9.304 Y6.623 E0.00187
G1 X-9.917 Y5.663 E0.02192
G1 X-9.965 Y5.578 E0.00188
G1 X-10.471 Y4.557 E0.02191
G1 X-10.51 Y4.468 E0.00188
G1 X-10.903 Y3.399 E0.02191
G1 X-11.079 Y2.712 E0.01364
G1 X-11.079 Y11.172 E0.16275
G1 X-9.867 Y11.169 E0.02331
G1 X-8.923 Y11.149 E0.01816
G1 X-7.921 Y11.167 E0.01929
G1 X-7.921 Y9.37 E0.03456
G1 X-7.906 Y9.206 E0.00318
G1 X-7.62 Y8.699 E0.0112
G1 X-7.535 Y8.644 E0.00194
M106 S255
M204 P1000 T1000
G1 X-7.033 Y8.618 F9000
;WIDTH:0.50709
M106 S255
G1 F1200
G1 X-7.075 Y8.588 E0.00179
M106 S255
;WIDTH:0.477506
M106 S255
G1 X-7.126 Y8.552 E0.00204
M106 S255
;WIDTH:0.447922
M106 S255
G1 X-7.177 Y8.515 E0.0019
M106 S255
;WIDTH:0.418337
M106 S255
G1 X-7.229 Y8.479 E0.00176
M106 S255
;WIDTH:0.388753
M106 S255
G1 X-7.28 Y8.443 E0.00162
M106 S255
;WIDTH:0.359168
M106 S255
G1 X-7.331 Y8.406 E0.00149
M106 S255
;WIDTH:0.329584
M106 S255
G1 X-7.382 Y8.37 E0.00134
M106 S255
;WIDTH:0.299999
M106 S255
G1 X-7.433 Y8.334 E0.00121
G1 X-8.286 Y7.481 E0.02321
G1 X-8.333 Y7.429 E0.00134
G1 X-9.046 Y6.541 E0.02192
G1 X-9.087 Y6.484 E0.00133
G1 X-9.701 Y5.524 E0.02192
G1 X-9.735 Y5.464 E0.00134
G1 X-10.241 Y4.443 E0.02192
G1 X-10.268 Y4.379 E0.00134
G1 X-10.661 Y3.31 E0.02191
G1 X-10.682 Y3.243 E0.00134
G1 X-10.831 Y2.694 E0.01096
M106 S255
;WIDTH:0.349305
M106 S255
G1 X-10.981 Y2.144 E0.01307
G1 X-11.011 Y1.89 E0.00587
M106 S255
;WIDTH:0.325505
M106 S255
G1 X-11.042 Y1.635 E0.00541
G1 X-11.06 Y1.593 E0.00098
M106 S255
;WIDTH:0.354063
M106 S255
G1 X-11.079 Y1.551 E0.00107
M106 S255
;WIDTH:0.382621
M106 S255
G1 X-11.097 Y1.509 E0.00117
M106 S255
;WIDTH:0.411178
M106 S255
G1 X-11.116 Y1.467 E0.00127
M106 S255
;WIDTH:0.439736
M106 S255
G1 X-11.135 Y1.424 E0.00137
M106 S255
;WIDTH:0.468294
M106 S255
G1 X-11.153 Y1.382 E0.00147
M106 S255
;WIDTH:0.496851
M106 S255
G1 X-11.172 Y1.34 E0.00157
M106 S255
;WIDTH:0.525409
M106 S255
G1 X-11.19 Y1.298 E0.00166
M106 S255
;WIDTH:0.553966
M106 S255
G1 X-11.209 Y1.255 E0.00177
G1 X-11.222 Y1.3 E0.00176
M106 S255
;WIDTH:0.525409
M106 S255
G1 X-11.234 Y1.344 E0.00167
M106 S255
;WIDTH:0.496851
M106 S255
G1 X-11.247 Y1.389 E0.00156
M106 S255
;WIDTH:0.468294
M106 S255
G1 X-11.26 Y1.433 E0.00147
M106 S255
;WIDTH:0.439736
M106 S255
G1 X-11.272 Y1.477 E0.00137
M106 S255
;WIDTH:0.411178
M106 S255
G1 X-11.285 Y1.522 E0.00127
M106 S255
;WIDTH:0.382621
M106 S255
G1 X-11.298 Y1.566 E0.00118
M106 S255
;WIDTH:0.354063
M106 S255
G1 X-11.31 Y1.61 E0.00107
M106 S255
;WIDTH:0.325505
M106 S255
G1 X-11.323 Y1.655 E0.00097
G1 X-11.317 Y1.919 E0.00561
M106 S255
;WIDTH:0.349305
M106 S255
G1 X-11.311 Y2.184 E0.00607
G1 X-11.324 Y2.754 E0.01306
M106 S255
;WIDTH:0.299999
M106 S255
G1 X-11.336 Y3.324 E0.01097
G1 X-11.336 Y11.424 E0.15585
G1 X-11.155 Y11.429 E0.00347
G1 X-9.864 Y11.426 E0.02484
G1 X-8.918 Y11.406 E0.0182
G1 X-8.893 Y11.406 E0.00049
G1 X-7.721 Y11.428 E0.02255
G1 X-7.664 Y11.426 E0.00109
G1 X-7.664 Y9.37 E0.03955
G1 X-7.653 Y9.253 E0.00227
G1 X-7.449 Y8.891 E0.00801
G1 X-7.396 Y8.857 E0.0012
M106 S255
;WIDTH:0.329584
M106 S255
G1 X-7.343 Y8.824 E0.00135
M106 S255
;WIDTH:0.359168
M106 S255
G1 X-7.29 Y8.791 E0.00148
M106 S255
;WIDTH:0.388753
M106 S255
G1 X-7.237 Y8.757 E0.00162
M106 S255
;WIDTH:0.418337
M106 S255
G1 X-7.183 Y8.724 E0.00176
M106 S255
;WIDTH:0.447922
M106 S255
G1 X-7.13 Y8.691 E0.0019
M106 S255
;WIDTH:0.477506
M106 S255
G1 X-7.077 Y8.657 E0.00204
M106 S255
;WIDTH:0.50709
M106 S255
G1 X-7.066 Y8.65 E0.00048
M106 S255
G1 X-6.176 Y8.089 F9000
;WIDTH:0.299999
M106 S255
G1 F1200
G1 X-6.398 Y8.089 E0.00428
G1 X-6.441 Y8.232 E0.00288
G1 X-6.486 Y8.275 E0.0012
M106 S255
;WIDTH:0.327102
M106 S255
G1 X-6.531 Y8.318 E0.00132
M106 S255
;WIDTH:0.354204
M106 S255
G1 X-6.576 Y8.361 E0.00145
M106 S255
;WIDTH:0.381306
M106 S255
G1 X-6.621 Y8.404 E0.00157
M106 S255
;WIDTH:0.408409
M106 S255
G1 X-6.666 Y8.447 E0.0017
M106 S255
;WIDTH:0.435511
M106 S255
G1 X-6.711 Y8.49 E0.00183
M106 S255
;WIDTH:0.462614
M106 S255
G1 X-6.756 Y8.533 E0.00195
M106 S255
;WIDTH:0.489716
M106 S255
G1 X-6.801 Y8.576 E0.00208
M106 S255
;WIDTH:0.516818
M106 S255
G1 X-6.846 Y8.619 E0.00221
G1 X-6.771 Y8.63 E0.00268
M106 S255
;WIDTH:0.489716
M106 S255
G1 X-6.697 Y8.642 E0.00252
M106 S255
;WIDTH:0.462614
M106 S255
G1 X-6.622 Y8.654 E0.00237
M106 S255
;WIDTH:0.435511
M106 S255
G1 X-6.548 Y8.666 E0.00222
M106 S255
;WIDTH:0.408409
M106 S255
G1 X-6.473 Y8.677 E0.00207
M106 S255
;WIDTH:0.381306
M106 S255
G1 X-6.398 Y8.689 E0.00191
M106 S255
;WIDTH:0.354204
M106 S255
G1 X-6.324 Y8.701 E0.00176
M106 S255
;WIDTH:0.327102
M106 S255
G1 X-6.249 Y8.713 E0.00161
M106 S255
;WIDTH:0.299999
M106 S255
G1 X-6.175 Y8.725 E0.00145
G1 X-2.08 Y8.71 E0.07877
G1 X-2.073 Y8.259 E0.00867
M106 S255
M106 S255
G1 X-2.075 Y8.089 E0.00328
G1 X-6.116 Y8.089 E0.07773
M106 S255
G1 X-6.176 Y8.407 F9000
;WIDTH:0.421626
M106 S255
G1 F1200
G1 X-2.386 Y8.4 E0.1074
M106 S255
G1 E-0.63 F2100
;WIPE_START
G1 F7200
G1 X-2.626 Y8.4 E-0.0665
;WIPE_END
G1 E-0.0035 F2100
G1 Z38.2 F9000
; acceleration to travel
M204 P1000 T1500
G1 X-9.416 Y-0.604
; decel to extrusion
M204 P1000 T1000
G1 X-11.075 Y-2.805
; end travel
M204 P1000 T1500
G1 Z38.000000
G1 E0.7 F2100
;WIDTH:0.299999
M106 S255
G1 F1200
G1 X-10.736 Y-3.892 E0.02192
G1 X-10.703 Y-3.984 E0.00187
G1 X-10.252 Y-5.03 E0.02192
G1 X-10.209 Y-5.118 E0.00187
G1 X-9.648 Y-6.109 E0.02192
G1 X-9.596 Y-6.191 E0.00188
G1 X-8.931 Y-7.117 E0.02191
G1 X-8.325 Y-7.801 E0.01759
G1 X-7.921 Y-8.223 E0.01124
G1 X-7.921 Y-14.169 E0.11439
G1 X-9.138 Y-14.169 E0.02341
G1 X-10.084 Y-14.157 E0.01821
G1 X-11.079 Y-14.17 E0.01913
G1 X-11.079 Y-3.944 E0.19674
G1 X-11.075 Y-2.865 E0.02077
M106 S255
M204 P1000 T1000
G1 X-11.075 Y-1.939 F9000
;WIDTH:0.469205
M106 S255
G1 F1200
G1 X-11.066 Y-1.965 E0.00088
G1 X-11.034 Y-2.065 E0.00337
M106 S255
;WIDTH:0.441004
M106 S255
G1 X-11.002 Y-2.164 E0.00311
M106 S255
;WIDTH:0.412803
M106 S255
G1 X-10.97 Y-2.263 E0.00289
M106 S255
;WIDTH:0.384602
M106 S255
G1 X-10.938 Y-2.362 E0.00267
M106 S255
;WIDTH:0.356401
M106 S255
G1 X-10.906 Y-2.462 E0.00245
M106 S255
;WIDTH:0.3282
M106 S255
G1 X-10.874 Y-2.561 E0.00222
M106 S255
;WIDTH:0.299999
M106 S255
G1 X-10.842 Y-2.66 E0.00201
G1 X-10.825 Y-2.728 E0.00134
G1 X-10.49 Y-3.817 E0.02192
G1 X-10.466 Y-3.882 E0.00134
G1 X-10.016 Y-4.929 E0.02191
G1 X-9.985 Y-4.991 E0.00134
G1 X-9.425 Y-5.983 E0.02192
G1 X-9.387 Y-6.041 E0.00134
G1 X-8.723 Y-6.967 E0.02192
G1 X-8.133 Y-7.629 E0.01705
G1 X-7.664 Y-8.112 E0.01296
G1 X-7.664 Y-14.423 E0.12141
G1 X-7.816 Y-14.426 E0.00292
G1 X-9.139 Y-14.426 E0.02547
G1 X-10.104 Y-14.414 E0.01855
G1 X-11.284 Y-14.43 E0.0227
G1 X-11.336 Y-14.428 E0.001
G1 X-11.336 Y-2.707 E0.2255
G1 X-11.323 Y-2.604 E0.00201
M106 S255
;WIDTH:0.3282
M106 S255
G1 X-11.31 Y-2.5 E0.00223
M106 S255
;WIDTH:0.356401
M106 S255
G1 X-11.297 Y-2.397 E0.00244
M106 S255
;WIDTH:0.384602
M106 S255
G1 X-11.285 Y-2.293 E0.00267
M106 S255
;WIDTH:0.412803
M106 S255
G1 X-11.272 Y-2.19 E0.00289
M106 S255
;WIDTH:0.441004
M106 S255
G1 X-11.259 Y-2.086 E0.00311
M106 S255
;WIDTH:0.469205
M106 S255
G1 X-11.246 Y-1.982 E0.00333
M106 S255
;WIDTH:0.497406
M106 S255
